(.../EAGLE 9.2.0/ulp/pcb-gcode.ulp)
(Copyright 2005 - 2012 by John Johnson)
(See readme.txt for licensing terms.)
(This file generated from the board:)
(.../projects/Sensor IR/Sensor IR.brd)
(Current profile is .../EAGLE 9.2.0/ulp/profiles/mach.pp  )
(This file generated 6/2/2019 11:53)
(Settings from pcb-machine.h)
(spindle on time = 2.0000)
(spindle speed = 20000.0000)
(tool change at 0.0000  0.0000  12.7000 )
(feed rate xy = F0     )
(feed rate z  = F50    )
(Z Axis Settings)
(  High     Up        Down     Drill)
(10.0000 	10.0000 	-0.0250 	-1.7000 )
(Settings from pcb-defaults.h)
(isolate min = 0.0100)
(isolate max = 0.5500)
(isolate step = 0.2500)
(Generated bottom outlines, bottom drill, )
(Unit of measure: mm)
( Tool|       Size       |  Min Sub |  Max Sub |   Count )
( T01 | 0.350mm 0.0138in | 0.0000in | 0.0000in |       0 )
( T02 | 0.813mm 0.0320in | 0.0000in | 0.0000in |       0 )
( T03 | 0.914mm 0.0360in | 0.0000in | 0.0000in |       0 )
( T04 | 1.321mm 0.0520in | 0.0000in | 0.0000in |       0 )
(Metric Mode)
G21
(Absolute Coordinates)
G90
S20000
G00 Z10.0000 
G00 X0.0000  Y0.0000  
M03
G04 P2.000000
M05
G00 Z12.7000 
M06 T01  ; 0.3500  
G01 Z0.0000  F50    
M06 
G00 Z10.0000 
M03
G04 P2.000000
G82 X-34.2900 Y28.9560 Z-1.7000 F50    R10.0000 P0.000000
G82 X-44.1960 Y28.9560 
M05
G00 Z12.7000 
G00 X0.0000  Y0.0000  
M06 T02  ; 0.8128  
G01 Z0.0000  F50    
M06 
G00 Z10.0000 
M03
G04 P2.000000
G82 X-13.0810 Y16.0020 Z-1.7000 F50    R10.0000 P0.000000
G82 X-13.0810 Y20.9550 
G82 X-13.2080 Y10.9220 
G82 X-13.2080 Y5.8420  
G82 X-23.3680 Y5.8420  
G82 X-23.3680 Y10.9220 
G82 X-23.2410 Y16.0020 
G82 X-23.2410 Y20.9550 
G82 X-34.0360 Y21.0820 
G82 X-36.5760 Y17.2720 
G82 X-39.1160 Y17.2720 
G82 X-41.6560 Y17.2720 
G82 X-44.1960 Y17.2720 
G82 X-46.7360 Y17.2720 
G82 X-49.2760 Y17.2720 
G82 X-51.8160 Y17.2720 
G82 X-56.8960 Y21.0820 
G82 X-56.8960 Y26.1620 
G82 X-59.9440 Y25.4000 
G82 X-63.2460 Y25.4000 
G82 X-67.0560 Y25.4000 
G82 X-67.0560 Y15.2400 
G82 X-68.3260 Y12.7000 
G82 X-63.2460 Y15.2400 
G82 X-59.9440 Y15.2400 
G82 X-58.1660 Y12.7000 
G82 X-51.8160 Y9.6520  
G82 X-49.2760 Y9.6520  
G82 X-46.7360 Y9.6520  
G82 X-44.1960 Y9.6520  
G82 X-41.6560 Y9.6520  
G82 X-39.1160 Y9.6520  
G82 X-36.5760 Y9.6520  
G82 X-33.5280 Y5.3340  
G82 X-43.6880 Y5.3340  
G82 X-46.2280 Y5.3340  
G82 X-56.3880 Y5.3340  
G82 X-46.7360 Y21.0820 
G82 X-44.1960 Y21.0820 
G82 X-44.1960 Y26.1620 
G82 X-46.7360 Y26.1620 
G82 X-34.0360 Y26.1620 
M05
G00 Z12.7000 
G00 X0.0000  Y0.0000  
M06 T03  ; 0.9144  
G01 Z0.0000  F50    
M06 
G00 Z10.0000 
M03
G04 P2.000000
G82 X-28.9560 Y5.8420  Z-1.7000 F50    R10.0000 P0.000000
G82 X-28.9560 Y8.3820  
G82 X-28.9560 Y10.9220 
G82 X-28.9560 Y16.0020 
G82 X-28.9560 Y18.5420 
G82 X-28.9560 Y21.0820 
M05
G00 Z12.7000 
G00 X0.0000  Y0.0000  
M06 T04  ; 1.3208  
G01 Z0.0000  F50    
M06 
G00 Z10.0000 
M03
G04 P2.000000
G82 X-7.8740 Y5.9436  Z-1.7000 F50    R10.0000 P0.000000
G82 X-7.8740 Y10.9728 
G82 X-7.8740 Y15.9512 
G82 X-7.8740 Y20.9804 
G82 X-29.1338 Y32.5120 
G82 X-34.1376 Y32.5120 
G82 X-39.1414 Y32.5120 
G82 X-44.1706 Y32.5120 
G82 X-49.1744 Y32.5120 
G82 X-54.1782 Y32.5120 
G82 X-73.4060 Y20.9804 
G82 X-73.4060 Y15.9512 
G82 X-73.4060 Y10.9728 
G82 X-73.4060 Y5.9436  
T01 
M05
M02
