(.../EAGLE 9.2.0/ulp/pcb-gcode.ulp)
(Copyright 2005 - 2012 by John Johnson)
(See readme.txt for licensing terms.)
(This file generated from the board:)
(.../projects/Sensor IR/Sensor IR.brd)
(Current profile is .../EAGLE 9.2.0/ulp/profiles/mach.pp  )
(This file generated 6/2/2019 11:51)
(Settings from pcb-machine.h)
(spindle on time = 2.0000)
(  Tool Size)
(0.2000  )
(spindle speed = 40000.0000)
(tool change at 0.0000  0.0000  12.7000 )
(feed rate xy = F150   )
(feed rate z  = F100   )
(Z Axis Settings)
(  High     Up        Down     Drill)
(10.0000 	10.0000 	-0.0250 	-1.7000 )
(Settings from pcb-defaults.h)
(isolate min = 0.0100)
(isolate max = 0.5500)
(isolate step = 0.2500)
(Generated bottom outlines, bottom drill, )
(Unit of measure: mm)
(Metric Mode)
G21
(Absolute Coordinates)
G90
S40000
G00 Z10.0000 
G00 X0.0000  Y0.0000  
M03
G04 P2.000000
G00 X-1.0092 Y1.1053  
G01 Z-0.0250 F100   
G01 X-0.9412 Y1.2231  F150   
G01 X-0.9060 Y1.3544  
G01 X-0.9060 Y37.6156 
G01 X-0.9060 Y37.7516 
G01 X-0.9412 Y37.8829 
G01 X-1.0092 Y38.0007 
G01 X-1.1053 Y38.0968 
G01 X-1.2231 Y38.1648 
G01 X-1.3544 Y38.2000 
G01 X-77.8176 Y38.2000 
G01 X-77.9489 Y38.1648 
G01 X-78.0667 Y38.0968 
G01 X-78.1628 Y38.0007 
G01 X-78.2308 Y37.8829 
G01 X-78.2660 Y37.7516 
G01 X-78.2660 Y1.3544  
G01 X-78.2308 Y1.2231  
G01 X-78.1628 Y1.1053  
G01 X-78.0667 Y1.0092  
G01 X-77.9489 Y0.9412  
G01 X-77.8176 Y0.9060  
G01 X-1.3544 Y0.9060  
G01 X-1.2231 Y0.9412  
G01 X-1.1053 Y1.0092  
G01 X-1.0092 Y1.1053  
G00 Z10.0000 
G00 X-6.0130 Y4.8310  
G01 Z-0.0250 F100   
G01 X-6.4953 Y4.6312  F150   
G01 X-9.2526 Y4.6312  
G01 X-9.7350 Y4.8310  
G01 X-10.0471 Y5.1431  
G01 X-10.1432 Y5.2392  
G01 X-10.2610 Y5.3072  
G01 X-10.3923 Y5.3424  
G01 X-12.0649 Y5.3424  
G01 X-12.1962 Y5.3072  
G01 X-12.3140 Y5.2392  
G01 X-12.7696 Y4.7836  
G01 X-13.2703 Y4.7836  
G01 X-13.4016 Y4.7484  
G01 X-13.5193 Y4.6804  
G01 X-15.6256 Y2.5741  
G01 X-15.9154 Y2.2843  
G01 X-16.1364 Y2.1928  
G01 X-26.0276 Y2.1928  
G01 X-26.2486 Y2.2843  
G01 X-28.4977 Y4.5335  
G01 X-28.5938 Y4.6296  
G01 X-28.7116 Y4.6976  
G01 X-28.8429 Y4.7328  
G01 X-30.0910 Y4.7328  
G01 X-30.4987 Y4.9017  
G01 X-30.8107 Y5.2137  
G01 X-30.9796 Y5.6214  
G01 X-30.9796 Y6.0626  
G01 X-30.8107 Y6.4703  
G01 X-30.5823 Y6.6988  
G01 X-30.4861 Y6.7949  
G01 X-30.4181 Y6.9127  
G01 X-30.3920 Y7.0103  
G01 X-30.3829 Y7.0440  
G01 X-30.3829 Y7.1800  
G01 X-30.4181 Y7.3113  
G01 X-30.4861 Y7.4291  
G01 X-30.6385 Y7.5815  
G01 X-30.7347 Y7.6776  
G01 X-30.8524 Y7.7456  
G01 X-30.9838 Y7.7808  
G01 X-31.6156 Y7.7808  
G01 X-31.8366 Y7.8723  
G01 X-31.9972 Y8.0329  
G01 X-32.0933 Y8.1291  
G01 X-32.2111 Y8.1971  
G01 X-32.3087 Y8.2232  
G01 X-32.3424 Y8.2323  
G01 X-32.4784 Y8.2323  
G01 X-32.6097 Y8.1971  
G01 X-32.7275 Y8.1291  
G01 X-32.8236 Y8.0330  
G01 X-32.8916 Y7.9152  
G01 X-32.9178 Y7.8176  
G01 X-32.9268 Y7.7839  
G01 X-32.9268 Y6.3755  
G01 X-32.9190 Y6.3466  
G01 X-32.8916 Y6.2442  
G01 X-32.8236 Y6.1264  
G01 X-32.7275 Y6.0303  
G01 X-32.4696 Y5.7724  
G01 X-32.4696 Y4.8956  
G01 X-33.0896 Y4.2756  
G01 X-33.9664 Y4.2756  
G01 X-34.5864 Y4.8956  
G01 X-34.5864 Y5.7724  
G01 X-34.3285 Y6.0303  
G01 X-34.2324 Y6.1264  
G01 X-34.1644 Y6.2442  
G01 X-34.1363 Y6.3489  
G01 X-34.1292 Y6.3755  
G01 X-34.1292 Y7.4791  
G01 X-34.1644 Y7.6104  
G01 X-34.2324 Y7.7281  
G01 X-34.8196 Y8.3154  
G01 X-34.8404 Y8.3425  
G01 X-34.8675 Y8.3633  
G01 X-34.8916 Y8.3874  
G01 X-34.9212 Y8.4045  
G01 X-34.9483 Y8.4253  
G01 X-34.9798 Y8.4383  
G01 X-35.0094 Y8.4554  
G01 X-35.0424 Y8.4642  
G01 X-35.0739 Y8.4773  
G01 X-35.1078 Y8.4817  
G01 X-35.1407 Y8.4906  
G01 X-35.1749 Y8.4906  
G01 X-35.2087 Y8.4950  
G01 X-35.2426 Y8.4906  
G01 X-35.2767 Y8.4906  
G01 X-35.3097 Y8.4817  
G01 X-35.3435 Y8.4773  
G01 X-35.3751 Y8.4642  
G01 X-35.4080 Y8.4554  
G01 X-35.4376 Y8.4383  
G01 X-35.4691 Y8.4253  
G01 X-35.4962 Y8.4045  
G01 X-35.5258 Y8.3874  
G01 X-35.5499 Y8.3633  
G01 X-35.5770 Y8.3425  
G01 X-35.5978 Y8.3154  
G01 X-35.6219 Y8.2913  
G01 X-35.6390 Y8.2617  
G01 X-35.6598 Y8.2346  
G01 X-35.6728 Y8.2031  
G01 X-35.6842 Y8.1834  
G01 X-35.9765 Y7.8911  
G01 X-36.3655 Y7.7300  
G01 X-36.7865 Y7.7300  
G01 X-37.1755 Y7.8911  
G01 X-37.4328 Y8.1484  
G01 X-37.5289 Y8.2445  
G01 X-37.6467 Y8.3125  
G01 X-37.7443 Y8.3387  
G01 X-37.7780 Y8.3477  
G01 X-37.9140 Y8.3477  
G01 X-38.0453 Y8.3125  
G01 X-38.1631 Y8.2445  
G01 X-38.5165 Y7.8911  
G01 X-38.9055 Y7.7300  
G01 X-39.3265 Y7.7300  
G01 X-39.7155 Y7.8911  
G01 X-39.9728 Y8.1484  
G01 X-40.0689 Y8.2445  
G01 X-40.1867 Y8.3125  
G01 X-40.2843 Y8.3387  
G01 X-40.3180 Y8.3477  
G01 X-40.4540 Y8.3477  
G01 X-40.5853 Y8.3125  
G01 X-40.7031 Y8.2445  
G01 X-41.0565 Y7.8911  
G01 X-41.4455 Y7.7300  
G01 X-41.8665 Y7.7300  
G01 X-42.2555 Y7.8911  
G01 X-42.5890 Y8.2246  
G01 X-42.6147 Y8.2564  
G01 X-42.6369 Y8.2724  
G01 X-42.6562 Y8.2918  
G01 X-42.6916 Y8.3123  
G01 X-42.7247 Y8.3363  
G01 X-42.7503 Y8.3461  
G01 X-42.7739 Y8.3598  
G01 X-42.8135 Y8.3704  
G01 X-42.8517 Y8.3850  
G01 X-42.8789 Y8.3879  
G01 X-42.9053 Y8.3950  
G01 X-42.9462 Y8.3950  
G01 X-42.9869 Y8.3992  
G01 X-43.0139 Y8.3950  
G01 X-43.0412 Y8.3950  
G01 X-43.0808 Y8.3844  
G01 X-43.1212 Y8.3780  
G01 X-43.1462 Y8.3668  
G01 X-43.1726 Y8.3598  
G01 X-43.2080 Y8.3393  
G01 X-43.2454 Y8.3227  
G01 X-43.2667 Y8.3055  
G01 X-43.2903 Y8.2918  
G01 X-43.3193 Y8.2628  
G01 X-43.3511 Y8.2371  
G01 X-43.3672 Y8.2150  
G01 X-43.3865 Y8.1956  
G01 X-43.4070 Y8.1602  
G01 X-43.4274 Y8.1320  
G01 X-43.5396 Y8.0198  
G01 X-43.6679 Y7.9266  
G01 X-43.6796 Y7.9625  
G01 X-43.5754 Y8.0322  
G01 X-43.4398 Y8.1678  
G01 X-43.3332 Y8.3272  
G01 X-43.2598 Y8.5044  
G01 X-43.2224 Y8.6925  
G01 X-43.2224 Y10.6115 
G01 X-43.2598 Y10.7996 
G01 X-43.3332 Y10.9768 
G01 X-43.4398 Y11.1362 
G01 X-43.5754 Y11.2718 
G01 X-43.6796 Y11.3415 
G01 X-43.6796 Y11.3833 
G01 X-43.5396 Y11.2842 
G01 X-43.4274 Y11.1720 
G01 X-43.4070 Y11.1438 
G01 X-43.3865 Y11.1084 
G01 X-43.3672 Y11.0890 
G01 X-43.3511 Y11.0669 
G01 X-43.3193 Y11.0412 
G01 X-43.2903 Y11.0122 
G01 X-43.2667 Y10.9985 
G01 X-43.2454 Y10.9813 
G01 X-43.2080 Y10.9647 
G01 X-43.1726 Y10.9442 
G01 X-43.1462 Y10.9371 
G01 X-43.1212 Y10.9260 
G01 X-43.0808 Y10.9196 
G01 X-43.0412 Y10.9090 
G01 X-43.0139 Y10.9090 
G01 X-42.9869 Y10.9048 
G01 X-42.9462 Y10.9090 
G01 X-42.9053 Y10.9090 
G01 X-42.8789 Y10.9161 
G01 X-42.8517 Y10.9190 
G01 X-42.8135 Y10.9336 
G01 X-42.7739 Y10.9442 
G01 X-42.7503 Y10.9579 
G01 X-42.7247 Y10.9677 
G01 X-42.6916 Y10.9917 
G01 X-42.6562 Y11.0122 
G01 X-42.6369 Y11.0315 
G01 X-42.6147 Y11.0476 
G01 X-42.5890 Y11.0794 
G01 X-42.2555 Y11.4129 
G01 X-41.9717 Y11.5304 
G01 X-41.9387 Y11.5393 
G01 X-41.9092 Y11.5563 
G01 X-41.8776 Y11.5694 
G01 X-41.8505 Y11.5902 
G01 X-41.8210 Y11.6073 
G01 X-41.7968 Y11.6314 
G01 X-41.7697 Y11.6522 
G01 X-41.7490 Y11.6793 
G01 X-40.7266 Y12.7017 
G01 X-40.5056 Y12.7932 
G01 X-35.1864 Y12.7932 
G01 X-34.9654 Y12.7017 
G01 X-34.7718 Y12.5080 
G01 X-31.4556 Y9.1919  
G01 X-31.3595 Y9.0957  
G01 X-31.2417 Y9.0277  
G01 X-31.1104 Y8.9925  
G01 X-30.9744 Y8.9925  
G01 X-30.8431 Y9.0277  
G01 X-30.7253 Y9.0957  
G01 X-30.5823 Y9.2388  
G01 X-30.4861 Y9.3349  
G01 X-30.4181 Y9.4527  
G01 X-30.3829 Y9.5840  
G01 X-30.3829 Y9.7200  
G01 X-30.4181 Y9.8513  
G01 X-30.4861 Y9.9691  
G01 X-30.8107 Y10.2937 
G01 X-30.9796 Y10.7014 
G01 X-30.9796 Y11.1426 
G01 X-30.8107 Y11.5503 
G01 X-30.4987 Y11.8623 
G01 X-30.0910 Y12.0312 
G01 X-27.8210 Y12.0312 
G01 X-27.4133 Y11.8623 
G01 X-27.1013 Y11.5503 
G01 X-26.9324 Y11.1426 
G01 X-26.9324 Y10.9105 
G01 X-26.8972 Y10.7792 
G01 X-26.8292 Y10.6614 
G01 X-25.6523 Y9.4846  
G01 X-25.5608 Y9.2636  
G01 X-25.5608 Y6.4909  
G01 X-25.5256 Y6.3596  
G01 X-25.4576 Y6.2418  
G01 X-25.3615 Y6.1457  
G01 X-25.3052 Y6.0895  
G01 X-25.2091 Y5.9933  
G01 X-25.1019 Y5.9314  
G01 X-25.0289 Y5.9086  
G01 X-24.9600 Y5.8901  
G01 X-24.8240 Y5.8901  
G01 X-24.6927 Y5.9253  
G01 X-24.6055 Y5.9756  
G01 X-24.5749 Y5.9933  
G01 X-24.4788 Y6.0894  
G01 X-24.4169 Y6.1966  
G01 X-24.4046 Y6.2304  
G01 X-23.8844 Y6.7505  
G01 X-23.8844 Y6.7025  
G01 X-24.3416 Y6.2453  
G01 X-24.3416 Y5.4387  
G01 X-23.7713 Y4.8684  
G01 X-22.9647 Y4.8684  
G01 X-22.5075 Y5.3256  
G01 X-22.3692 Y5.3256  
G01 X-22.3745 Y5.3059  
G01 X-22.3895 Y5.2496  
G01 X-22.3895 Y5.1809  
G01 X-22.3895 Y5.1136  
G01 X-22.3675 Y5.0312  
G01 X-22.3544 Y4.9823  
G01 X-22.3113 Y4.9078  
G01 X-22.2864 Y4.8645  
G01 X-22.2218 Y4.7999  
G01 X-22.1902 Y4.7684  
G01 X-22.1002 Y4.7164  
G01 X-22.0725 Y4.7004  
G01 X-21.9974 Y4.6803  
G01 X-21.9412 Y4.6652  
G01 X-21.8724 Y4.6652  
G01 X-21.8052 Y4.6652  
G01 X-17.9209 Y4.6652  
G01 X-17.7896 Y4.7004  
G01 X-17.6718 Y4.7684  
G01 X-14.0085 Y8.4317  
G01 X-13.9124 Y8.5278  
G01 X-13.8444 Y8.6456  
G01 X-13.8092 Y8.7769  
G01 X-13.8092 Y9.8805  
G01 X-13.8170 Y9.9094  
G01 X-13.8444 Y10.0118 
G01 X-13.9124 Y10.1296 
G01 X-14.0085 Y10.2257 
G01 X-14.2664 Y10.4836 
G01 X-14.2664 Y11.3604 
G01 X-13.6464 Y11.9804 
G01 X-12.7696 Y11.9804 
G01 X-12.5625 Y11.7733 
G01 X-12.4664 Y11.6772 
G01 X-12.3486 Y11.6092 
G01 X-12.2510 Y11.5830 
G01 X-12.2173 Y11.5740 
G01 X-10.3923 Y11.5740 
G01 X-10.2610 Y11.6092 
G01 X-10.1432 Y11.6772 
G01 X-9.7350 Y12.0854 
G01 X-9.2526 Y12.2852 
G01 X-6.4953 Y12.2852 
G01 X-6.0130 Y12.0854 
G01 X-5.6438 Y11.7162 
G01 X-5.4440 Y11.2339 
G01 X-5.4440 Y10.7117 
G01 X-5.6438 Y10.2294 
G01 X-6.0130 Y9.8602  
G01 X-6.4953 Y9.6604  
G01 X-9.2526 Y9.6604  
G01 X-9.7350 Y9.8602  
G01 X-10.0471 Y10.1723 
G01 X-10.1432 Y10.2684 
G01 X-10.2610 Y10.3364 
G01 X-10.3923 Y10.3716 
G01 X-12.1157 Y10.3716 
G01 X-12.2470 Y10.3364 
G01 X-12.3648 Y10.2684 
G01 X-12.4075 Y10.2257 
G01 X-12.5036 Y10.1296 
G01 X-12.5716 Y10.0118 
G01 X-12.6068 Y9.8805  
G01 X-12.6068 Y8.2624  
G01 X-12.6983 Y8.0414  
G01 X-12.9097 Y7.8300  
G01 X-13.0059 Y7.7339  
G01 X-13.0739 Y7.6161  
G01 X-13.1000 Y7.5185  
G01 X-13.1091 Y7.4848  
G01 X-13.1091 Y7.3488  
G01 X-13.0739 Y7.2175  
G01 X-13.0059 Y7.0997  
G01 X-12.9098 Y7.0036  
G01 X-12.8223 Y6.9531  
G01 X-12.6133 Y6.7441  
G01 X-12.5172 Y6.6480  
G01 X-12.3994 Y6.5800  
G01 X-12.2681 Y6.5448  
G01 X-10.3923 Y6.5448  
G01 X-10.2610 Y6.5800  
G01 X-10.1432 Y6.6480  
G01 X-9.7350 Y7.0562  
G01 X-9.2526 Y7.2560  
G01 X-6.4953 Y7.2560  
G01 X-6.0130 Y7.0562  
G01 X-5.6438 Y6.6870  
G01 X-5.4440 Y6.2046  
G01 X-5.4440 Y5.6825  
G01 X-5.6438 Y5.2002  
G01 X-6.0130 Y4.8310  
G00 Z10.0000 
G00 X-6.1130 Y4.8937  
G01 Z-0.0250 F100   
G01 X-5.9567 Y5.0072  F150   
G01 X-5.8200 Y5.1439  
G01 X-5.7065 Y5.3002  
G01 X-5.6187 Y5.4724  
G01 X-5.5590 Y5.6561  
G01 X-5.5288 Y5.8470  
G01 X-5.5288 Y6.0402  
G01 X-5.5590 Y6.2311  
G01 X-5.6187 Y6.4148  
G01 X-5.7065 Y6.5870  
G01 X-5.8200 Y6.7433  
G01 X-5.9567 Y6.8800  
G01 X-6.1130 Y6.9935  
G01 X-6.2852 Y7.0813  
G01 X-6.4689 Y7.1410  
G01 X-6.6598 Y7.1712  
G01 X-9.0882 Y7.1712  
G01 X-9.2791 Y7.1410  
G01 X-9.4628 Y7.0813  
G01 X-9.6350 Y6.9935  
G01 X-9.7913 Y6.8800  
G01 X-9.9280 Y6.7433  
G01 X-10.0415 Y6.5870  
G01 X-10.1062 Y6.4600  
G01 X-12.4491 Y6.4600  
G01 X-12.8047 Y6.8156  
G01 X-13.6113 Y6.8156  
G01 X-14.1816 Y6.2453  
G01 X-14.1816 Y5.5987  
G01 X-16.4699 Y3.3104  
G01 X-25.6941 Y3.3104  
G01 X-27.4134 Y5.0297  
G01 X-27.3886 Y5.0463  
G01 X-27.2459 Y5.1890  
G01 X-27.1338 Y5.3568  
G01 X-27.0566 Y5.5432  
G01 X-27.0172 Y5.7411  
G01 X-27.0172 Y5.9429  
G01 X-27.0566 Y6.1408  
G01 X-27.1338 Y6.3272  
G01 X-27.2459 Y6.4950  
G01 X-27.3886 Y6.6377  
G01 X-27.5564 Y6.7498  
G01 X-27.7428 Y6.8270  
G01 X-27.9407 Y6.8664  
G01 X-29.9713 Y6.8664  
G01 X-30.1692 Y6.8270  
G01 X-30.3556 Y6.7498  
G01 X-30.5234 Y6.6377  
G01 X-30.6661 Y6.4950  
G01 X-30.7782 Y6.3272  
G01 X-30.8554 Y6.1408  
G01 X-30.8948 Y5.9429  
G01 X-30.8948 Y5.7411  
G01 X-30.8554 Y5.5432  
G01 X-30.7782 Y5.3568  
G01 X-30.6661 Y5.1890  
G01 X-30.5234 Y5.0463  
G01 X-30.3556 Y4.9342  
G01 X-30.1692 Y4.8570  
G01 X-29.9713 Y4.8176  
G01 X-28.6619 Y4.8176  
G01 X-26.2251 Y2.3808  
G01 X-26.1073 Y2.3128  
G01 X-25.9760 Y2.2776  
G01 X-16.1880 Y2.2776  
G01 X-16.0567 Y2.3128  
G01 X-15.9389 Y2.3808  
G01 X-15.8428 Y2.4769  
G01 X-13.4513 Y4.8684  
G01 X-12.8047 Y4.8684  
G01 X-12.2459 Y5.4272  
G01 X-10.1062 Y5.4272  
G01 X-10.0415 Y5.3002  
G01 X-9.9280 Y5.1439  
G01 X-9.7913 Y5.0072  
G01 X-9.6350 Y4.8937  
G01 X-9.4628 Y4.8059  
G01 X-9.2791 Y4.7462  
G01 X-9.0882 Y4.7160  
G01 X-6.6598 Y4.7160  
G01 X-6.4689 Y4.7462  
G01 X-6.2852 Y4.8059  
G01 X-6.1130 Y4.8937  
G00 Z10.0000 
G00 X-6.1130 Y9.9229  
G01 Z-0.0250 F100   
G01 X-5.9567 Y10.0364 F150   
G01 X-5.8200 Y10.1731 
G01 X-5.7065 Y10.3294 
G01 X-5.6187 Y10.5016 
G01 X-5.5590 Y10.6853 
G01 X-5.5288 Y10.8762 
G01 X-5.5288 Y11.0694 
G01 X-5.5590 Y11.2603 
G01 X-5.6187 Y11.4440 
G01 X-5.7065 Y11.6162 
G01 X-5.8200 Y11.7725 
G01 X-5.9567 Y11.9092 
G01 X-6.1130 Y12.0227 
G01 X-6.2852 Y12.1105 
G01 X-6.4689 Y12.1702 
G01 X-6.6598 Y12.2004 
G01 X-9.0882 Y12.2004 
G01 X-9.2791 Y12.1702 
G01 X-9.4628 Y12.1105 
G01 X-9.6350 Y12.0227 
G01 X-9.7913 Y11.9092 
G01 X-9.9280 Y11.7725 
G01 X-10.0415 Y11.6162 
G01 X-10.1062 Y11.4892 
G01 X-12.3983 Y11.4892 
G01 X-12.8047 Y11.8956 
G01 X-13.6113 Y11.8956 
G01 X-14.1816 Y11.3253 
G01 X-14.1816 Y10.5187 
G01 X-13.7244 Y10.0615 
G01 X-13.7244 Y8.5959  
G01 X-17.7399 Y4.5804  
G01 X-23.9161 Y4.5804  
G01 X-25.6456 Y6.3099  
G01 X-25.6456 Y9.2120  
G01 X-25.6808 Y9.3433  
G01 X-25.7488 Y9.4611  
G01 X-27.0324 Y10.7447 
G01 X-27.0172 Y10.8211 
G01 X-27.0172 Y11.0229 
G01 X-27.0566 Y11.2208 
G01 X-27.1338 Y11.4072 
G01 X-27.2459 Y11.5750 
G01 X-27.3886 Y11.7177 
G01 X-27.5564 Y11.8298 
G01 X-27.7428 Y11.9070 
G01 X-27.9407 Y11.9464 
G01 X-29.9713 Y11.9464 
G01 X-30.1692 Y11.9070 
G01 X-30.3556 Y11.8298 
G01 X-30.5234 Y11.7177 
G01 X-30.6661 Y11.5750 
G01 X-30.7782 Y11.4072 
G01 X-30.8554 Y11.2208 
G01 X-30.8948 Y11.0229 
G01 X-30.8948 Y10.8211 
G01 X-30.8554 Y10.6232 
G01 X-30.7782 Y10.4368 
G01 X-30.6661 Y10.2690 
G01 X-30.5234 Y10.1263 
G01 X-30.3556 Y10.0142 
G01 X-30.1692 Y9.9370  
G01 X-29.9713 Y9.8976  
G01 X-27.9407 Y9.8976  
G01 X-27.7428 Y9.9370  
G01 X-27.7021 Y9.9538  
G01 X-26.6784 Y8.9301  
G01 X-26.6784 Y6.0280  
G01 X-26.6432 Y5.8967  
G01 X-26.5752 Y5.7789  
G01 X-26.4791 Y5.6828  
G01 X-24.4471 Y3.6508  
G01 X-24.3293 Y3.5828  
G01 X-24.1980 Y3.5476  
G01 X-17.4580 Y3.5476  
G01 X-17.3267 Y3.5828  
G01 X-17.2089 Y3.6508  
G01 X-17.1128 Y3.7469  
G01 X-12.7948 Y8.0649  
G01 X-12.7268 Y8.1827  
G01 X-12.6916 Y8.3140  
G01 X-12.6916 Y10.0615 
G01 X-12.2967 Y10.4564 
G01 X-10.1062 Y10.4564 
G01 X-10.0415 Y10.3294 
G01 X-9.9280 Y10.1731 
G01 X-9.7913 Y10.0364 
G01 X-9.6350 Y9.9229  
G01 X-9.4628 Y9.8351  
G01 X-9.2791 Y9.7754  
G01 X-9.0882 Y9.7452  
G01 X-6.6598 Y9.7452  
G01 X-6.4689 Y9.7754  
G01 X-6.2852 Y9.8351  
G01 X-6.1130 Y9.9229  
G00 Z10.0000 
G00 X-6.1130 Y14.9013 
G01 Z-0.0250 F100   
G01 X-5.9567 Y15.0148 F150   
G01 X-5.8200 Y15.1515 
G01 X-5.7065 Y15.3078 
G01 X-5.6187 Y15.4800 
G01 X-5.5590 Y15.6637 
G01 X-5.5288 Y15.8546 
G01 X-5.5288 Y16.0478 
G01 X-5.5590 Y16.2387 
G01 X-5.6187 Y16.4224 
G01 X-5.7065 Y16.5946 
G01 X-5.8200 Y16.7509 
G01 X-5.9567 Y16.8876 
G01 X-6.1130 Y17.0011 
G01 X-6.2852 Y17.0889 
G01 X-6.4689 Y17.1486 
G01 X-6.6598 Y17.1788 
G01 X-9.0882 Y17.1788 
G01 X-9.2791 Y17.1486 
G01 X-9.4628 Y17.0889 
G01 X-9.6350 Y17.0011 
G01 X-9.7913 Y16.8876 
G01 X-9.9280 Y16.7509 
G01 X-10.0415 Y16.5946 
G01 X-10.0804 Y16.5184 
G01 X-12.2205 Y16.5184 
G01 X-12.5646 Y16.8625 
G01 X-12.5646 Y18.4830 
G01 X-12.5998 Y18.6143 
G01 X-12.6678 Y18.7321 
G01 X-17.8748 Y23.9391 
G01 X-17.9709 Y24.0352 
G01 X-18.0887 Y24.1032 
G01 X-18.2200 Y24.1384 
G01 X-23.9440 Y24.1384 
G01 X-24.0753 Y24.1032 
G01 X-24.1931 Y24.0352 
G01 X-26.4791 Y21.7492 
G01 X-26.5752 Y21.6531 
G01 X-26.6432 Y21.5353 
G01 X-26.6784 Y21.4040 
G01 X-26.6784 Y17.7399 
G01 X-27.5277 Y16.8906 
G01 X-27.5564 Y16.9098 
G01 X-27.7428 Y16.9870 
G01 X-27.9407 Y17.0264 
G01 X-29.9713 Y17.0264 
G01 X-30.1692 Y16.9870 
G01 X-30.3556 Y16.9098 
G01 X-30.5234 Y16.7977 
G01 X-30.6661 Y16.6550 
G01 X-30.7782 Y16.4872 
G01 X-30.8554 Y16.3008 
G01 X-30.8948 Y16.1029 
G01 X-30.8948 Y15.9011 
G01 X-30.8554 Y15.7032 
G01 X-30.7782 Y15.5168 
G01 X-30.6661 Y15.3490 
G01 X-30.5234 Y15.2063 
G01 X-30.3556 Y15.0942 
G01 X-30.1692 Y15.0170 
G01 X-29.9713 Y14.9776 
G01 X-27.9407 Y14.9776 
G01 X-27.7428 Y15.0170 
G01 X-27.5564 Y15.0942 
G01 X-27.3886 Y15.2063 
G01 X-27.2459 Y15.3490 
G01 X-27.1338 Y15.5168 
G01 X-27.0566 Y15.7032 
G01 X-27.0172 Y15.9011 
G01 X-27.0172 Y15.9405 
G01 X-25.7488 Y17.2089 
G01 X-25.6808 Y17.3267 
G01 X-25.6456 Y17.4580 
G01 X-25.6456 Y21.1221 
G01 X-23.6621 Y23.1056 
G01 X-18.5019 Y23.1056 
G01 X-13.5974 Y18.2011 
G01 X-13.5974 Y16.8625 
G01 X-14.0546 Y16.4053 
G01 X-14.0546 Y15.5987 
G01 X-13.4843 Y15.0284 
G01 X-12.6777 Y15.0284 
G01 X-12.2205 Y15.4856 
G01 X-10.1311 Y15.4856 
G01 X-10.0415 Y15.3078 
G01 X-9.9280 Y15.1515 
G01 X-9.7913 Y15.0148 
G01 X-9.6350 Y14.9013 
G01 X-9.4628 Y14.8135 
G01 X-9.2791 Y14.7538 
G01 X-9.0882 Y14.7236 
G01 X-6.6598 Y14.7236 
G01 X-6.4689 Y14.7538 
G01 X-6.2852 Y14.8135 
G01 X-6.1130 Y14.9013 
G00 Z10.0000 
G00 X-3.7699 Y14.4864 
G01 Z-0.0250 F100   
G01 X-16.5016 Y14.4864 F150   
G01 X-16.5016 Y18.6100 
G01 X-16.5368 Y18.7413 
G01 X-16.6048 Y18.8591 
G01 X-16.7009 Y18.9552 
G01 X-19.1139 Y21.3682 
G01 X-19.2317 Y21.4362 
G01 X-19.3630 Y21.4714 
G01 X-22.3805 Y21.4714 
G01 X-22.8377 Y21.9286 
G01 X-23.6443 Y21.9286 
G01 X-24.2146 Y21.3583 
G01 X-24.2146 Y20.5517 
G01 X-23.6443 Y19.9814 
G01 X-22.8377 Y19.9814 
G01 X-22.3805 Y20.4386 
G01 X-19.6449 Y20.4386 
G01 X-17.5344 Y18.3281 
G01 X-17.5344 Y14.4864 
G01 X-21.4040 Y14.4864 
G01 X-21.5353 Y14.4512 
G01 X-21.6531 Y14.3832 
G01 X-21.7492 Y14.2871 
G01 X-23.7812 Y12.2551 
G01 X-23.8492 Y12.1373 
G01 X-23.8844 Y12.0060 
G01 X-23.8844 Y11.7825 
G01 X-24.3416 Y11.3253 
G01 X-24.3416 Y10.5187 
G01 X-23.7713 Y9.9484  
G01 X-22.9647 Y9.9484  
G01 X-22.3944 Y10.5187 
G01 X-22.3944 Y11.3253 
G01 X-22.8224 Y11.7533 
G01 X-21.1221 Y13.4536 
G01 X-3.4880 Y13.4536 
G01 X-3.3567 Y13.4888 
G01 X-3.2389 Y13.5568 
G01 X-3.1428 Y13.6529 
G01 X-2.3808 Y14.4149 
G01 X-2.3128 Y14.5327 
G01 X-2.2776 Y14.6640 
G01 X-2.2776 Y22.4200 
G01 X-2.3128 Y22.5513 
G01 X-2.3808 Y22.6691 
G01 X-2.4769 Y22.7652 
G01 X-6.2869 Y26.5752 
G01 X-6.4047 Y26.6432 
G01 X-6.5360 Y26.6784 
G01 X-27.4721 Y26.6784 
G01 X-28.4396 Y27.6459 
G01 X-28.4396 Y30.3814 
G01 X-28.3341 Y30.4580 
G01 X-28.1974 Y30.5947 
G01 X-28.0839 Y30.7510 
G01 X-27.9961 Y30.9232 
G01 X-27.9364 Y31.1069 
G01 X-27.9062 Y31.2978 
G01 X-27.9062 Y33.7262 
G01 X-27.9364 Y33.9171 
G01 X-27.9961 Y34.1008 
G01 X-28.0839 Y34.2730 
G01 X-28.1974 Y34.4293 
G01 X-28.3341 Y34.5660 
G01 X-28.4904 Y34.6795 
G01 X-28.6626 Y34.7673 
G01 X-28.8463 Y34.8270 
G01 X-29.0372 Y34.8572 
G01 X-29.2304 Y34.8572 
G01 X-29.4213 Y34.8270 
G01 X-29.6050 Y34.7673 
G01 X-29.7772 Y34.6795 
G01 X-29.9335 Y34.5660 
G01 X-30.0702 Y34.4293 
G01 X-30.1756 Y34.2841 
G01 X-32.2766 Y36.3851 
G01 X-32.3727 Y36.4812 
G01 X-32.4905 Y36.5492 
G01 X-32.6218 Y36.5844 
G01 X-51.8840 Y36.5844 
G01 X-52.0153 Y36.5492 
G01 X-52.1331 Y36.4812 
G01 X-53.8127 Y34.8016 
G01 X-53.8907 Y34.8270 
G01 X-54.0816 Y34.8572 
G01 X-54.2748 Y34.8572 
G01 X-54.4657 Y34.8270 
G01 X-54.6494 Y34.7673 
G01 X-54.8216 Y34.6795 
G01 X-54.9779 Y34.5660 
G01 X-55.1146 Y34.4293 
G01 X-55.2281 Y34.2730 
G01 X-55.3159 Y34.1008 
G01 X-55.3756 Y33.9171 
G01 X-55.4058 Y33.7262 
G01 X-55.4058 Y31.2978 
G01 X-55.3756 Y31.1069 
G01 X-55.3159 Y30.9232 
G01 X-55.2281 Y30.7510 
G01 X-55.1146 Y30.5947 
G01 X-54.9779 Y30.4580 
G01 X-54.8216 Y30.3445 
G01 X-54.6946 Y30.2797 
G01 X-54.6946 Y29.0937 
G01 X-55.3319 Y28.4564 
G01 X-60.0120 Y28.4564 
G01 X-60.1433 Y28.4212 
G01 X-60.2611 Y28.3532 
G01 X-60.3572 Y28.2571 
G01 X-60.4252 Y28.1393 
G01 X-60.4604 Y28.0080 
G01 X-60.4604 Y26.2605 
G01 X-60.8045 Y25.9164 
G01 X-62.3855 Y25.9164 
G01 X-62.8427 Y26.3736 
G01 X-63.6493 Y26.3736 
G01 X-64.2196 Y25.8033 
G01 X-64.2196 Y24.9967 
G01 X-63.6493 Y24.4264 
G01 X-62.8427 Y24.4264 
G01 X-62.3855 Y24.8836 
G01 X-60.8045 Y24.8836 
G01 X-60.3473 Y24.4264 
G01 X-59.5407 Y24.4264 
G01 X-58.9704 Y24.9967 
G01 X-58.9704 Y25.8033 
G01 X-59.4276 Y26.2605 
G01 X-59.4276 Y27.4236 
G01 X-55.0500 Y27.4236 
G01 X-54.9187 Y27.4588 
G01 X-54.8009 Y27.5268 
G01 X-53.7650 Y28.5627 
G01 X-53.6970 Y28.6805 
G01 X-53.6618 Y28.8118 
G01 X-53.6618 Y30.2797 
G01 X-53.5348 Y30.3445 
G01 X-53.3785 Y30.4580 
G01 X-53.2418 Y30.5947 
G01 X-53.1283 Y30.7510 
G01 X-53.0405 Y30.9232 
G01 X-52.9808 Y31.1069 
G01 X-52.9506 Y31.2978 
G01 X-52.9506 Y33.7262 
G01 X-52.9808 Y33.9171 
G01 X-53.0405 Y34.1008 
G01 X-51.6021 Y35.5516 
G01 X-47.9405 Y35.5516 
G01 X-45.3982 Y33.0093 
G01 X-45.3982 Y31.2978 
G01 X-45.3680 Y31.1069 
G01 X-45.3083 Y30.9232 
G01 X-45.2205 Y30.7510 
G01 X-45.1070 Y30.5947 
G01 X-44.9703 Y30.4580 
G01 X-44.8140 Y30.3445 
G01 X-44.6418 Y30.2567 
G01 X-44.4581 Y30.1970 
G01 X-44.2672 Y30.1668 
G01 X-44.0740 Y30.1668 
G01 X-43.8831 Y30.1970 
G01 X-43.6994 Y30.2567 
G01 X-43.5272 Y30.3445 
G01 X-43.3709 Y30.4580 
G01 X-43.2342 Y30.5947 
G01 X-43.1288 Y30.7399 
G01 X-42.2232 Y29.8343 
G01 X-42.2232 Y21.2451 
G01 X-44.3758 Y19.0925 
G01 X-44.4800 Y19.0718 
G01 X-44.6572 Y18.9984 
G01 X-44.8166 Y18.8918 
G01 X-44.9522 Y18.7562 
G01 X-45.0588 Y18.5968 
G01 X-45.1322 Y18.4196 
G01 X-45.1696 Y18.2315 
G01 X-45.1696 Y16.3125 
G01 X-45.1322 Y16.1244 
G01 X-45.0588 Y15.9472 
G01 X-44.9522 Y15.7878 
G01 X-44.8166 Y15.6522 
G01 X-44.6572 Y15.5456 
G01 X-44.4800 Y15.4722 
G01 X-44.2919 Y15.4348 
G01 X-44.1001 Y15.4348 
G01 X-43.9120 Y15.4722 
G01 X-43.7348 Y15.5456 
G01 X-43.5754 Y15.6522 
G01 X-43.4398 Y15.7878 
G01 X-43.3332 Y15.9472 
G01 X-43.2598 Y16.1244 
G01 X-43.2224 Y16.3125 
G01 X-43.2224 Y18.2315 
G01 X-43.2598 Y18.4196 
G01 X-43.3332 Y18.5968 
G01 X-43.3643 Y18.6434 
G01 X-41.3897 Y20.6180 
G01 X-41.2936 Y20.7141 
G01 X-41.2256 Y20.8319 
G01 X-41.1904 Y20.9632 
G01 X-41.1904 Y30.1162 
G01 X-41.2256 Y30.2475 
G01 X-41.2936 Y30.3653 
G01 X-41.3897 Y30.4614 
G01 X-42.9430 Y32.0147 
G01 X-42.9430 Y33.7262 
G01 X-42.9732 Y33.9171 
G01 X-43.0329 Y34.1008 
G01 X-43.1207 Y34.2730 
G01 X-43.2342 Y34.4293 
G01 X-43.3709 Y34.5660 
G01 X-43.5272 Y34.6795 
G01 X-43.6994 Y34.7673 
G01 X-43.8831 Y34.8270 
G01 X-44.0740 Y34.8572 
G01 X-44.2672 Y34.8572 
G01 X-44.4581 Y34.8270 
G01 X-44.6418 Y34.7673 
G01 X-44.8140 Y34.6795 
G01 X-44.9703 Y34.5660 
G01 X-45.1070 Y34.4293 
G01 X-45.2124 Y34.2841 
G01 X-46.4799 Y35.5516 
G01 X-32.9037 Y35.5516 
G01 X-30.3614 Y33.0093 
G01 X-30.3614 Y31.2978 
G01 X-30.3312 Y31.1069 
G01 X-30.2715 Y30.9232 
G01 X-30.1837 Y30.7510 
G01 X-30.0702 Y30.5947 
G01 X-29.9335 Y30.4580 
G01 X-29.7772 Y30.3445 
G01 X-29.6050 Y30.2567 
G01 X-29.4724 Y30.2136 
G01 X-29.4724 Y27.3640 
G01 X-29.4372 Y27.2327 
G01 X-29.3692 Y27.1149 
G01 X-28.0992 Y25.8449 
G01 X-28.0031 Y25.7488 
G01 X-27.8853 Y25.6808 
G01 X-27.7540 Y25.6456 
G01 X-6.8179 Y25.6456 
G01 X-3.3104 Y22.1381 
G01 X-3.3104 Y14.9459 
G01 X-3.7699 Y14.4864 
G00 Z10.0000 
G00 X-3.4364 Y13.3688 
G01 Z-0.0250 F100   
G01 X-20.9411 Y13.3688 F150   
G01 X-21.0724 Y13.3336 
G01 X-21.1901 Y13.2656 
G01 X-22.2893 Y12.1665 
G01 X-22.3854 Y12.0704 
G01 X-22.4534 Y11.9526 
G01 X-22.4886 Y11.8213 
G01 X-22.4886 Y11.6853 
G01 X-22.4734 Y11.6286 
G01 X-22.4534 Y11.5540 
G01 X-22.3854 Y11.4362 
G01 X-22.3096 Y11.3604 
G01 X-22.3096 Y10.4836 
G01 X-22.9296 Y9.8636  
G01 X-23.8064 Y9.8636  
G01 X-24.4264 Y10.4836 
G01 X-24.4264 Y11.3604 
G01 X-24.1685 Y11.6183 
G01 X-24.0724 Y11.7144 
G01 X-24.0044 Y11.8322 
G01 X-23.9763 Y11.9369 
G01 X-23.9692 Y11.9635 
G01 X-23.9692 Y12.0576 
G01 X-23.8777 Y12.2785 
G01 X-21.9664 Y14.1898 
G01 X-21.8702 Y14.2860 
G01 X-21.6765 Y14.4797 
G01 X-21.4556 Y14.5712 
G01 X-18.0676 Y14.5712 
G01 X-17.9363 Y14.6064 
G01 X-17.8185 Y14.6744 
G01 X-17.7224 Y14.7705 
G01 X-17.6544 Y14.8883 
G01 X-17.6192 Y15.0196 
G01 X-17.6192 Y18.1471 
G01 X-17.6544 Y18.2784 
G01 X-17.7224 Y18.3961 
G01 X-19.4807 Y20.1545 
G01 X-19.5768 Y20.2506 
G01 X-19.6946 Y20.3186 
G01 X-19.8259 Y20.3538 
G01 X-22.1995 Y20.3538 
G01 X-22.2284 Y20.3460 
G01 X-22.3308 Y20.3186 
G01 X-22.4486 Y20.2506 
G01 X-22.5447 Y20.1545 
G01 X-22.8026 Y19.8966 
G01 X-23.6794 Y19.8966 
G01 X-24.2994 Y20.5166 
G01 X-24.2994 Y21.1697 
G01 X-24.3092 Y21.2064 
G01 X-24.3346 Y21.3010 
G01 X-24.4026 Y21.4188 
G01 X-24.4987 Y21.5149 
G01 X-24.6165 Y21.5829 
G01 X-24.7478 Y21.6181 
G01 X-24.8838 Y21.6181 
G01 X-24.9205 Y21.6082 
G01 X-25.0151 Y21.5829 
G01 X-25.1329 Y21.5149 
G01 X-25.2290 Y21.4188 
G01 X-25.3615 Y21.2863 
G01 X-25.4576 Y21.1901 
G01 X-25.5256 Y21.0724 
G01 X-25.5608 Y20.9411 
G01 X-25.5608 Y17.4064 
G01 X-25.6523 Y17.1854 
G01 X-26.7331 Y16.1047 
G01 X-26.8292 Y16.0085 
G01 X-26.8972 Y15.8908 
G01 X-26.9158 Y15.8215 
G01 X-27.1013 Y15.3737 
G01 X-27.4133 Y15.0617 
G01 X-27.8210 Y14.8928 
G01 X-30.0910 Y14.8928 
G01 X-30.4987 Y15.0617 
G01 X-30.8107 Y15.3737 
G01 X-30.9796 Y15.7814 
G01 X-30.9796 Y16.2226 
G01 X-30.8923 Y16.4335 
G01 X-30.8752 Y16.4631 
G01 X-30.8663 Y16.4961 
G01 X-30.8533 Y16.5276 
G01 X-30.8488 Y16.5614 
G01 X-30.8400 Y16.5944 
G01 X-30.8400 Y16.6286 
G01 X-30.8355 Y16.6624 
G01 X-30.8400 Y16.6962 
G01 X-30.8400 Y16.7304 
G01 X-30.8488 Y16.7634 
G01 X-30.8533 Y16.7972 
G01 X-30.8663 Y16.8287 
G01 X-30.8752 Y16.8617 
G01 X-30.8923 Y16.8913 
G01 X-30.9053 Y16.9228 
G01 X-30.9261 Y16.9499 
G01 X-30.9432 Y16.9795 
G01 X-30.9673 Y17.0036 
G01 X-30.9881 Y17.0307 
G01 X-31.0152 Y17.0515 
G01 X-31.0393 Y17.0756 
G01 X-31.0689 Y17.0927 
G01 X-31.0960 Y17.1135 
G01 X-31.1275 Y17.1265 
G01 X-31.1571 Y17.1436 
G01 X-31.1900 Y17.1524 
G01 X-31.2216 Y17.1655 
G01 X-31.2554 Y17.1700 
G01 X-31.2884 Y17.1788 
G01 X-31.3225 Y17.1788 
G01 X-31.3564 Y17.1833 
G01 X-31.3902 Y17.1788 
G01 X-31.8631 Y17.1788 
G01 X-31.9944 Y17.1436 
G01 X-32.1121 Y17.0756 
G01 X-34.6756 Y14.5122 
G01 X-34.9654 Y14.2223 
G01 X-35.1864 Y14.1308 
G01 X-40.5056 Y14.1308 
G01 X-40.7266 Y14.2223 
G01 X-41.7490 Y15.2447 
G01 X-41.7697 Y15.2718 
G01 X-41.7968 Y15.2926 
G01 X-41.8210 Y15.3167 
G01 X-41.8505 Y15.3338 
G01 X-41.8776 Y15.3546 
G01 X-41.9091 Y15.3677 
G01 X-41.9387 Y15.3847 
G01 X-41.9717 Y15.3936 
G01 X-42.2555 Y15.5111 
G01 X-42.5128 Y15.7684 
G01 X-42.6089 Y15.8645 
G01 X-42.7267 Y15.9325 
G01 X-42.8580 Y15.9677 
G01 X-42.9940 Y15.9677 
G01 X-43.0307 Y15.9579 
G01 X-43.1253 Y15.9325 
G01 X-43.2431 Y15.8645 
G01 X-43.3392 Y15.7684 
G01 X-43.5965 Y15.5111 
G01 X-43.9855 Y15.3500 
G01 X-44.4065 Y15.3500 
G01 X-44.7955 Y15.5111 
G01 X-45.0528 Y15.7684 
G01 X-45.1489 Y15.8645 
G01 X-45.2667 Y15.9325 
G01 X-45.3980 Y15.9677 
G01 X-45.5340 Y15.9677 
G01 X-45.5707 Y15.9579 
G01 X-45.6653 Y15.9325 
G01 X-45.7831 Y15.8645 
G01 X-45.8792 Y15.7684 
G01 X-46.1365 Y15.5111 
G01 X-46.5255 Y15.3500 
G01 X-46.9465 Y15.3500 
G01 X-47.3355 Y15.5111 
G01 X-47.5928 Y15.7684 
G01 X-47.6889 Y15.8645 
G01 X-47.8067 Y15.9325 
G01 X-47.9380 Y15.9677 
G01 X-48.0740 Y15.9677 
G01 X-48.1107 Y15.9579 
G01 X-48.2053 Y15.9325 
G01 X-48.3231 Y15.8645 
G01 X-48.4192 Y15.7684 
G01 X-48.6765 Y15.5111 
G01 X-48.9603 Y15.3936 
G01 X-48.9933 Y15.3847 
G01 X-49.0228 Y15.3677 
G01 X-49.0544 Y15.3546 
G01 X-49.0815 Y15.3338 
G01 X-49.1110 Y15.3167 
G01 X-49.1352 Y15.2926 
G01 X-49.1623 Y15.2718 
G01 X-49.1830 Y15.2447 
G01 X-50.1696 Y14.2582 
G01 X-50.3511 Y14.0767 
G01 X-50.3782 Y14.0559 
G01 X-50.3990 Y14.0288 
G01 X-50.4231 Y14.0047 
G01 X-50.4402 Y13.9751 
G01 X-50.4609 Y13.9480 
G01 X-50.4740 Y13.9165 
G01 X-50.4911 Y13.8869 
G01 X-50.4999 Y13.8540 
G01 X-50.5130 Y13.8224 
G01 X-50.5174 Y13.7886 
G01 X-50.5263 Y13.7556 
G01 X-50.5263 Y13.7215 
G01 X-50.5307 Y13.6876 
G01 X-50.5263 Y13.6538 
G01 X-50.5263 Y13.6196 
G01 X-50.5174 Y13.5866 
G01 X-50.5130 Y13.5528 
G01 X-50.4999 Y13.5213 
G01 X-50.4911 Y13.4883 
G01 X-50.4740 Y13.4587 
G01 X-50.4609 Y13.4272 
G01 X-50.4402 Y13.4001 
G01 X-50.4231 Y13.3705 
G01 X-50.3989 Y13.3464 
G01 X-50.3782 Y13.3193 
G01 X-50.3511 Y13.2985 
G01 X-50.3269 Y13.2744 
G01 X-50.2974 Y13.2573 
G01 X-50.2703 Y13.2365 
G01 X-50.2387 Y13.2235 
G01 X-50.2092 Y13.2064 
G01 X-50.0118 Y13.0160 
G01 X-48.7663 Y11.7706 
G01 X-48.6691 Y11.5358 
G01 X-48.6396 Y11.4258 
G01 X-48.5716 Y11.3080 
G01 X-48.4192 Y11.1556 
G01 X-48.3231 Y11.0595 
G01 X-48.2053 Y10.9915 
G01 X-48.0740 Y10.9563 
G01 X-47.9380 Y10.9563 
G01 X-47.9013 Y10.9661 
G01 X-47.8067 Y10.9915 
G01 X-47.6889 Y11.0595 
G01 X-47.5928 Y11.1556 
G01 X-47.3355 Y11.4129 
G01 X-46.9465 Y11.5740 
G01 X-46.5255 Y11.5740 
G01 X-46.1365 Y11.4129 
G01 X-45.8030 Y11.0794 
G01 X-45.7773 Y11.0476 
G01 X-45.7551 Y11.0315 
G01 X-45.7358 Y11.0122 
G01 X-45.7004 Y10.9917 
G01 X-45.6673 Y10.9677 
G01 X-45.6417 Y10.9579 
G01 X-45.6181 Y10.9442 
G01 X-45.5785 Y10.9336 
G01 X-45.5403 Y10.9190 
G01 X-45.5131 Y10.9161 
G01 X-45.4867 Y10.9090 
G01 X-45.4458 Y10.9090 
G01 X-45.4051 Y10.9048 
G01 X-45.3781 Y10.9090 
G01 X-45.3507 Y10.9090 
G01 X-45.3112 Y10.9196 
G01 X-45.2708 Y10.9260 
G01 X-45.2458 Y10.9371 
G01 X-45.2194 Y10.9442 
G01 X-45.1840 Y10.9647 
G01 X-45.1466 Y10.9813 
G01 X-45.1253 Y10.9985 
G01 X-45.1017 Y11.0122 
G01 X-45.0727 Y11.0412 
G01 X-45.0409 Y11.0669 
G01 X-45.0248 Y11.0890 
G01 X-45.0055 Y11.1084 
G01 X-44.9850 Y11.1438 
G01 X-44.9646 Y11.1720 
G01 X-44.8524 Y11.2842 
G01 X-44.7241 Y11.3774 
G01 X-44.7124 Y11.3415 
G01 X-44.8166 Y11.2718 
G01 X-44.9522 Y11.1362 
G01 X-45.0588 Y10.9768 
G01 X-45.1322 Y10.7996 
G01 X-45.1696 Y10.6115 
G01 X-45.1696 Y8.6925  
G01 X-45.1322 Y8.5044  
G01 X-45.0588 Y8.3272  
G01 X-44.9522 Y8.1678  
G01 X-44.8166 Y8.0322  
G01 X-44.7124 Y7.9625  
G01 X-44.7124 Y7.9207  
G01 X-44.7740 Y7.9629  
G01 X-44.7933 Y7.9822  
G01 X-44.8288 Y8.0027  
G01 X-44.8619 Y8.0267  
G01 X-44.8874 Y8.0365  
G01 X-44.9111 Y8.0502  
G01 X-44.9506 Y8.0608  
G01 X-44.9888 Y8.0754  
G01 X-45.0160 Y8.0783  
G01 X-45.0424 Y8.0854  
G01 X-45.0833 Y8.0854  
G01 X-45.1240 Y8.0897  
G01 X-45.1510 Y8.0854  
G01 X-45.1784 Y8.0854  
G01 X-45.2179 Y8.0748  
G01 X-45.2583 Y8.0684  
G01 X-45.2833 Y8.0573  
G01 X-45.3097 Y8.0502  
G01 X-45.3452 Y8.0297  
G01 X-45.3825 Y8.0131  
G01 X-45.4038 Y7.9959  
G01 X-45.4275 Y7.9822  
G01 X-45.4564 Y7.9533  
G01 X-45.4882 Y7.9275  
G01 X-45.5043 Y7.9054  
G01 X-45.5236 Y7.8861  
G01 X-45.5441 Y7.8506  
G01 X-45.5681 Y7.8175  
G01 X-45.5779 Y7.7920  
G01 X-45.5916 Y7.7683  
G01 X-45.6022 Y7.7288  
G01 X-45.6169 Y7.6906  
G01 X-45.6197 Y7.6634  
G01 X-45.6268 Y7.6370  
G01 X-45.6268 Y7.5961  
G01 X-45.6311 Y7.5553  
G01 X-45.6268 Y7.5283  
G01 X-45.6268 Y6.3836  
G01 X-45.5916 Y6.2523  
G01 X-45.5236 Y6.1345  
G01 X-45.4275 Y6.0384  
G01 X-45.3097 Y5.9704  
G01 X-45.1784 Y5.9352  
G01 X-44.7295 Y5.9352  
G01 X-44.5982 Y5.9704  
G01 X-44.4804 Y6.0384  
G01 X-44.1264 Y6.3924  
G01 X-43.2496 Y6.3924  
G01 X-42.6296 Y5.7724  
G01 X-42.6296 Y4.8956  
G01 X-43.2496 Y4.2756  
G01 X-44.1264 Y4.2756  
G01 X-44.3843 Y4.5335  
G01 X-44.4804 Y4.6296  
G01 X-44.5982 Y4.6976  
G01 X-44.7295 Y4.7328  
G01 X-45.1865 Y4.7328  
G01 X-45.3178 Y4.6976  
G01 X-45.4356 Y4.6296  
G01 X-45.7896 Y4.2756  
G01 X-46.6664 Y4.2756  
G01 X-47.2864 Y4.8956  
G01 X-47.2864 Y5.7724  
G01 X-47.0285 Y6.0303  
G01 X-46.9324 Y6.1264  
G01 X-46.8644 Y6.2442  
G01 X-46.8292 Y6.3755  
G01 X-46.8292 Y7.3025  
G01 X-46.8247 Y7.3364  
G01 X-46.8292 Y7.3702  
G01 X-46.8292 Y7.4043  
G01 X-46.8380 Y7.4373  
G01 X-46.8425 Y7.4712  
G01 X-46.8556 Y7.5027  
G01 X-46.8644 Y7.5357  
G01 X-46.8815 Y7.5652  
G01 X-46.8945 Y7.5968  
G01 X-46.9153 Y7.6239  
G01 X-46.9324 Y7.6534  
G01 X-46.9565 Y7.6776  
G01 X-46.9773 Y7.7046  
G01 X-47.0044 Y7.7254  
G01 X-47.0285 Y7.7496  
G01 X-47.0581 Y7.7666  
G01 X-47.0852 Y7.7874  
G01 X-47.1167 Y7.8005  
G01 X-47.1463 Y7.8176  
G01 X-47.1792 Y7.8264  
G01 X-47.3355 Y7.8911  
G01 X-47.5928 Y8.1484  
G01 X-47.6889 Y8.2445  
G01 X-47.8067 Y8.3125  
G01 X-47.9043 Y8.3387  
G01 X-47.9380 Y8.3477  
G01 X-48.0740 Y8.3477  
G01 X-48.2053 Y8.3125  
G01 X-48.3231 Y8.2445  
G01 X-48.6765 Y7.8911  
G01 X-49.0655 Y7.7300  
G01 X-49.4865 Y7.7300  
G01 X-49.8812 Y7.8935  
G01 X-49.9531 Y7.9350  
G01 X-49.9910 Y7.9569  
G01 X-50.0740 Y7.9791  
G01 X-50.1224 Y7.9921  
G01 X-50.1907 Y7.9921  
G01 X-50.2584 Y7.9921  
G01 X-50.3213 Y7.9752  
G01 X-50.3897 Y7.9569  
G01 X-50.4567 Y7.9182  
G01 X-50.5074 Y7.8889  
G01 X-50.5720 Y7.8244  
G01 X-50.6036 Y7.7928  
G01 X-50.6497 Y7.7130  
G01 X-50.6716 Y7.6751  
G01 X-50.6938 Y7.5921  
G01 X-50.7068 Y7.5437  
G01 X-50.7068 Y7.4754  
G01 X-50.7068 Y7.4078  
G01 X-50.7068 Y6.4844  
G01 X-50.7983 Y6.2634  
G01 X-51.9476 Y5.1142  
G01 X-52.2374 Y4.8243  
G01 X-52.4584 Y4.7328  
G01 X-55.3465 Y4.7328  
G01 X-55.4778 Y4.6976  
G01 X-55.5956 Y4.6296  
G01 X-55.9496 Y4.2756  
G01 X-56.8264 Y4.2756  
G01 X-57.1859 Y4.6351  
G01 X-57.2820 Y4.7312  
G01 X-57.3998 Y4.7992  
G01 X-57.5311 Y4.8344  
G01 X-71.4002 Y4.8344  
G01 X-71.4341 Y4.8389  
G01 X-71.4679 Y4.8344  
G01 X-71.5020 Y4.8344  
G01 X-71.5350 Y4.8256  
G01 X-71.5689 Y4.8211  
G01 X-71.6004 Y4.8080  
G01 X-71.6334 Y4.7992  
G01 X-71.6629 Y4.7821  
G01 X-72.0273 Y4.6312  
G01 X-74.7846 Y4.6312  
G01 X-75.2670 Y4.8310  
G01 X-75.6362 Y5.2002  
G01 X-75.8360 Y5.6825  
G01 X-75.8360 Y6.2046  
G01 X-75.6362 Y6.6870  
G01 X-75.2670 Y7.0562  
G01 X-74.7846 Y7.2560  
G01 X-72.0273 Y7.2560  
G01 X-71.5450 Y7.0562  
G01 X-71.1758 Y6.6870  
G01 X-71.0515 Y6.3868  
G01 X-71.0426 Y6.3539  
G01 X-71.0256 Y6.3243  
G01 X-71.0125 Y6.2928  
G01 X-70.9917 Y6.2657  
G01 X-70.9746 Y6.2361  
G01 X-70.9505 Y6.2120  
G01 X-70.9297 Y6.1849  
G01 X-70.9026 Y6.1641  
G01 X-70.8785 Y6.1400  
G01 X-70.8489 Y6.1229  
G01 X-70.8218 Y6.1021  
G01 X-70.7903 Y6.0891  
G01 X-70.7607 Y6.0720  
G01 X-70.7278 Y6.0632  
G01 X-70.6962 Y6.0501  
G01 X-70.6624 Y6.0456  
G01 X-70.6294 Y6.0368  
G01 X-70.5953 Y6.0368  
G01 X-70.5614 Y6.0323  
G01 X-70.5276 Y6.0368  
G01 X-57.3279 Y6.0368  
G01 X-57.1966 Y6.0720  
G01 X-57.0788 Y6.1400  
G01 X-56.8264 Y6.3924  
G01 X-55.9496 Y6.3924  
G01 X-55.6917 Y6.1345  
G01 X-55.5956 Y6.0384  
G01 X-55.4778 Y5.9704  
G01 X-55.3465 Y5.9352  
G01 X-52.9729 Y5.9352  
G01 X-52.8416 Y5.9704  
G01 X-52.7238 Y6.0384  
G01 X-52.1085 Y6.6537  
G01 X-52.0124 Y6.7498  
G01 X-51.9444 Y6.8676  
G01 X-51.9092 Y6.9989  
G01 X-51.9092 Y7.3025  
G01 X-51.9047 Y7.3364  
G01 X-51.9092 Y7.3702  
G01 X-51.9092 Y7.4043  
G01 X-51.9180 Y7.4373  
G01 X-51.9225 Y7.4712  
G01 X-51.9356 Y7.5027  
G01 X-51.9444 Y7.5357  
G01 X-51.9615 Y7.5652  
G01 X-51.9745 Y7.5968  
G01 X-51.9953 Y7.6239  
G01 X-52.0124 Y7.6534  
G01 X-52.0365 Y7.6776  
G01 X-52.0573 Y7.7046  
G01 X-52.0844 Y7.7254  
G01 X-52.1085 Y7.7496  
G01 X-52.1381 Y7.7666  
G01 X-52.1652 Y7.7874  
G01 X-52.1967 Y7.8005  
G01 X-52.2263 Y7.8176  
G01 X-52.2592 Y7.8264  
G01 X-52.4155 Y7.8911  
G01 X-52.7133 Y8.1889  
G01 X-52.8744 Y8.5779  
G01 X-52.8744 Y10.7261 
G01 X-52.7133 Y11.1151 
G01 X-52.6592 Y11.1692 
G01 X-52.5631 Y11.2653 
G01 X-52.4951 Y11.3831 
G01 X-52.4745 Y11.4601 
G01 X-52.4599 Y11.5144 
G01 X-52.4599 Y11.6504 
G01 X-52.4951 Y11.7817 
G01 X-52.5631 Y11.8995 
G01 X-52.6592 Y11.9956 
G01 X-52.7770 Y12.0636 
G01 X-52.8540 Y12.0842 
G01 X-52.9083 Y12.0988 
G01 X-57.1245 Y12.0988 
G01 X-57.2558 Y12.0636 
G01 X-57.3736 Y11.9956 
G01 X-57.7276 Y11.6416 
G01 X-58.6044 Y11.6416 
G01 X-59.2244 Y12.2616 
G01 X-59.2244 Y12.7623 
G01 X-59.2596 Y12.8936 
G01 X-59.3276 Y13.0113 
G01 X-60.4537 Y14.1374 
G01 X-60.4830 Y14.2083 
G01 X-60.4919 Y14.2413 
G01 X-60.5089 Y14.2709 
G01 X-60.5220 Y14.3024 
G01 X-60.5428 Y14.3295 
G01 X-60.5598 Y14.3590 
G01 X-60.5840 Y14.3832 
G01 X-60.6048 Y14.4103 
G01 X-60.6319 Y14.4311 
G01 X-61.0024 Y14.8016 
G01 X-61.0024 Y15.4547 
G01 X-61.0217 Y15.5265 
G01 X-61.0376 Y15.5860 
G01 X-61.0448 Y15.5985 
G01 X-61.1056 Y15.7038 
G01 X-61.2002 Y15.7984 
G01 X-61.2342 Y15.8187 
G01 X-61.3195 Y15.8679 
G01 X-61.4508 Y15.9031 
G01 X-61.5868 Y15.9031 
G01 X-61.6587 Y15.8838 
G01 X-61.7181 Y15.8679 
G01 X-61.7306 Y15.8607 
G01 X-61.8359 Y15.7999 
G01 X-61.9320 Y15.7038 
G01 X-61.9883 Y15.6475 
G01 X-62.0844 Y15.5513 
G01 X-62.1021 Y15.5207 
G01 X-62.1524 Y15.4336 
G01 X-62.1876 Y15.3023 
G01 X-62.1876 Y14.8016 
G01 X-62.8076 Y14.1816 
G01 X-63.6844 Y14.1816 
G01 X-63.9423 Y14.4395 
G01 X-64.0384 Y14.5356 
G01 X-64.1562 Y14.6036 
G01 X-64.2609 Y14.6317 
G01 X-64.2875 Y14.6388 
G01 X-66.0145 Y14.6388 
G01 X-66.0434 Y14.6310 
G01 X-66.1458 Y14.6036 
G01 X-66.2636 Y14.5356 
G01 X-66.3597 Y14.4395 
G01 X-66.6176 Y14.1816 
G01 X-67.2039 Y14.1816 
G01 X-67.2406 Y14.1718 
G01 X-67.3353 Y14.1464 
G01 X-67.4530 Y14.0784 
G01 X-67.5492 Y13.9823 
G01 X-67.6171 Y13.8645 
G01 X-67.6523 Y13.7332 
G01 X-67.6523 Y13.5972 
G01 X-67.6425 Y13.5605 
G01 X-67.6171 Y13.4659 
G01 X-67.5492 Y13.3481 
G01 X-67.4530 Y13.2520 
G01 X-67.4174 Y13.2164 
G01 X-67.4655 Y13.2164 
G01 X-67.8096 Y13.5605 
G01 X-67.8096 Y13.9836 
G01 X-67.7859 Y14.0247 
G01 X-67.7507 Y14.1560 
G01 X-67.7507 Y14.2920 
G01 X-67.7605 Y14.3287 
G01 X-67.7859 Y14.4233 
G01 X-67.8539 Y14.5411 
G01 X-67.9500 Y14.6372 
G01 X-68.1144 Y14.8016 
G01 X-68.1144 Y15.6784 
G01 X-67.4944 Y16.2984 
G01 X-66.6176 Y16.2984 
G01 X-66.3597 Y16.0405 
G01 X-66.2636 Y15.9444 
G01 X-66.1458 Y15.8764 
G01 X-66.0411 Y15.8483 
G01 X-66.0145 Y15.8412 
G01 X-64.2875 Y15.8412 
G01 X-64.2586 Y15.8490 
G01 X-64.1562 Y15.8764 
G01 X-64.0384 Y15.9444 
G01 X-63.9423 Y16.0405 
G01 X-63.6844 Y16.2984 
G01 X-63.1837 Y16.2984 
G01 X-63.0524 Y16.3336 
G01 X-62.9346 Y16.4016 
G01 X-62.3250 Y17.0112 
G01 X-62.2289 Y17.1073 
G01 X-62.1609 Y17.2251 
G01 X-62.1257 Y17.3564 
G01 X-62.1257 Y17.4924 
G01 X-62.1609 Y17.6237 
G01 X-62.2289 Y17.7415 
G01 X-62.3250 Y17.8376 
G01 X-62.4428 Y17.9056 
G01 X-62.5741 Y17.9408 
G01 X-71.1648 Y17.9408 
G01 X-71.2329 Y17.9408 
G01 X-71.2984 Y17.9233 
G01 X-71.3642 Y17.9057 
G01 X-71.4239 Y17.8713 
G01 X-71.4820 Y17.8377 
G01 X-71.5384 Y17.7814 
G01 X-71.5833 Y17.7365 
G01 X-71.6211 Y17.6710 
G01 X-71.6513 Y17.6188 
G01 X-71.6699 Y17.5495 
G01 X-71.6866 Y17.4874 
G01 X-71.6866 Y17.4193 
G01 X-71.6866 Y17.3515 
G01 X-71.6690 Y17.2857 
G01 X-71.6514 Y17.2201 
G01 X-71.6169 Y17.1603 
G01 X-71.5835 Y17.1023 
G01 X-71.5325 Y17.0513 
G01 X-71.4874 Y17.0062 
G01 X-71.1758 Y16.6946 
G01 X-70.9760 Y16.2123 
G01 X-70.9760 Y15.6901 
G01 X-71.1758 Y15.2078 
G01 X-71.5450 Y14.8386 
G01 X-72.0273 Y14.6388 
G01 X-74.7846 Y14.6388 
G01 X-75.2670 Y14.8386 
G01 X-75.6362 Y15.2078 
G01 X-75.8360 Y15.6901 
G01 X-75.8360 Y16.2123 
G01 X-75.6362 Y16.6946 
G01 X-75.2670 Y17.0638 
G01 X-74.7846 Y17.2636 
G01 X-73.9025 Y17.2636 
G01 X-73.7712 Y17.2988 
G01 X-73.6534 Y17.3668 
G01 X-72.2310 Y18.7892 
G01 X-72.1349 Y18.8853 
G01 X-72.0669 Y19.0031 
G01 X-72.0317 Y19.1344 
G01 X-72.0317 Y19.2704 
G01 X-72.0669 Y19.4017 
G01 X-72.1349 Y19.5195 
G01 X-72.2310 Y19.6156 
G01 X-72.3488 Y19.6836 
G01 X-72.4801 Y19.7188 
G01 X-72.8896 Y19.7188 
G01 X-72.8896 Y19.7528 
G01 X-72.1918 Y19.7528 
G01 X-72.0009 Y19.7830 
G01 X-71.8172 Y19.8427 
G01 X-71.6450 Y19.9305 
G01 X-71.4887 Y20.0440 
G01 X-71.3520 Y20.1807 
G01 X-71.2385 Y20.3370 
G01 X-71.1738 Y20.4640 
G01 X-71.1368 Y20.4640 
G01 X-71.1545 Y20.4212 
G01 X-71.2372 Y20.2780 
G01 X-71.3378 Y20.1468 
G01 X-71.4118 Y20.0728 
G01 X-71.5080 Y19.9767 
G01 X-71.5698 Y19.8695 
G01 X-71.5927 Y19.7965 
G01 X-71.6111 Y19.7276 
G01 X-71.6111 Y19.5916 
G01 X-71.5759 Y19.4603 
G01 X-71.5256 Y19.3731 
G01 X-71.5080 Y19.3425 
G01 X-71.4118 Y19.2464 
G01 X-71.3047 Y19.1845 
G01 X-71.2316 Y19.1617 
G01 X-71.1627 Y19.1432 
G01 X-59.8309 Y19.1432 
G01 X-59.6996 Y19.1784 
G01 X-59.5818 Y19.2464 
G01 X-58.1537 Y20.6745 
G01 X-58.0576 Y20.7706 
G01 X-57.9896 Y20.8884 
G01 X-57.9544 Y21.0197 
G01 X-57.9544 Y21.5204 
G01 X-57.3344 Y22.1404 
G01 X-56.4576 Y22.1404 
G01 X-56.1997 Y21.8825 
G01 X-56.1036 Y21.7864 
G01 X-55.9858 Y21.7184 
G01 X-55.8811 Y21.6903 
G01 X-55.8545 Y21.6832 
G01 X-52.9664 Y21.6832 
G01 X-52.7454 Y21.5917 
G01 X-52.5518 Y21.3980 
G01 X-51.3063 Y20.1526 
G01 X-51.2148 Y19.9316 
G01 X-51.2148 Y19.1771 
G01 X-51.1796 Y19.0458 
G01 X-51.1116 Y18.9280 
G01 X-50.9592 Y18.7756 
G01 X-50.8631 Y18.6795 
G01 X-50.7453 Y18.6115 
G01 X-50.6140 Y18.5763 
G01 X-50.4780 Y18.5763 
G01 X-50.3467 Y18.6115 
G01 X-50.2289 Y18.6795 
G01 X-49.8755 Y19.0329 
G01 X-49.4865 Y19.1940 
G01 X-49.0655 Y19.1940 
G01 X-48.6765 Y19.0329 
G01 X-48.4192 Y18.7756 
G01 X-48.3904 Y18.7468 
G01 X-48.3231 Y18.6795 
G01 X-48.2494 Y18.6369 
G01 X-48.2053 Y18.6115 
G01 X-48.0740 Y18.5763 
G01 X-47.9380 Y18.5763 
G01 X-47.8067 Y18.6115 
G01 X-47.7645 Y18.6358 
G01 X-47.6889 Y18.6795 
G01 X-47.5365 Y18.8319 
G01 X-47.4404 Y18.9280 
G01 X-47.3982 Y19.0010 
G01 X-47.3724 Y19.0458 
G01 X-47.3372 Y19.1771 
G01 X-47.3372 Y20.0405 
G01 X-47.3450 Y20.0694 
G01 X-47.3724 Y20.1718 
G01 X-47.4404 Y20.2896 
G01 X-47.5365 Y20.3857 
G01 X-47.7944 Y20.6436 
G01 X-47.7944 Y21.5204 
G01 X-47.1744 Y22.1404 
G01 X-46.2976 Y22.1404 
G01 X-46.0397 Y21.8825 
G01 X-45.9436 Y21.7864 
G01 X-45.8258 Y21.7184 
G01 X-45.7211 Y21.6903 
G01 X-45.6945 Y21.6832 
G01 X-45.2375 Y21.6832 
G01 X-45.2086 Y21.6910 
G01 X-45.1062 Y21.7184 
G01 X-44.9884 Y21.7864 
G01 X-44.8923 Y21.8825 
G01 X-44.6344 Y22.1404 
G01 X-43.7576 Y22.1404 
G01 X-43.2376 Y21.6204 
G01 X-43.1415 Y21.5243 
G01 X-43.0237 Y21.4563 
G01 X-42.8924 Y21.4211 
G01 X-42.7564 Y21.4211 
G01 X-42.6251 Y21.4563 
G01 X-42.5073 Y21.5243 
G01 X-42.4112 Y21.6204 
G01 X-42.3432 Y21.7382 
G01 X-42.3080 Y21.8695 
G01 X-42.3080 Y25.4463 
G01 X-42.3432 Y25.5777 
G01 X-42.4112 Y25.6954 
G01 X-42.5058 Y25.7901 
G01 X-42.6251 Y25.8595 
G01 X-42.7564 Y25.8947 
G01 X-42.8924 Y25.8947 
G01 X-43.0237 Y25.8595 
G01 X-43.1415 Y25.7916 
G01 X-43.2376 Y25.6954 
G01 X-43.6796 Y25.2535 
G01 X-43.6796 Y25.3015 
G01 X-43.2224 Y25.7587 
G01 X-43.2224 Y26.5653 
G01 X-43.6796 Y27.0225 
G01 X-43.6796 Y27.0705 
G01 X-43.2376 Y26.6286 
G01 X-43.1415 Y26.5324 
G01 X-43.0237 Y26.4644 
G01 X-42.8924 Y26.4293 
G01 X-42.7564 Y26.4293 
G01 X-42.6251 Y26.4644 
G01 X-42.5073 Y26.5324 
G01 X-42.4112 Y26.6286 
G01 X-42.3432 Y26.7463 
G01 X-42.3080 Y26.8777 
G01 X-42.3080 Y29.6533 
G01 X-42.3432 Y29.7846 
G01 X-42.4112 Y29.9023 
G01 X-42.5073 Y29.9985 
G01 X-42.6957 Y30.1868 
G01 X-42.7918 Y30.2830 
G01 X-42.9096 Y30.3510 
G01 X-43.0072 Y30.3771 
G01 X-43.0409 Y30.3862 
G01 X-43.1769 Y30.3862 
G01 X-43.3082 Y30.3510 
G01 X-43.4260 Y30.2830 
G01 X-43.9095 Y30.0820 
G01 X-44.4316 Y30.0820 
G01 X-44.9140 Y30.2818 
G01 X-45.2832 Y30.6510 
G01 X-45.4830 Y31.1333 
G01 X-45.4830 Y32.8283 
G01 X-45.5182 Y32.9596 
G01 X-45.5862 Y33.0773 
G01 X-47.0365 Y34.5277 
G01 X-47.0573 Y34.5548 
G01 X-47.0844 Y34.5755 
G01 X-47.1085 Y34.5997 
G01 X-47.1381 Y34.6168 
G01 X-47.1652 Y34.6375 
G01 X-47.1967 Y34.6506 
G01 X-47.2263 Y34.6677 
G01 X-47.2592 Y34.6765 
G01 X-47.2908 Y34.6896 
G01 X-47.3246 Y34.6940 
G01 X-47.3576 Y34.7029 
G01 X-47.3917 Y34.7029 
G01 X-47.4256 Y34.7073 
G01 X-47.4594 Y34.7029 
G01 X-47.4936 Y34.7029 
G01 X-47.5265 Y34.6940 
G01 X-47.5604 Y34.6896 
G01 X-47.5919 Y34.6765 
G01 X-47.6249 Y34.6677 
G01 X-47.6545 Y34.6506 
G01 X-47.6860 Y34.6375 
G01 X-47.7131 Y34.6168 
G01 X-47.7427 Y34.5997 
G01 X-47.7668 Y34.5755 
G01 X-47.7939 Y34.5547 
G01 X-47.8147 Y34.5277 
G01 X-47.8388 Y34.5035 
G01 X-47.8559 Y34.4740 
G01 X-47.8767 Y34.4469 
G01 X-47.8897 Y34.4153 
G01 X-47.9068 Y34.3858 
G01 X-47.9156 Y34.3528 
G01 X-47.9287 Y34.3213 
G01 X-47.9331 Y34.2874 
G01 X-47.9420 Y34.2544 
G01 X-47.9420 Y34.2203 
G01 X-47.9464 Y34.1864 
G01 X-47.9420 Y34.1526 
G01 X-47.9420 Y34.1185 
G01 X-47.9331 Y34.0855 
G01 X-47.9287 Y34.0516 
G01 X-47.9156 Y34.0201 
G01 X-47.9068 Y33.9871 
G01 X-47.8897 Y33.9576 
G01 X-47.8620 Y33.8907 
G01 X-47.8620 Y31.1333 
G01 X-48.0618 Y30.6510 
G01 X-48.3739 Y30.3389 
G01 X-48.4700 Y30.2428 
G01 X-48.5380 Y30.1250 
G01 X-48.5732 Y29.9937 
G01 X-48.5732 Y28.6840 
G01 X-48.6647 Y28.4630 
G01 X-51.1856 Y25.9422 
G01 X-51.2818 Y25.8460 
G01 X-51.4754 Y25.6523 
G01 X-51.6964 Y25.5608 
G01 X-55.8545 Y25.5608 
G01 X-55.8834 Y25.5530 
G01 X-55.9858 Y25.5256 
G01 X-56.1036 Y25.4576 
G01 X-56.1997 Y25.3615 
G01 X-56.4576 Y25.1036 
G01 X-57.3344 Y25.1036 
G01 X-57.9560 Y25.7252 
G01 X-58.0521 Y25.8213 
G01 X-58.1699 Y25.8893 
G01 X-58.3012 Y25.9245 
G01 X-58.4372 Y25.9245 
G01 X-58.5685 Y25.8893 
G01 X-58.6863 Y25.8213 
G01 X-58.7824 Y25.7252 
G01 X-58.8504 Y25.6074 
G01 X-58.8856 Y25.4761 
G01 X-58.8856 Y24.9616 
G01 X-59.5056 Y24.3416 
G01 X-60.3824 Y24.3416 
G01 X-60.6403 Y24.5995 
G01 X-60.7364 Y24.6956 
G01 X-60.8542 Y24.7636 
G01 X-60.9164 Y24.7803 
G01 X-60.9855 Y24.7988 
G01 X-62.2045 Y24.7988 
G01 X-62.2334 Y24.7910 
G01 X-62.3358 Y24.7636 
G01 X-62.4536 Y24.6956 
G01 X-62.5497 Y24.5995 
G01 X-62.8076 Y24.3416 
G01 X-63.6844 Y24.3416 
G01 X-64.3044 Y24.9616 
G01 X-64.3044 Y25.8384 
G01 X-63.6844 Y26.4584 
G01 X-62.8076 Y26.4584 
G01 X-62.5497 Y26.2005 
G01 X-62.4536 Y26.1044 
G01 X-62.3358 Y26.0364 
G01 X-62.2311 Y26.0083 
G01 X-62.2045 Y26.0012 
G01 X-60.9936 Y26.0012 
G01 X-60.8623 Y26.0364 
G01 X-60.7445 Y26.1044 
G01 X-60.6484 Y26.2005 
G01 X-60.5804 Y26.3183 
G01 X-60.5452 Y26.4496 
G01 X-60.5452 Y28.0596 
G01 X-60.4537 Y28.2806 
G01 X-60.2846 Y28.4497 
G01 X-60.0636 Y28.5412 
G01 X-55.5129 Y28.5412 
G01 X-55.3816 Y28.5764 
G01 X-55.2638 Y28.6444 
G01 X-54.9787 Y28.9295 
G01 X-54.8826 Y29.0256 
G01 X-54.8146 Y29.1434 
G01 X-54.7794 Y29.2747 
G01 X-54.7794 Y29.9937 
G01 X-54.8146 Y30.1250 
G01 X-54.8826 Y30.2428 
G01 X-55.2908 Y30.6510 
G01 X-55.4906 Y31.1333 
G01 X-55.4906 Y33.8907 
G01 X-55.2908 Y34.3730 
G01 X-54.9216 Y34.7422 
G01 X-54.4393 Y34.9420 
G01 X-54.0741 Y34.9420 
G01 X-53.9381 Y34.9420 
G01 X-53.8068 Y34.9772 
G01 X-53.6890 Y35.0452 
G01 X-52.1566 Y36.5777 
G01 X-51.9356 Y36.6692 
G01 X-32.5702 Y36.6692 
G01 X-32.3492 Y36.5777 
G01 X-32.1556 Y36.3840 
G01 X-30.6087 Y34.8371 
G01 X-30.5126 Y34.7410 
G01 X-30.3948 Y34.6730 
G01 X-30.2635 Y34.6378 
G01 X-30.1275 Y34.6378 
G01 X-29.9962 Y34.6730 
G01 X-29.8784 Y34.7410 
G01 X-29.3949 Y34.9420 
G01 X-28.8727 Y34.9420 
G01 X-28.3904 Y34.7422 
G01 X-28.0212 Y34.3730 
G01 X-27.8214 Y33.8907 
G01 X-27.8214 Y31.1333 
G01 X-28.0212 Y30.6510 
G01 X-28.1555 Y30.5167 
G01 X-28.2516 Y30.4206 
G01 X-28.3196 Y30.3028 
G01 X-28.3548 Y30.1715 
G01 X-28.3548 Y27.8269 
G01 X-28.3196 Y27.6956 
G01 X-28.2516 Y27.5778 
G01 X-27.6363 Y26.9625 
G01 X-27.5401 Y26.8664 
G01 X-27.4224 Y26.7984 
G01 X-27.2911 Y26.7632 
G01 X-6.4844 Y26.7632 
G01 X-6.2634 Y26.6717 
G01 X-2.5742 Y22.9824 
G01 X-2.4780 Y22.8862 
G01 X-2.2843 Y22.6926 
G01 X-2.1928 Y22.4716 
G01 X-2.1928 Y14.6124 
G01 X-2.2843 Y14.3914 
G01 X-2.9256 Y13.7502 
G01 X-3.0218 Y13.6540 
G01 X-3.2154 Y13.4603 
G01 X-3.4364 Y13.3688 
G00 Z10.0000 
G00 X-5.8200 Y20.1807 
G01 Z-0.0250 F100   
G01 X-5.7065 Y20.3370 F150   
G01 X-5.6187 Y20.5092 
G01 X-5.5590 Y20.6929 
G01 X-5.5288 Y20.8838 
G01 X-5.5288 Y21.0770 
G01 X-5.5590 Y21.2679 
G01 X-5.6187 Y21.4516 
G01 X-5.7065 Y21.6238 
G01 X-5.8200 Y21.7801 
G01 X-5.9567 Y21.9168 
G01 X-6.1130 Y22.0303 
G01 X-6.2852 Y22.1181 
G01 X-6.4689 Y22.1778 
G01 X-6.6598 Y22.2080 
G01 X-9.0882 Y22.2080 
G01 X-9.2791 Y22.1778 
G01 X-9.4628 Y22.1181 
G01 X-9.6350 Y22.0303 
G01 X-9.7913 Y21.9168 
G01 X-9.9280 Y21.7801 
G01 X-10.0415 Y21.6238 
G01 X-10.1192 Y21.4714 
G01 X-12.2205 Y21.4714 
G01 X-12.6777 Y21.9286 
G01 X-13.3243 Y21.9286 
G01 X-16.6048 Y25.2091 
G01 X-16.7009 Y25.3052 
G01 X-16.8187 Y25.3732 
G01 X-16.9500 Y25.4084 
G01 X-25.2140 Y25.4084 
G01 X-25.3453 Y25.3732 
G01 X-25.4631 Y25.3052 
G01 X-28.6619 Y22.1064 
G01 X-29.9713 Y22.1064 
G01 X-30.1692 Y22.0670 
G01 X-30.3556 Y21.9898 
G01 X-30.5234 Y21.8777 
G01 X-30.6661 Y21.7350 
G01 X-30.7782 Y21.5672 
G01 X-30.8554 Y21.3808 
G01 X-30.8948 Y21.1829 
G01 X-30.8948 Y20.9811 
G01 X-30.8554 Y20.7832 
G01 X-30.7782 Y20.5968 
G01 X-30.6661 Y20.4290 
G01 X-30.5234 Y20.2863 
G01 X-30.3556 Y20.1742 
G01 X-30.1692 Y20.0970 
G01 X-29.9713 Y20.0576 
G01 X-27.9407 Y20.0576 
G01 X-27.7428 Y20.0970 
G01 X-27.5564 Y20.1742 
G01 X-27.3886 Y20.2863 
G01 X-27.2459 Y20.4290 
G01 X-27.1338 Y20.5968 
G01 X-27.0566 Y20.7832 
G01 X-27.0172 Y20.9811 
G01 X-27.0172 Y21.1829 
G01 X-27.0566 Y21.3808 
G01 X-27.1338 Y21.5672 
G01 X-27.2459 Y21.7350 
G01 X-27.3886 Y21.8777 
G01 X-27.4134 Y21.8943 
G01 X-24.9321 Y24.3756 
G01 X-17.2319 Y24.3756 
G01 X-14.0546 Y21.1983 
G01 X-14.0546 Y20.5517 
G01 X-13.4843 Y19.9814 
G01 X-12.6777 Y19.9814 
G01 X-12.2205 Y20.4386 
G01 X-10.0933 Y20.4386 
G01 X-10.0415 Y20.3370 
G01 X-9.9280 Y20.1807 
G01 X-9.7913 Y20.0440 
G01 X-9.6350 Y19.9305 
G01 X-9.4628 Y19.8427 
G01 X-9.2791 Y19.7830 
G01 X-9.0882 Y19.7528 
G01 X-6.6598 Y19.7528 
G01 X-6.4689 Y19.7830 
G01 X-6.2852 Y19.8427 
G01 X-6.1130 Y19.9305 
G01 X-5.9567 Y20.0440 
G01 X-5.8200 Y20.1807 
G00 Z10.0000 
G00 X-22.7246 Y16.9105 
G01 Z-0.0250 F100   
G01 X-22.3324 Y16.5184 F150   
G01 X-22.3805 Y16.5184 
G01 X-22.7246 Y16.8625 
G01 X-22.7246 Y16.9105 
G00 Z10.0000 
G00 X-23.7574 Y16.9105 
G01 Z-0.0250 F100   
G01 X-23.7574 Y16.8625 F150   
G01 X-24.1015 Y16.5184 
G01 X-24.1495 Y16.5184 
G01 X-23.7574 Y16.9105 
G00 Z10.0000 
G00 X-23.7574 Y15.1415 
G01 Z-0.0250 F100   
G01 X-23.7574 Y15.0934 F150   
G01 X-24.1495 Y15.4856 
G01 X-24.1015 Y15.4856 
G01 X-23.7574 Y15.1415 
G00 Z10.0000 
G00 X-22.7246 Y15.1415 
G01 Z-0.0250 F100   
G01 X-22.3805 Y15.4856 F150   
G01 X-22.3325 Y15.4856 
G01 X-22.7246 Y15.0935 
G01 X-22.7246 Y15.1415 
G00 Z10.0000 
G00 X-27.2459 Y17.8890 
G01 Z-0.0250 F100   
G01 X-27.1338 Y18.0568 F150   
G01 X-27.0566 Y18.2432 
G01 X-27.0172 Y18.4411 
G01 X-27.0172 Y18.6429 
G01 X-27.0566 Y18.8408 
G01 X-27.1338 Y19.0272 
G01 X-27.2459 Y19.1950 
G01 X-27.3886 Y19.3377 
G01 X-27.5564 Y19.4498 
G01 X-27.7428 Y19.5270 
G01 X-27.9407 Y19.5664 
G01 X-29.9713 Y19.5664 
G01 X-30.1692 Y19.5270 
G01 X-30.3556 Y19.4498 
G01 X-30.5234 Y19.3377 
G01 X-30.6661 Y19.1950 
G01 X-30.7782 Y19.0272 
G01 X-30.8554 Y18.8408 
G01 X-30.8948 Y18.6429 
G01 X-30.8948 Y18.4411 
G01 X-30.8660 Y18.2964 
G01 X-32.3260 Y18.2964 
G01 X-32.4573 Y18.2612 
G01 X-32.5751 Y18.1932 
G01 X-35.5199 Y15.2484 
G01 X-40.1721 Y15.2484 
G01 X-40.8243 Y15.9006 
G01 X-40.7932 Y15.9472 
G01 X-40.7198 Y16.1244 
G01 X-40.6824 Y16.3125 
G01 X-40.6824 Y18.2315 
G01 X-40.7198 Y18.4196 
G01 X-40.7932 Y18.5968 
G01 X-40.8998 Y18.7562 
G01 X-41.0354 Y18.8918 
G01 X-41.1948 Y18.9984 
G01 X-41.3720 Y19.0718 
G01 X-41.5601 Y19.1092 
G01 X-41.7519 Y19.1092 
G01 X-41.9400 Y19.0718 
G01 X-42.1172 Y18.9984 
G01 X-42.2766 Y18.8918 
G01 X-42.4122 Y18.7562 
G01 X-42.5188 Y18.5968 
G01 X-42.5922 Y18.4196 
G01 X-42.6296 Y18.2315 
G01 X-42.6296 Y16.3125 
G01 X-42.5922 Y16.1244 
G01 X-42.5188 Y15.9472 
G01 X-42.4122 Y15.7878 
G01 X-42.2766 Y15.6522 
G01 X-42.1172 Y15.5456 
G01 X-41.9400 Y15.4722 
G01 X-41.8358 Y15.4515 
G01 X-40.7031 Y14.3188 
G01 X-40.5853 Y14.2508 
G01 X-40.4540 Y14.2156 
G01 X-35.2380 Y14.2156 
G01 X-35.1067 Y14.2508 
G01 X-34.9889 Y14.3188 
G01 X-34.8928 Y14.4149 
G01 X-32.0441 Y17.2636 
G01 X-29.6500 Y17.2636 
G01 X-29.5187 Y17.2988 
G01 X-29.4009 Y17.3668 
G01 X-29.3048 Y17.4629 
G01 X-29.2501 Y17.5176 
G01 X-27.9407 Y17.5176 
G01 X-27.7428 Y17.5570 
G01 X-27.5564 Y17.6342 
G01 X-27.3886 Y17.7463 
G01 X-27.2459 Y17.8890 
G00 Z10.0000 
G00 X-31.1143 Y18.5293 
G01 Z-0.0250 F100   
G01 X-31.0936 Y18.5564 F150   
G01 X-31.0694 Y18.5805 
G01 X-31.0523 Y18.6101 
G01 X-31.0316 Y18.6372 
G01 X-31.0185 Y18.6687 
G01 X-31.0014 Y18.6983 
G01 X-30.9926 Y18.7312 
G01 X-30.8107 Y19.1703 
G01 X-30.5823 Y19.3988 
G01 X-30.4861 Y19.4949 
G01 X-30.4181 Y19.6127 
G01 X-30.3920 Y19.7103 
G01 X-30.3829 Y19.7440 
G01 X-30.3829 Y19.8800 
G01 X-30.4181 Y20.0113 
G01 X-30.4861 Y20.1291 
G01 X-30.8107 Y20.4537 
G01 X-30.9796 Y20.8614 
G01 X-30.9796 Y21.3026 
G01 X-30.8107 Y21.7103 
G01 X-30.4987 Y22.0223 
G01 X-30.0910 Y22.1912 
G01 X-28.8429 Y22.1912 
G01 X-28.7116 Y22.2264 
G01 X-28.5938 Y22.2944 
G01 X-26.2570 Y24.6312 
G01 X-26.1609 Y24.7273 
G01 X-26.0929 Y24.8451 
G01 X-26.0577 Y24.9764 
G01 X-26.0577 Y25.1124 
G01 X-26.0929 Y25.2437 
G01 X-26.1609 Y25.3615 
G01 X-26.2570 Y25.4576 
G01 X-26.3748 Y25.5256 
G01 X-26.5061 Y25.5608 
G01 X-27.8056 Y25.5608 
G01 X-28.0266 Y25.6523 
G01 X-29.4657 Y27.0914 
G01 X-29.5572 Y27.3124 
G01 X-29.5572 Y29.7704 
G01 X-29.5527 Y29.8042 
G01 X-29.5572 Y29.8380 
G01 X-29.5572 Y29.8722 
G01 X-29.5660 Y29.9052 
G01 X-29.5705 Y29.9390 
G01 X-29.5836 Y29.9705 
G01 X-29.5924 Y30.0035 
G01 X-29.6095 Y30.0331 
G01 X-29.6225 Y30.0646 
G01 X-29.6433 Y30.0917 
G01 X-29.6604 Y30.1213 
G01 X-29.6845 Y30.1454 
G01 X-29.7053 Y30.1725 
G01 X-29.7324 Y30.1933 
G01 X-29.7565 Y30.2174 
G01 X-29.7861 Y30.2345 
G01 X-29.8132 Y30.2553 
G01 X-29.8447 Y30.2683 
G01 X-29.8743 Y30.2854 
G01 X-30.2464 Y30.6510 
G01 X-30.4462 Y31.1333 
G01 X-30.4462 Y32.8283 
G01 X-30.4814 Y32.9596 
G01 X-30.5494 Y33.0774 
G01 X-32.0936 Y34.6215 
G01 X-32.1143 Y34.6486 
G01 X-32.1414 Y34.6694 
G01 X-32.1656 Y34.6935 
G01 X-32.1951 Y34.7106 
G01 X-32.2222 Y34.7314 
G01 X-32.2537 Y34.7445 
G01 X-32.2833 Y34.7615 
G01 X-32.3163 Y34.7704 
G01 X-32.3478 Y34.7834 
G01 X-32.3817 Y34.7879 
G01 X-32.4147 Y34.7967 
G01 X-32.4488 Y34.7967 
G01 X-32.4826 Y34.8012 
G01 X-32.5165 Y34.7967 
G01 X-32.5506 Y34.7967 
G01 X-32.5836 Y34.7879 
G01 X-32.6174 Y34.7834 
G01 X-32.6490 Y34.7704 
G01 X-32.6820 Y34.7615 
G01 X-32.7115 Y34.7445 
G01 X-32.7431 Y34.7314 
G01 X-32.7702 Y34.7106 
G01 X-32.7997 Y34.6935 
G01 X-32.8239 Y34.6694 
G01 X-32.8509 Y34.6486 
G01 X-32.8717 Y34.6215 
G01 X-32.8959 Y34.5974 
G01 X-32.9129 Y34.5678 
G01 X-32.9337 Y34.5408 
G01 X-32.9468 Y34.5092 
G01 X-32.9639 Y34.4796 
G01 X-32.9727 Y34.4467 
G01 X-32.9858 Y34.4151 
G01 X-32.9902 Y34.3813 
G01 X-32.9990 Y34.3483 
G01 X-32.9990 Y34.3142 
G01 X-33.0035 Y34.2803 
G01 X-32.9990 Y34.2465 
G01 X-32.9990 Y34.2123 
G01 X-32.9902 Y34.1794 
G01 X-32.9858 Y34.1455 
G01 X-32.9727 Y34.1140 
G01 X-32.9639 Y34.0810 
G01 X-32.9468 Y34.0514 
G01 X-32.9404 Y34.0360 
G01 X-32.8976 Y33.8763 
G01 X-32.8760 Y33.7123 
G01 X-32.8760 Y33.0284 
G01 X-32.9100 Y33.0284 
G01 X-32.9100 Y33.7262 
G01 X-32.9402 Y33.9171 
G01 X-32.9999 Y34.1008 
G01 X-33.0877 Y34.2730 
G01 X-33.2012 Y34.4293 
G01 X-33.3379 Y34.5660 
G01 X-33.4942 Y34.6795 
G01 X-33.6664 Y34.7673 
G01 X-33.8501 Y34.8270 
G01 X-34.0410 Y34.8572 
G01 X-34.2342 Y34.8572 
G01 X-34.4251 Y34.8270 
G01 X-34.6088 Y34.7673 
G01 X-34.7810 Y34.6795 
G01 X-34.9373 Y34.5660 
G01 X-35.0740 Y34.4293 
G01 X-35.1875 Y34.2730 
G01 X-35.2753 Y34.1008 
G01 X-35.3350 Y33.9171 
G01 X-35.3652 Y33.7262 
G01 X-35.3652 Y33.0284 
G01 X-35.3992 Y33.0284 
G01 X-35.3992 Y33.7123 
G01 X-35.3776 Y33.8763 
G01 X-35.3348 Y34.0360 
G01 X-35.2715 Y34.1888 
G01 X-35.1888 Y34.3320 
G01 X-35.0882 Y34.4632 
G01 X-35.0142 Y34.5372 
G01 X-34.9180 Y34.6333 
G01 X-34.8562 Y34.7405 
G01 X-34.8333 Y34.8135 
G01 X-34.8149 Y34.8824 
G01 X-34.8149 Y35.0184 
G01 X-34.8501 Y35.1497 
G01 X-34.9004 Y35.2369 
G01 X-34.9180 Y35.2675 
G01 X-35.0142 Y35.3636 
G01 X-35.1213 Y35.4255 
G01 X-35.1944 Y35.4483 
G01 X-35.2633 Y35.4668 
G01 X-37.9439 Y35.4668 
G01 X-37.9806 Y35.4570 
G01 X-38.0752 Y35.4316 
G01 X-38.1930 Y35.3636 
G01 X-38.2891 Y35.2675 
G01 X-38.3571 Y35.1497 
G01 X-38.3923 Y35.0184 
G01 X-38.3923 Y34.8824 
G01 X-38.3825 Y34.8457 
G01 X-38.3571 Y34.7511 
G01 X-38.2891 Y34.6333 
G01 X-38.1930 Y34.5372 
G01 X-38.0288 Y34.3730 
G01 X-37.8290 Y33.8907 
G01 X-37.8290 Y31.1333 
G01 X-38.0288 Y30.6510 
G01 X-38.3409 Y30.3389 
G01 X-38.4370 Y30.2428 
G01 X-38.5050 Y30.1250 
G01 X-38.5402 Y29.9937 
G01 X-38.5402 Y27.8523 
G01 X-38.5050 Y27.7210 
G01 X-38.4370 Y27.6032 
G01 X-37.7963 Y26.9625 
G01 X-37.7002 Y26.8664 
G01 X-37.5824 Y26.7984 
G01 X-37.4511 Y26.7632 
G01 X-35.0775 Y26.7632 
G01 X-35.0486 Y26.7709 
G01 X-34.9462 Y26.7984 
G01 X-34.8284 Y26.8664 
G01 X-34.7323 Y26.9625 
G01 X-34.4744 Y27.2204 
G01 X-33.5976 Y27.2204 
G01 X-32.9776 Y26.6004 
G01 X-32.9776 Y25.7236 
G01 X-33.5976 Y25.1036 
G01 X-34.4744 Y25.1036 
G01 X-34.7323 Y25.3615 
G01 X-34.8284 Y25.4576 
G01 X-34.9462 Y25.5256 
G01 X-35.0509 Y25.5537 
G01 X-35.0775 Y25.5608 
G01 X-37.9656 Y25.5608 
G01 X-38.1865 Y25.6523 
G01 X-38.3802 Y25.8460 
G01 X-39.3612 Y26.8270 
G01 X-39.4574 Y26.9232 
G01 X-39.6511 Y27.1168 
G01 X-39.7426 Y27.3378 
G01 X-39.7426 Y29.9937 
G01 X-39.7778 Y30.1250 
G01 X-39.8458 Y30.2428 
G01 X-39.9419 Y30.3389 
G01 X-40.1760 Y30.5730 
G01 X-40.2721 Y30.6691 
G01 X-40.3899 Y30.7371 
G01 X-40.4875 Y30.7633 
G01 X-40.5212 Y30.7723 
G01 X-40.6572 Y30.7723 
G01 X-40.7885 Y30.7371 
G01 X-40.9063 Y30.6691 
G01 X-41.0024 Y30.5730 
G01 X-41.0704 Y30.4552 
G01 X-41.0966 Y30.3576 
G01 X-41.1056 Y30.3239 
G01 X-41.1056 Y20.9116 
G01 X-41.1971 Y20.6906 
G01 X-41.4870 Y20.4008 
G01 X-41.7642 Y20.1236 
G01 X-41.8603 Y20.0275 
G01 X-41.9283 Y19.9097 
G01 X-41.9544 Y19.8121 
G01 X-41.9635 Y19.7784 
G01 X-41.9635 Y19.6424 
G01 X-41.9283 Y19.5111 
G01 X-41.8603 Y19.3933 
G01 X-41.7642 Y19.2972 
G01 X-41.6464 Y19.2292 
G01 X-41.5488 Y19.2030 
G01 X-41.5151 Y19.1940 
G01 X-41.4455 Y19.1940 
G01 X-41.0565 Y19.0329 
G01 X-40.7992 Y18.7756 
G01 X-40.7031 Y18.6795 
G01 X-40.5853 Y18.6115 
G01 X-40.4540 Y18.5763 
G01 X-40.3180 Y18.5763 
G01 X-40.2813 Y18.5861 
G01 X-40.1867 Y18.6115 
G01 X-40.0689 Y18.6795 
G01 X-39.9728 Y18.7756 
G01 X-39.7155 Y19.0329 
G01 X-39.3265 Y19.1940 
G01 X-38.9055 Y19.1940 
G01 X-38.5165 Y19.0329 
G01 X-38.2592 Y18.7756 
G01 X-38.1631 Y18.6795 
G01 X-38.0453 Y18.6115 
G01 X-37.9140 Y18.5763 
G01 X-37.7780 Y18.5763 
G01 X-37.7413 Y18.5861 
G01 X-37.6467 Y18.6115 
G01 X-37.5289 Y18.6795 
G01 X-37.4328 Y18.7756 
G01 X-37.1755 Y19.0329 
G01 X-36.7865 Y19.1940 
G01 X-36.3655 Y19.1940 
G01 X-35.9765 Y19.0329 
G01 X-35.6842 Y18.7406 
G01 X-35.6728 Y18.7209 
G01 X-35.6598 Y18.6894 
G01 X-35.6390 Y18.6623 
G01 X-35.6219 Y18.6327 
G01 X-35.5978 Y18.6086 
G01 X-35.5770 Y18.5815 
G01 X-35.5499 Y18.5607 
G01 X-35.5258 Y18.5366 
G01 X-35.4962 Y18.5195 
G01 X-35.4691 Y18.4987 
G01 X-35.4376 Y18.4857 
G01 X-35.4080 Y18.4686 
G01 X-35.3751 Y18.4598 
G01 X-35.3435 Y18.4467 
G01 X-35.3097 Y18.4422 
G01 X-35.2767 Y18.4334 
G01 X-35.2426 Y18.4334 
G01 X-35.2087 Y18.4290 
G01 X-35.1749 Y18.4334 
G01 X-35.1407 Y18.4334 
G01 X-35.1078 Y18.4422 
G01 X-35.0739 Y18.4467 
G01 X-35.0423 Y18.4598 
G01 X-35.0094 Y18.4686 
G01 X-34.9798 Y18.4857 
G01 X-34.9483 Y18.4987 
G01 X-34.9212 Y18.5195 
G01 X-34.8916 Y18.5366 
G01 X-34.8675 Y18.5607 
G01 X-34.8404 Y18.5815 
G01 X-34.8196 Y18.6086 
G01 X-34.7404 Y18.6878 
G01 X-34.6724 Y18.8056 
G01 X-34.6372 Y18.9369 
G01 X-34.6372 Y19.0042 
G01 X-34.6372 Y20.0405 
G01 X-34.6450 Y20.0694 
G01 X-34.6724 Y20.1718 
G01 X-34.7404 Y20.2896 
G01 X-34.8365 Y20.3857 
G01 X-35.0944 Y20.6436 
G01 X-35.0944 Y21.5204 
G01 X-34.4744 Y22.1404 
G01 X-33.5976 Y22.1404 
G01 X-32.9776 Y21.5204 
G01 X-32.9776 Y20.6436 
G01 X-33.2355 Y20.3857 
G01 X-33.3316 Y20.2896 
G01 X-33.3996 Y20.1718 
G01 X-33.4277 Y20.0671 
G01 X-33.4348 Y20.0405 
G01 X-33.4348 Y18.7681 
G01 X-33.4348 Y18.6993 
G01 X-33.4348 Y18.6321 
G01 X-33.4166 Y18.5642 
G01 X-33.3996 Y18.5008 
G01 X-33.3677 Y18.4455 
G01 X-33.3316 Y18.3830 
G01 X-33.2928 Y18.3443 
G01 X-33.2355 Y18.2869 
G01 X-33.2174 Y18.2765 
G01 X-33.1177 Y18.2189 
G01 X-33.0783 Y18.2083 
G01 X-32.9864 Y18.1837 
G01 X-32.9176 Y18.1837 
G01 X-32.8504 Y18.1837 
G01 X-32.7824 Y18.2019 
G01 X-32.7191 Y18.2189 
G01 X-32.6638 Y18.2508 
G01 X-32.6013 Y18.2869 
G01 X-32.3776 Y18.3812 
G01 X-31.5165 Y18.3812 
G01 X-31.4826 Y18.3767 
G01 X-31.4488 Y18.3812 
G01 X-31.4147 Y18.3812 
G01 X-31.3817 Y18.3900 
G01 X-31.3478 Y18.3945 
G01 X-31.3163 Y18.4076 
G01 X-31.2833 Y18.4164 
G01 X-31.2537 Y18.4335 
G01 X-31.2222 Y18.4465 
G01 X-31.1951 Y18.4673 
G01 X-31.1656 Y18.4844 
G01 X-31.1414 Y18.5085 
G01 X-31.1143 Y18.5293 
G00 Z10.0000 
G00 X-33.5196 Y18.4740 
G01 Z-0.0250 F100   
G01 X-33.5196 Y20.2215 F150   
G01 X-33.0624 Y20.6787 
G01 X-33.0624 Y21.4853 
G01 X-33.6327 Y22.0556 
G01 X-34.4393 Y22.0556 
G01 X-35.0096 Y21.4853 
G01 X-35.0096 Y20.6787 
G01 X-34.5524 Y20.2215 
G01 X-34.5524 Y18.7559 
G01 X-35.5199 Y17.7884 
G01 X-35.6024 Y17.7884 
G01 X-35.6024 Y18.2315 
G01 X-35.6398 Y18.4196 
G01 X-35.7132 Y18.5968 
G01 X-35.8198 Y18.7562 
G01 X-35.9554 Y18.8918 
G01 X-36.1148 Y18.9984 
G01 X-36.2920 Y19.0718 
G01 X-36.4801 Y19.1092 
G01 X-36.6719 Y19.1092 
G01 X-36.8600 Y19.0718 
G01 X-37.0372 Y18.9984 
G01 X-37.1966 Y18.8918 
G01 X-37.3322 Y18.7562 
G01 X-37.4388 Y18.5968 
G01 X-37.5122 Y18.4196 
G01 X-37.5496 Y18.2315 
G01 X-37.5496 Y17.7884 
G01 X-38.1424 Y17.7884 
G01 X-38.1424 Y18.2315 
G01 X-38.1798 Y18.4196 
G01 X-38.2532 Y18.5968 
G01 X-38.3598 Y18.7562 
G01 X-38.4954 Y18.8918 
G01 X-38.6548 Y18.9984 
G01 X-38.8320 Y19.0718 
G01 X-39.0201 Y19.1092 
G01 X-39.2119 Y19.1092 
G01 X-39.4000 Y19.0718 
G01 X-39.5772 Y18.9984 
G01 X-39.7366 Y18.8918 
G01 X-39.8722 Y18.7562 
G01 X-39.9788 Y18.5968 
G01 X-40.0522 Y18.4196 
G01 X-40.0896 Y18.2315 
G01 X-40.0896 Y16.3125 
G01 X-40.0522 Y16.1244 
G01 X-39.9788 Y15.9472 
G01 X-39.8722 Y15.7878 
G01 X-39.7366 Y15.6522 
G01 X-39.5772 Y15.5456 
G01 X-39.4000 Y15.4722 
G01 X-39.2119 Y15.4348 
G01 X-39.0201 Y15.4348 
G01 X-38.8320 Y15.4722 
G01 X-38.6548 Y15.5456 
G01 X-38.4954 Y15.6522 
G01 X-38.3598 Y15.7878 
G01 X-38.2532 Y15.9472 
G01 X-38.1798 Y16.1244 
G01 X-38.1424 Y16.3125 
G01 X-38.1424 Y16.7556 
G01 X-37.5496 Y16.7556 
G01 X-37.5496 Y16.3125 
G01 X-37.5122 Y16.1244 
G01 X-37.4388 Y15.9472 
G01 X-37.3322 Y15.7878 
G01 X-37.1966 Y15.6522 
G01 X-37.0372 Y15.5456 
G01 X-36.8600 Y15.4722 
G01 X-36.6719 Y15.4348 
G01 X-36.4801 Y15.4348 
G01 X-36.2920 Y15.4722 
G01 X-36.1148 Y15.5456 
G01 X-35.9554 Y15.6522 
G01 X-35.8198 Y15.7878 
G01 X-35.7132 Y15.9472 
G01 X-35.6398 Y16.1244 
G01 X-35.6024 Y16.3125 
G01 X-35.6024 Y16.7556 
G01 X-35.2380 Y16.7556 
G01 X-35.1067 Y16.7908 
G01 X-34.9889 Y16.8588 
G01 X-33.6228 Y18.2249 
G01 X-33.5548 Y18.3427 
G01 X-33.5196 Y18.4740 
G00 Z10.0000 
G00 X-33.6327 Y25.1884 
G01 Z-0.0250 F100   
G01 X-33.0624 Y25.7587 F150   
G01 X-33.0624 Y26.5653 
G01 X-33.6327 Y27.1356 
G01 X-34.4393 Y27.1356 
G01 X-34.8965 Y26.6784 
G01 X-37.6321 Y26.6784 
G01 X-38.6250 Y27.6713 
G01 X-38.6250 Y30.2797 
G01 X-38.4980 Y30.3445 
G01 X-38.3417 Y30.4580 
G01 X-38.2050 Y30.5947 
G01 X-38.0915 Y30.7510 
G01 X-38.0037 Y30.9232 
G01 X-37.9440 Y31.1069 
G01 X-37.9138 Y31.2978 
G01 X-37.9138 Y33.7262 
G01 X-37.9440 Y33.9171 
G01 X-38.0037 Y34.1008 
G01 X-38.0915 Y34.2730 
G01 X-38.2050 Y34.4293 
G01 X-38.3417 Y34.5660 
G01 X-38.4980 Y34.6795 
G01 X-38.6702 Y34.7673 
G01 X-38.8539 Y34.8270 
G01 X-39.0448 Y34.8572 
G01 X-39.2380 Y34.8572 
G01 X-39.4289 Y34.8270 
G01 X-39.6126 Y34.7673 
G01 X-39.7848 Y34.6795 
G01 X-39.9411 Y34.5660 
G01 X-40.0778 Y34.4293 
G01 X-40.1913 Y34.2730 
G01 X-40.2791 Y34.1008 
G01 X-40.3388 Y33.9171 
G01 X-40.3690 Y33.7262 
G01 X-40.3690 Y31.2978 
G01 X-40.3388 Y31.1069 
G01 X-40.2791 Y30.9232 
G01 X-40.1913 Y30.7510 
G01 X-40.0778 Y30.5947 
G01 X-39.9411 Y30.4580 
G01 X-39.7848 Y30.3445 
G01 X-39.6578 Y30.2797 
G01 X-39.6578 Y27.3894 
G01 X-39.6226 Y27.2581 
G01 X-39.5546 Y27.1403 
G01 X-38.1631 Y25.7488 
G01 X-38.0453 Y25.6808 
G01 X-37.9140 Y25.6456 
G01 X-34.8965 Y25.6456 
G01 X-34.4393 Y25.1884 
G01 X-33.6327 Y25.1884 
G00 Z10.0000 
G00 X-33.6212 Y30.2428 
G01 Z-0.0250 F100   
G01 X-33.6212 Y30.2798 F150   
G01 X-33.4942 Y30.3445 
G01 X-33.3379 Y30.4580 
G01 X-33.2012 Y30.5947 
G01 X-33.0877 Y30.7510 
G01 X-32.9999 Y30.9232 
G01 X-32.9402 Y31.1069 
G01 X-32.9100 Y31.2978 
G01 X-32.9100 Y31.9956 
G01 X-32.8760 Y31.9956 
G01 X-32.8760 Y31.3117 
G01 X-32.8976 Y31.1477 
G01 X-32.9404 Y30.9880 
G01 X-33.0037 Y30.8352 
G01 X-33.0864 Y30.6920 
G01 X-33.1870 Y30.5608 
G01 X-33.3040 Y30.4438 
G01 X-33.4352 Y30.3432 
G01 X-33.5784 Y30.2605 
G01 X-33.6212 Y30.2428 
G00 Z10.0000 
G00 X-34.6540 Y30.2428 
G01 Z-0.0250 F100   
G01 X-34.6968 Y30.2605 F150   
G01 X-34.8400 Y30.3432 
G01 X-34.9712 Y30.4438 
G01 X-35.0882 Y30.5608 
G01 X-35.1888 Y30.6920 
G01 X-35.2715 Y30.8352 
G01 X-35.3348 Y30.9880 
G01 X-35.3776 Y31.1477 
G01 X-35.3992 Y31.3117 
G01 X-35.3992 Y31.9956 
G01 X-35.3652 Y31.9956 
G01 X-35.3652 Y31.2978 
G01 X-35.3350 Y31.1069 
G01 X-35.2753 Y30.9232 
G01 X-35.1875 Y30.7510 
G01 X-35.0740 Y30.5947 
G01 X-34.9373 Y30.4580 
G01 X-34.7810 Y30.3445 
G01 X-34.6540 Y30.2798 
G01 X-34.6540 Y30.2428 
G00 Z10.0000 
G00 X-44.7124 Y27.0705 
G01 Z-0.0250 F100   
G01 X-44.7124 Y27.0225 F150   
G01 X-45.0565 Y26.6784 
G01 X-45.1045 Y26.6784 
G01 X-44.7124 Y27.0705 
G00 Z10.0000 
G00 X-45.8792 Y26.7302 
G01 Z-0.0250 F100   
G01 X-45.8792 Y26.7302 F150   
G01 X-45.8274 Y26.6784 
G01 X-45.8755 Y26.6784 
G01 X-46.2196 Y27.0225 
G01 X-46.2196 Y27.0705 
G01 X-45.8792 Y26.7302 
G00 Z10.0000 
G00 X-45.8755 Y25.6456 
G01 Z-0.0250 F100   
G01 X-45.8275 Y25.6456 F150   
G01 X-45.8792 Y25.5938 
G01 X-46.2196 Y25.2535 
G01 X-46.2196 Y25.3015 
G01 X-45.8755 Y25.6456 
G00 Z10.0000 
G00 X-45.1045 Y25.6456 
G01 Z-0.0250 F100   
G01 X-45.0565 Y25.6456 F150   
G01 X-44.7124 Y25.3015 
G01 X-44.7124 Y25.2534 
G01 X-45.1045 Y25.6456 
G00 Z10.0000 
G00 X-47.2524 Y25.3015 
G01 Z-0.0250 F100   
G01 X-47.2524 Y25.2534 F150   
G01 X-47.6445 Y25.6456 
G01 X-47.5965 Y25.6456 
G01 X-47.2524 Y25.3015 
G00 Z10.0000 
G00 X-47.5965 Y26.6784 
G01 Z-0.0250 F100   
G01 X-47.6445 Y26.6784 F150   
G01 X-47.2524 Y27.0705 
G01 X-47.2524 Y27.0225 
G01 X-47.5965 Y26.6784 
G00 Z10.0000 
G00 X-48.7612 Y28.4865 
G01 Z-0.0250 F100   
G01 X-48.6932 Y28.6043 F150   
G01 X-48.6580 Y28.7356 
G01 X-48.6580 Y30.2797 
G01 X-48.5310 Y30.3445 
G01 X-48.3747 Y30.4580 
G01 X-48.2380 Y30.5947 
G01 X-48.1245 Y30.7510 
G01 X-48.0367 Y30.9232 
G01 X-47.9770 Y31.1069 
G01 X-47.9468 Y31.2978 
G01 X-47.9468 Y33.7262 
G01 X-47.9770 Y33.9171 
G01 X-48.0367 Y34.1008 
G01 X-48.1245 Y34.2730 
G01 X-48.2380 Y34.4293 
G01 X-48.3747 Y34.5660 
G01 X-48.5310 Y34.6795 
G01 X-48.7032 Y34.7673 
G01 X-48.8869 Y34.8270 
G01 X-49.0778 Y34.8572 
G01 X-49.2710 Y34.8572 
G01 X-49.4619 Y34.8270 
G01 X-49.6456 Y34.7673 
G01 X-49.8178 Y34.6795 
G01 X-49.9741 Y34.5660 
G01 X-50.1108 Y34.4293 
G01 X-50.2243 Y34.2730 
G01 X-50.3121 Y34.1008 
G01 X-50.3718 Y33.9171 
G01 X-50.4020 Y33.7262 
G01 X-50.4020 Y31.2978 
G01 X-50.3718 Y31.1069 
G01 X-50.3121 Y30.9232 
G01 X-50.2243 Y30.7510 
G01 X-50.1108 Y30.5947 
G01 X-49.9741 Y30.4580 
G01 X-49.8178 Y30.3445 
G01 X-49.6908 Y30.2797 
G01 X-49.6908 Y29.0175 
G01 X-52.0299 Y26.6784 
G01 X-56.0355 Y26.6784 
G01 X-56.4927 Y27.1356 
G01 X-57.2993 Y27.1356 
G01 X-57.8696 Y26.5653 
G01 X-57.8696 Y25.7587 
G01 X-57.2993 Y25.1884 
G01 X-56.4927 Y25.1884 
G01 X-56.0355 Y25.6456 
G01 X-51.7480 Y25.6456 
G01 X-51.6167 Y25.6808 
G01 X-51.4989 Y25.7488 
G01 X-48.7612 Y28.4865 
G00 Z10.0000 
G00 X-47.7096 Y21.4853 
G01 Z-0.0250 F100   
G01 X-47.7096 Y20.6787 F150   
G01 X-47.2524 Y20.2215 
G01 X-47.2524 Y18.9615 
G01 X-47.3566 Y18.8918 
G01 X-47.4922 Y18.7562 
G01 X-47.5988 Y18.5968 
G01 X-47.6722 Y18.4196 
G01 X-47.7096 Y18.2315 
G01 X-47.7096 Y16.3125 
G01 X-47.6722 Y16.1244 
G01 X-47.5988 Y15.9472 
G01 X-47.4922 Y15.7878 
G01 X-47.3566 Y15.6522 
G01 X-47.1972 Y15.5456 
G01 X-47.0200 Y15.4722 
G01 X-46.8319 Y15.4348 
G01 X-46.6401 Y15.4348 
G01 X-46.4520 Y15.4722 
G01 X-46.2748 Y15.5456 
G01 X-46.1154 Y15.6522 
G01 X-45.9798 Y15.7878 
G01 X-45.8732 Y15.9472 
G01 X-45.7998 Y16.1244 
G01 X-45.7624 Y16.3125 
G01 X-45.7624 Y18.2315 
G01 X-45.7998 Y18.4196 
G01 X-45.8732 Y18.5968 
G01 X-45.9798 Y18.7562 
G01 X-46.1154 Y18.8918 
G01 X-46.2196 Y18.9615 
G01 X-46.2196 Y20.2215 
G01 X-45.8755 Y20.5656 
G01 X-45.0565 Y20.5656 
G01 X-44.5993 Y20.1084 
G01 X-43.7927 Y20.1084 
G01 X-43.2224 Y20.6787 
G01 X-43.2224 Y21.4853 
G01 X-43.7927 Y22.0556 
G01 X-44.5993 Y22.0556 
G01 X-45.0565 Y21.5984 
G01 X-45.8755 Y21.5984 
G01 X-46.3327 Y22.0556 
G01 X-47.1393 Y22.0556 
G01 X-47.7096 Y21.4853 
G00 Z10.0000 
G00 X-48.6554 Y18.8918 
G01 Z-0.0250 F100   
G01 X-48.8148 Y18.9984 F150   
G01 X-48.9920 Y19.0718 
G01 X-49.1801 Y19.1092 
G01 X-49.3719 Y19.1092 
G01 X-49.5600 Y19.0718 
G01 X-49.7372 Y18.9984 
G01 X-49.8966 Y18.8918 
G01 X-50.0322 Y18.7562 
G01 X-50.1388 Y18.5968 
G01 X-50.2122 Y18.4196 
G01 X-50.2496 Y18.2315 
G01 X-50.2496 Y16.3125 
G01 X-50.2122 Y16.1244 
G01 X-50.1388 Y15.9472 
G01 X-50.1077 Y15.9006 
G01 X-51.0139 Y14.9944 
G01 X-52.6181 Y14.9944 
G01 X-54.9588 Y17.3351 
G01 X-55.0549 Y17.4312 
G01 X-55.1727 Y17.4992 
G01 X-55.3040 Y17.5344 
G01 X-61.5360 Y17.5344 
G01 X-61.6673 Y17.4992 
G01 X-61.7851 Y17.4312 
G01 X-63.0027 Y16.2136 
G01 X-63.6493 Y16.2136 
G01 X-64.1065 Y15.7564 
G01 X-66.1955 Y15.7564 
G01 X-66.6527 Y16.2136 
G01 X-67.4593 Y16.2136 
G01 X-68.0296 Y15.6433 
G01 X-68.0296 Y14.8367 
G01 X-67.4593 Y14.2664 
G01 X-66.6527 Y14.2664 
G01 X-66.1955 Y14.7236 
G01 X-64.1065 Y14.7236 
G01 X-63.6493 Y14.2664 
G01 X-62.8427 Y14.2664 
G01 X-62.2724 Y14.8367 
G01 X-62.2724 Y15.4833 
G01 X-61.2541 Y16.5016 
G01 X-55.5859 Y16.5016 
G01 X-53.1491 Y14.0648 
G01 X-53.0313 Y13.9968 
G01 X-52.9000 Y13.9616 
G01 X-50.7320 Y13.9616 
G01 X-50.6007 Y13.9968 
G01 X-50.4829 Y14.0648 
G01 X-49.0962 Y15.4515 
G01 X-48.9920 Y15.4722 
G01 X-48.8148 Y15.5456 
G01 X-48.6554 Y15.6522 
G01 X-48.5198 Y15.7878 
G01 X-48.4132 Y15.9472 
G01 X-48.3398 Y16.1244 
G01 X-48.3024 Y16.3125 
G01 X-48.3024 Y18.2315 
G01 X-48.3398 Y18.4196 
G01 X-48.4132 Y18.5968 
G01 X-48.5198 Y18.7562 
G01 X-48.6554 Y18.8918 
G00 Z10.0000 
G00 X-51.1954 Y18.8918 
G01 Z-0.0250 F100   
G01 X-51.2996 Y18.9615 F150   
G01 X-51.2996 Y19.8800 
G01 X-51.3348 Y20.0113 
G01 X-51.4028 Y20.1291 
G01 X-52.6728 Y21.3991 
G01 X-52.7689 Y21.4952 
G01 X-52.8867 Y21.5632 
G01 X-53.0180 Y21.5984 
G01 X-56.0355 Y21.5984 
G01 X-56.4927 Y22.0556 
G01 X-57.2993 Y22.0556 
G01 X-57.8696 Y21.4853 
G01 X-57.8696 Y20.8387 
G01 X-59.6499 Y19.0584 
G01 X-71.6960 Y19.0584 
G01 X-71.8273 Y19.0232 
G01 X-71.9451 Y18.9552 
G01 X-73.7215 Y17.1788 
G01 X-74.6202 Y17.1788 
G01 X-74.8111 Y17.1486 
G01 X-74.9948 Y17.0889 
G01 X-75.1670 Y17.0011 
G01 X-75.3233 Y16.8876 
G01 X-75.4600 Y16.7509 
G01 X-75.5735 Y16.5946 
G01 X-75.6613 Y16.4224 
G01 X-75.7210 Y16.2387 
G01 X-75.7512 Y16.0478 
G01 X-75.7512 Y15.8546 
G01 X-75.7210 Y15.6637 
G01 X-75.6613 Y15.4800 
G01 X-75.5735 Y15.3078 
G01 X-75.4600 Y15.1515 
G01 X-75.3233 Y15.0148 
G01 X-75.1670 Y14.9013 
G01 X-74.9948 Y14.8135 
G01 X-74.8111 Y14.7538 
G01 X-74.6202 Y14.7236 
G01 X-72.1918 Y14.7236 
G01 X-72.0009 Y14.7538 
G01 X-71.8172 Y14.8135 
G01 X-71.6450 Y14.9013 
G01 X-71.4887 Y15.0148 
G01 X-71.3520 Y15.1515 
G01 X-71.2385 Y15.3078 
G01 X-71.1507 Y15.4800 
G01 X-71.0910 Y15.6637 
G01 X-71.0608 Y15.8546 
G01 X-71.0608 Y16.0478 
G01 X-71.0910 Y16.2387 
G01 X-71.1507 Y16.4224 
G01 X-71.2385 Y16.5946 
G01 X-71.3520 Y16.7509 
G01 X-71.4887 Y16.8876 
G01 X-71.6450 Y17.0011 
G01 X-71.8172 Y17.0889 
G01 X-72.0009 Y17.1486 
G01 X-72.1918 Y17.1788 
G01 X-72.2609 Y17.1788 
G01 X-71.4141 Y18.0256 
G01 X-59.3680 Y18.0256 
G01 X-59.2367 Y18.0608 
G01 X-59.1189 Y18.1288 
G01 X-57.1393 Y20.1084 
G01 X-56.4927 Y20.1084 
G01 X-56.0355 Y20.5656 
G01 X-53.2999 Y20.5656 
G01 X-52.3324 Y19.5981 
G01 X-52.3324 Y18.9615 
G01 X-52.4366 Y18.8918 
G01 X-52.5722 Y18.7562 
G01 X-52.6788 Y18.5968 
G01 X-52.7522 Y18.4196 
G01 X-52.7896 Y18.2315 
G01 X-52.7896 Y16.3125 
G01 X-52.7522 Y16.1244 
G01 X-52.6788 Y15.9472 
G01 X-52.5722 Y15.7878 
G01 X-52.4366 Y15.6522 
G01 X-52.2772 Y15.5456 
G01 X-52.1000 Y15.4722 
G01 X-51.9119 Y15.4348 
G01 X-51.7201 Y15.4348 
G01 X-51.5320 Y15.4722 
G01 X-51.3548 Y15.5456 
G01 X-51.1954 Y15.6522 
G01 X-51.0598 Y15.7878 
G01 X-50.9532 Y15.9472 
G01 X-50.8798 Y16.1244 
G01 X-50.8424 Y16.3125 
G01 X-50.8424 Y18.2315 
G01 X-50.8798 Y18.4196 
G01 X-50.9532 Y18.5968 
G01 X-51.0598 Y18.7562 
G01 X-51.1954 Y18.8918 
G00 Z10.0000 
G00 X-50.4780 Y13.2164 
G01 Z-0.0250 F100   
G01 X-57.3055 Y13.2164 F150   
G01 X-57.7627 Y13.6736 
G01 X-58.4093 Y13.6736 
G01 X-59.2714 Y14.5357 
G01 X-58.9704 Y14.8367 
G01 X-58.9704 Y15.6433 
G01 X-59.5407 Y16.2136 
G01 X-60.3473 Y16.2136 
G01 X-60.9176 Y15.6433 
G01 X-60.9176 Y14.8367 
G01 X-60.4492 Y14.3684 
G01 X-60.4252 Y14.2787 
G01 X-60.3572 Y14.1609 
G01 X-59.1396 Y12.9433 
G01 X-59.1396 Y12.2967 
G01 X-58.5693 Y11.7264 
G01 X-57.7627 Y11.7264 
G01 X-57.3055 Y12.1836 
G01 X-50.7599 Y12.1836 
G01 X-49.8676 Y11.2913 
G01 X-49.8966 Y11.2718 
G01 X-50.0322 Y11.1362 
G01 X-50.1388 Y10.9768 
G01 X-50.2122 Y10.7996 
G01 X-50.2496 Y10.6115 
G01 X-50.2496 Y8.6925  
G01 X-50.2122 Y8.5044  
G01 X-50.1388 Y8.3272  
G01 X-50.0322 Y8.1678  
G01 X-49.8966 Y8.0322  
G01 X-49.7372 Y7.9256  
G01 X-49.5600 Y7.8522  
G01 X-49.3719 Y7.8148  
G01 X-49.1801 Y7.8148  
G01 X-48.9920 Y7.8522  
G01 X-48.8148 Y7.9256  
G01 X-48.6554 Y8.0322  
G01 X-48.5198 Y8.1678  
G01 X-48.4132 Y8.3272  
G01 X-48.3398 Y8.5044  
G01 X-48.3024 Y8.6925  
G01 X-48.3024 Y10.6115 
G01 X-48.3398 Y10.7996 
G01 X-48.4132 Y10.9768 
G01 X-48.5198 Y11.1362 
G01 X-48.6554 Y11.2718 
G01 X-48.7596 Y11.3415 
G01 X-48.7596 Y11.4980 
G01 X-48.7948 Y11.6293 
G01 X-48.8628 Y11.7471 
G01 X-50.1328 Y13.0171 
G01 X-50.2289 Y13.1132 
G01 X-50.3467 Y13.1812 
G01 X-50.4780 Y13.2164 
G00 Z10.0000 
G00 X-51.1954 Y11.2718 
G01 Z-0.0250 F100   
G01 X-51.3548 Y11.3784 F150   
G01 X-51.5320 Y11.4518 
G01 X-51.7201 Y11.4892 
G01 X-51.9119 Y11.4892 
G01 X-52.1000 Y11.4518 
G01 X-52.2772 Y11.3784 
G01 X-52.4366 Y11.2718 
G01 X-52.5722 Y11.1362 
G01 X-52.6788 Y10.9768 
G01 X-52.7522 Y10.7996 
G01 X-52.7896 Y10.6115 
G01 X-52.7896 Y8.6925  
G01 X-52.7522 Y8.5044  
G01 X-52.6788 Y8.3272  
G01 X-52.5722 Y8.1678  
G01 X-52.4366 Y8.0322  
G01 X-52.2772 Y7.9256  
G01 X-52.1000 Y7.8522  
G01 X-51.9119 Y7.8148  
G01 X-51.8244 Y7.8148  
G01 X-51.8244 Y6.8179  
G01 X-52.7919 Y5.8504  
G01 X-55.5275 Y5.8504  
G01 X-55.9847 Y6.3076  
G01 X-56.7913 Y6.3076  
G01 X-57.1469 Y5.9520  
G01 X-71.0608 Y5.9520  
G01 X-71.0608 Y6.0402  
G01 X-71.0910 Y6.2311  
G01 X-71.1507 Y6.4148  
G01 X-71.2385 Y6.5870  
G01 X-71.3520 Y6.7433  
G01 X-71.4887 Y6.8800  
G01 X-71.6450 Y6.9935  
G01 X-71.8172 Y7.0813  
G01 X-72.0009 Y7.1410  
G01 X-72.1918 Y7.1712  
G01 X-74.6202 Y7.1712  
G01 X-74.8111 Y7.1410  
G01 X-74.9948 Y7.0813  
G01 X-75.1670 Y6.9935  
G01 X-75.3233 Y6.8800  
G01 X-75.4600 Y6.7433  
G01 X-75.5735 Y6.5870  
G01 X-75.6613 Y6.4148  
G01 X-75.7210 Y6.2311  
G01 X-75.7512 Y6.0402  
G01 X-75.7512 Y5.8470  
G01 X-75.7210 Y5.6561  
G01 X-75.6613 Y5.4724  
G01 X-75.5735 Y5.3002  
G01 X-75.4600 Y5.1439  
G01 X-75.3233 Y5.0072  
G01 X-75.1670 Y4.8937  
G01 X-74.9948 Y4.8059  
G01 X-74.8111 Y4.7462  
G01 X-74.6202 Y4.7160  
G01 X-72.1918 Y4.7160  
G01 X-72.0009 Y4.7462  
G01 X-71.8172 Y4.8059  
G01 X-71.6450 Y4.8937  
G01 X-71.6098 Y4.9192  
G01 X-57.3501 Y4.9192  
G01 X-56.7913 Y4.3604  
G01 X-55.9847 Y4.3604  
G01 X-55.5275 Y4.8176  
G01 X-52.5100 Y4.8176  
G01 X-52.3787 Y4.8528  
G01 X-52.2609 Y4.9208  
G01 X-52.1648 Y5.0169  
G01 X-50.8948 Y6.2869  
G01 X-50.8268 Y6.4047  
G01 X-50.7916 Y6.5360  
G01 X-50.7916 Y9.2120  
G01 X-50.8268 Y9.3433  
G01 X-50.8424 Y9.3704  
G01 X-50.8424 Y10.6115 
G01 X-50.8798 Y10.7996 
G01 X-50.9532 Y10.9768 
G01 X-51.0598 Y11.1362 
G01 X-51.1954 Y11.2718 
G00 Z10.0000 
G00 X-47.4922 Y11.1362 
G01 Z-0.0250 F100   
G01 X-47.5988 Y10.9768 F150   
G01 X-47.6722 Y10.7996 
G01 X-47.7096 Y10.6115 
G01 X-47.7096 Y8.6925  
G01 X-47.6722 Y8.5044  
G01 X-47.5988 Y8.3272  
G01 X-47.4922 Y8.1678  
G01 X-47.3566 Y8.0322  
G01 X-47.1972 Y7.9256  
G01 X-47.0200 Y7.8522  
G01 X-46.8319 Y7.8148  
G01 X-46.7444 Y7.8148  
G01 X-46.7444 Y6.1945  
G01 X-47.2016 Y5.7373  
G01 X-47.2016 Y4.9307  
G01 X-46.6313 Y4.3604  
G01 X-45.8247 Y4.3604  
G01 X-45.3675 Y4.8176  
G01 X-44.5485 Y4.8176  
G01 X-44.0913 Y4.3604  
G01 X-43.2847 Y4.3604  
G01 X-42.7144 Y4.9307  
G01 X-42.7144 Y5.7373  
G01 X-43.2847 Y6.3076  
G01 X-44.0913 Y6.3076  
G01 X-44.5485 Y5.8504  
G01 X-45.3675 Y5.8504  
G01 X-45.7116 Y6.1945  
G01 X-45.7116 Y9.2120  
G01 X-45.7468 Y9.3433  
G01 X-45.7624 Y9.3704  
G01 X-45.7624 Y10.6115 
G01 X-45.7998 Y10.7996 
G01 X-45.8732 Y10.9768 
G01 X-45.9798 Y11.1362 
G01 X-46.1154 Y11.2718 
G01 X-46.2748 Y11.3784 
G01 X-46.4520 Y11.4518 
G01 X-46.6401 Y11.4892 
G01 X-46.8319 Y11.4892 
G01 X-47.0200 Y11.4518 
G01 X-47.1972 Y11.3784 
G01 X-47.3566 Y11.2718 
G01 X-47.4922 Y11.1362 
G00 Z10.0000 
G00 X-42.4122 Y11.1362 
G01 Z-0.0250 F100   
G01 X-42.5188 Y10.9768 F150   
G01 X-42.5922 Y10.7996 
G01 X-42.6296 Y10.6115 
G01 X-42.6296 Y8.6925  
G01 X-42.5922 Y8.5044  
G01 X-42.5188 Y8.3272  
G01 X-42.4122 Y8.1678  
G01 X-42.2766 Y8.0322  
G01 X-42.1172 Y7.9256  
G01 X-41.9400 Y7.8522  
G01 X-41.7519 Y7.8148  
G01 X-41.5601 Y7.8148  
G01 X-41.3720 Y7.8522  
G01 X-41.1948 Y7.9256  
G01 X-41.0354 Y8.0322  
G01 X-40.8998 Y8.1678  
G01 X-40.7932 Y8.3272  
G01 X-40.7198 Y8.5044  
G01 X-40.6824 Y8.6925  
G01 X-40.6824 Y10.6115 
G01 X-40.7198 Y10.7996 
G01 X-40.7932 Y10.9768 
G01 X-40.8243 Y11.0234 
G01 X-40.1721 Y11.6756 
G01 X-35.5199 Y11.6756 
G01 X-31.8131 Y7.9688  
G01 X-31.6953 Y7.9008  
G01 X-31.5640 Y7.8656  
G01 X-30.7574 Y7.8656  
G01 X-30.6661 Y7.7290  
G01 X-30.5234 Y7.5863  
G01 X-30.3556 Y7.4742  
G01 X-30.1692 Y7.3970  
G01 X-29.9713 Y7.3576  
G01 X-27.9407 Y7.3576  
G01 X-27.7428 Y7.3970  
G01 X-27.5564 Y7.4742  
G01 X-27.3886 Y7.5863  
G01 X-27.2459 Y7.7290  
G01 X-27.1338 Y7.8968  
G01 X-27.0566 Y8.0832  
G01 X-27.0172 Y8.2811  
G01 X-27.0172 Y8.4829  
G01 X-27.0566 Y8.6808  
G01 X-27.1338 Y8.8672  
G01 X-27.2459 Y9.0350  
G01 X-27.3886 Y9.1777  
G01 X-27.5564 Y9.2898  
G01 X-27.7428 Y9.3670  
G01 X-27.9407 Y9.4064  
G01 X-29.9713 Y9.4064  
G01 X-30.1692 Y9.3670  
G01 X-30.3556 Y9.2898  
G01 X-30.5234 Y9.1777  
G01 X-30.6661 Y9.0350  
G01 X-30.7574 Y8.8984  
G01 X-31.2821 Y8.8984  
G01 X-34.8928 Y12.5091 
G01 X-34.9889 Y12.6052 
G01 X-35.1067 Y12.6732 
G01 X-35.2380 Y12.7084 
G01 X-40.4540 Y12.7084 
G01 X-40.5853 Y12.6732 
G01 X-40.7031 Y12.6052 
G01 X-41.8358 Y11.4725 
G01 X-41.9400 Y11.4518 
G01 X-42.1172 Y11.3784 
G01 X-42.2766 Y11.2718 
G01 X-42.4122 Y11.1362 
G00 Z10.0000 
G00 X-39.8722 Y11.1362 
G01 Z-0.0250 F100   
G01 X-39.9788 Y10.9768 F150   
G01 X-40.0522 Y10.7996 
G01 X-40.0896 Y10.6115 
G01 X-40.0896 Y8.6925  
G01 X-40.0522 Y8.5044  
G01 X-39.9788 Y8.3272  
G01 X-39.8722 Y8.1678  
G01 X-39.7366 Y8.0322  
G01 X-39.5772 Y7.9256  
G01 X-39.4000 Y7.8522  
G01 X-39.2119 Y7.8148  
G01 X-39.0201 Y7.8148  
G01 X-38.8320 Y7.8522  
G01 X-38.6548 Y7.9256  
G01 X-38.4954 Y8.0322  
G01 X-38.3598 Y8.1678  
G01 X-38.2532 Y8.3272  
G01 X-38.1798 Y8.5044  
G01 X-38.1424 Y8.6925  
G01 X-38.1424 Y9.1356  
G01 X-37.5496 Y9.1356  
G01 X-37.5496 Y8.6925  
G01 X-37.5122 Y8.5044  
G01 X-37.4388 Y8.3272  
G01 X-37.3322 Y8.1678  
G01 X-37.1966 Y8.0322  
G01 X-37.0372 Y7.9256  
G01 X-36.8600 Y7.8522  
G01 X-36.6719 Y7.8148  
G01 X-36.4801 Y7.8148  
G01 X-36.2920 Y7.8522  
G01 X-36.1148 Y7.9256  
G01 X-35.9554 Y8.0322  
G01 X-35.8198 Y8.1678  
G01 X-35.7132 Y8.3272  
G01 X-35.6398 Y8.5044  
G01 X-35.6024 Y8.6925  
G01 X-35.6024 Y9.1356  
G01 X-35.5199 Y9.1356  
G01 X-34.0444 Y7.6601  
G01 X-34.0444 Y6.1945  
G01 X-34.5016 Y5.7373  
G01 X-34.5016 Y4.9307  
G01 X-33.9313 Y4.3604  
G01 X-33.1247 Y4.3604  
G01 X-32.5544 Y4.9307  
G01 X-32.5544 Y5.7373  
G01 X-33.0116 Y6.1945  
G01 X-33.0116 Y7.9420  
G01 X-33.0468 Y8.0733  
G01 X-33.1148 Y8.1911  
G01 X-33.2109 Y8.2872  
G01 X-34.9889 Y10.0652 
G01 X-35.1067 Y10.1332 
G01 X-35.2380 Y10.1684 
G01 X-35.6024 Y10.1684 
G01 X-35.6024 Y10.6115 
G01 X-35.6398 Y10.7996 
G01 X-35.7132 Y10.9768 
G01 X-35.8198 Y11.1362 
G01 X-35.9554 Y11.2718 
G01 X-36.1148 Y11.3784 
G01 X-36.2920 Y11.4518 
G01 X-36.4801 Y11.4892 
G01 X-36.6719 Y11.4892 
G01 X-36.8600 Y11.4518 
G01 X-37.0372 Y11.3784 
G01 X-37.1966 Y11.2718 
G01 X-37.3322 Y11.1362 
G01 X-37.4388 Y10.9768 
G01 X-37.5122 Y10.7996 
G01 X-37.5496 Y10.6115 
G01 X-37.5496 Y10.1684 
G01 X-38.1424 Y10.1684 
G01 X-38.1424 Y10.6115 
G01 X-38.1798 Y10.7996 
G01 X-38.2532 Y10.9768 
G01 X-38.3598 Y11.1362 
G01 X-38.4954 Y11.2718 
G01 X-38.6548 Y11.3784 
G01 X-38.8320 Y11.4518 
G01 X-39.0201 Y11.4892 
G01 X-39.2119 Y11.4892 
G01 X-39.4000 Y11.4518 
G01 X-39.5772 Y11.3784 
G01 X-39.7366 Y11.2718 
G01 X-39.8722 Y11.1362 
G00 Z10.0000 
G00 X-22.8516 Y6.7505  
G01 Z-0.0250 F100   
G01 X-22.4594 Y6.3584  F150   
G01 X-22.5075 Y6.3584  
G01 X-22.8516 Y6.7025  
G01 X-22.8516 Y6.7505  
G00 Z10.0000 
G00 X-67.4175 Y12.1836 
G01 Z-0.0250 F100   
G01 X-67.8096 Y11.7914 F150   
G01 X-67.8096 Y11.8395 
G01 X-67.4655 Y12.1836 
G01 X-67.4175 Y12.1836 
G00 Z10.0000 
G00 X-68.8424 Y11.8395 
G01 Z-0.0250 F100   
G01 X-68.8424 Y11.7914 F150   
G01 X-69.2345 Y12.1836 
G01 X-69.1865 Y12.1836 
G01 X-68.8424 Y11.8395 
G00 Z10.0000 
G00 X-69.1865 Y13.2164 
G01 Z-0.0250 F100   
G01 X-69.2345 Y13.2164 F150   
G01 X-68.8424 Y13.6085 
G01 X-68.8424 Y13.5605 
G01 X-69.1865 Y13.2164 
G00 Z10.0000 
G00 X-71.4548 Y11.9234 
G01 Z-0.0250 F100   
G01 X-71.3378 Y11.8064 F150   
G01 X-71.2372 Y11.6752 
G01 X-71.1545 Y11.5320 
G01 X-71.1368 Y11.4892 
G01 X-71.1738 Y11.4892 
G01 X-71.2385 Y11.6162 
G01 X-71.3520 Y11.7725 
G01 X-71.4887 Y11.9092 
G01 X-71.6450 Y12.0227 
G01 X-71.8172 Y12.1105 
G01 X-72.0009 Y12.1702 
G01 X-72.1918 Y12.2004 
G01 X-72.8896 Y12.2004 
G01 X-72.8896 Y12.2344 
G01 X-72.2057 Y12.2344 
G01 X-72.0417 Y12.2128 
G01 X-71.8820 Y12.1700 
G01 X-71.7292 Y12.1067 
G01 X-71.5860 Y12.0240 
G01 X-71.4548 Y11.9234 
G00 Z10.0000 
G00 X-71.1738 Y10.4564 
G01 Z-0.0250 F100   
G01 X-71.1368 Y10.4564 F150   
G01 X-71.1545 Y10.4136 
G01 X-71.2372 Y10.2704 
G01 X-71.3378 Y10.1392 
G01 X-71.4548 Y10.0222 
G01 X-71.5860 Y9.9216  
G01 X-71.7292 Y9.8389  
G01 X-71.8820 Y9.7756  
G01 X-72.0417 Y9.7328  
G01 X-72.2057 Y9.7112  
G01 X-72.8896 Y9.7112  
G01 X-72.8896 Y9.7452  
G01 X-72.1918 Y9.7452  
G01 X-72.0009 Y9.7754  
G01 X-71.8172 Y9.8351  
G01 X-71.6450 Y9.9229  
G01 X-71.4887 Y10.0364 
G01 X-71.3520 Y10.1731 
G01 X-71.2385 Y10.3294 
G01 X-71.1738 Y10.4564 
G00 Z10.0000 
G00 X-73.9224 Y9.7452  
G01 Z-0.0250 F100   
G01 X-73.9224 Y9.7112  F150   
G01 X-74.6063 Y9.7112  
G01 X-74.7703 Y9.7328  
G01 X-74.9300 Y9.7756  
G01 X-75.0828 Y9.8389  
G01 X-75.2260 Y9.9216  
G01 X-75.3572 Y10.0222 
G01 X-75.4742 Y10.1392 
G01 X-75.5748 Y10.2704 
G01 X-75.6575 Y10.4136 
G01 X-75.6752 Y10.4564 
G01 X-75.6382 Y10.4564 
G01 X-75.5735 Y10.3294 
G01 X-75.4600 Y10.1731 
G01 X-75.3233 Y10.0364 
G01 X-75.1670 Y9.9229  
G01 X-74.9948 Y9.8351  
G01 X-74.8111 Y9.7754  
G01 X-74.6202 Y9.7452  
G01 X-73.9224 Y9.7452  
G00 Z10.0000 
G00 X-73.9224 Y12.2004 
G01 Z-0.0250 F100   
G01 X-74.6202 Y12.2004 F150   
G01 X-74.8111 Y12.1702 
G01 X-74.9948 Y12.1105 
G01 X-75.1670 Y12.0227 
G01 X-75.3233 Y11.9092 
G01 X-75.4600 Y11.7725 
G01 X-75.5735 Y11.6162 
G01 X-75.6382 Y11.4892 
G01 X-75.6752 Y11.4892 
G01 X-75.6575 Y11.5320 
G01 X-75.5748 Y11.6752 
G01 X-75.4742 Y11.8064 
G01 X-75.3572 Y11.9234 
G01 X-75.2260 Y12.0240 
G01 X-75.0828 Y12.1067 
G01 X-74.9300 Y12.1700 
G01 X-74.7703 Y12.2128 
G01 X-74.6063 Y12.2344 
G01 X-73.9224 Y12.2344 
G01 X-73.9224 Y12.2004 
G00 Z10.0000 
G00 X-73.9224 Y19.7188 
G01 Z-0.0250 F100   
G01 X-74.6063 Y19.7188 F150   
G01 X-74.7703 Y19.7404 
G01 X-74.9300 Y19.7832 
G01 X-75.0828 Y19.8465 
G01 X-75.2260 Y19.9292 
G01 X-75.3572 Y20.0298 
G01 X-75.4742 Y20.1468 
G01 X-75.5748 Y20.2780 
G01 X-75.6575 Y20.4212 
G01 X-75.6752 Y20.4640 
G01 X-75.6382 Y20.4640 
G01 X-75.5735 Y20.3370 
G01 X-75.4600 Y20.1807 
G01 X-75.3233 Y20.0440 
G01 X-75.1670 Y19.9305 
G01 X-74.9948 Y19.8427 
G01 X-74.8111 Y19.7830 
G01 X-74.6202 Y19.7528 
G01 X-73.9224 Y19.7528 
G01 X-73.9224 Y19.7188 
G00 Z10.0000 
G00 X-73.9224 Y22.2080 
G01 Z-0.0250 F100   
G01 X-74.6202 Y22.2080 F150   
G01 X-74.8111 Y22.1778 
G01 X-74.9948 Y22.1181 
G01 X-75.1670 Y22.0303 
G01 X-75.3233 Y21.9168 
G01 X-75.4600 Y21.7801 
G01 X-75.5735 Y21.6238 
G01 X-75.6382 Y21.4968 
G01 X-75.6752 Y21.4968 
G01 X-75.6575 Y21.5396 
G01 X-75.5748 Y21.6828 
G01 X-75.4742 Y21.8140 
G01 X-75.3572 Y21.9310 
G01 X-75.2260 Y22.0316 
G01 X-75.0828 Y22.1143 
G01 X-74.9300 Y22.1776 
G01 X-74.7703 Y22.2204 
G01 X-74.6063 Y22.2420 
G01 X-73.9224 Y22.2420 
G01 X-73.9224 Y22.2080 
G00 Z10.0000 
G00 X-72.8896 Y22.2080 
G01 Z-0.0250 F100   
G01 X-72.8896 Y22.2420 F150   
G01 X-72.2057 Y22.2420 
G01 X-72.0417 Y22.2204 
G01 X-71.8820 Y22.1776 
G01 X-71.7292 Y22.1143 
G01 X-71.5860 Y22.0316 
G01 X-71.4548 Y21.9310 
G01 X-71.3378 Y21.8140 
G01 X-71.2372 Y21.6828 
G01 X-71.1545 Y21.5396 
G01 X-71.1368 Y21.4968 
G01 X-71.1738 Y21.4968 
G01 X-71.2385 Y21.6238 
G01 X-71.3520 Y21.7801 
G01 X-71.4887 Y21.9168 
G01 X-71.6450 Y22.0303 
G01 X-71.8172 Y22.1181 
G01 X-72.0009 Y22.1778 
G01 X-72.1918 Y22.2080 
G01 X-72.8896 Y22.2080 
G00 Z10.0000 
G00 X-67.5724 Y24.4914 
G01 Z-0.0250 F100   
G01 X-67.9645 Y24.8836 F150   
G01 X-67.9165 Y24.8836 
G01 X-67.5724 Y24.5395 
G01 X-67.5724 Y24.4914 
G00 Z10.0000 
G00 X-66.5396 Y24.4915 
G01 Z-0.0250 F100   
G01 X-66.5396 Y24.5395 F150   
G01 X-66.1955 Y24.8836 
G01 X-66.1475 Y24.8836 
G01 X-66.5396 Y24.4915 
G00 Z10.0000 
G00 X-66.5396 Y26.2605 
G01 Z-0.0250 F100   
G01 X-66.5396 Y26.3085 F150   
G01 X-66.1474 Y25.9164 
G01 X-66.1955 Y25.9164 
G01 X-66.5396 Y26.2605 
G00 Z10.0000 
G00 X-67.5724 Y26.2605 
G01 Z-0.0250 F100   
G01 X-67.9165 Y25.9164 F150   
G01 X-67.9645 Y25.9164 
G01 X-67.5724 Y26.3085 
G01 X-67.5724 Y26.2605 
G00 Z10.0000 
G00 X-0.8271 Y0.9338  
G01 Z-0.0250 F100   
G01 X-0.7432 Y1.0594  F150   
G01 X-0.6855 Y1.1988  
G01 X-0.6560 Y1.3469  
G01 X-0.6560 Y37.6081 
G01 X-0.6560 Y37.7591 
G01 X-0.6855 Y37.9072 
G01 X-0.7432 Y38.0466 
G01 X-0.8271 Y38.1722 
G01 X-0.9338 Y38.2789 
G01 X-1.0594 Y38.3628 
G01 X-1.1988 Y38.4205 
G01 X-1.3469 Y38.4500 
G01 X-77.8251 Y38.4500 
G01 X-77.9732 Y38.4205 
G01 X-78.1126 Y38.3628 
G01 X-78.2382 Y38.2789 
G01 X-78.3449 Y38.1722 
G01 X-78.4288 Y38.0466 
G01 X-78.4865 Y37.9072 
G01 X-78.5160 Y37.7591 
G01 X-78.5160 Y1.3469  
G01 X-78.4865 Y1.1988  
G01 X-78.4288 Y1.0594  
G01 X-78.3449 Y0.9338  
G01 X-78.2382 Y0.8271  
G01 X-78.1126 Y0.7432  
G01 X-77.9732 Y0.6855  
G01 X-77.8251 Y0.6560  
G01 X-1.3469 Y0.6560  
G01 X-1.1988 Y0.6855  
G01 X-1.0594 Y0.7432  
G01 X-0.9338 Y0.8271  
G01 X-0.8271 Y0.9338  
G00 Z10.0000 
G00 X-3.8735 Y14.7364 
G01 Z-0.0250 F100   
G01 X-5.9146 Y14.7364 F150   
G01 X-5.7938 Y14.8241 
G01 X-5.6293 Y14.9886 
G01 X-5.4926 Y15.1768 
G01 X-5.3871 Y15.3840 
G01 X-5.3152 Y15.6052 
G01 X-5.2788 Y15.8349 
G01 X-5.2788 Y16.0675 
G01 X-5.3152 Y16.2972 
G01 X-5.3871 Y16.5184 
G01 X-5.4926 Y16.7256 
G01 X-5.6293 Y16.9138 
G01 X-5.7938 Y17.0782 
G01 X-5.9820 Y17.2150 
G01 X-6.1892 Y17.3205 
G01 X-6.4104 Y17.3924 
G01 X-6.6401 Y17.4288 
G01 X-9.1079 Y17.4288 
G01 X-9.3376 Y17.3924 
G01 X-9.5588 Y17.3205 
G01 X-9.7660 Y17.2150 
G01 X-9.9542 Y17.0782 
G01 X-10.1186 Y16.9138 
G01 X-10.2243 Y16.7684 
G01 X-12.1170 Y16.7684 
G01 X-12.3146 Y16.9660 
G01 X-12.3146 Y18.3395 
G01 X-12.3146 Y18.4905 
G01 X-12.3441 Y18.6385 
G01 X-12.4018 Y18.7780 
G01 X-12.4857 Y18.9035 
G01 X-13.3135 Y19.7314 
G01 X-12.5742 Y19.7314 
G01 X-12.1170 Y20.1886 
G01 X-10.2427 Y20.1886 
G01 X-10.1186 Y20.0178 
G01 X-9.9542 Y19.8533 
G01 X-9.7660 Y19.7166 
G01 X-9.5588 Y19.6111 
G01 X-9.3376 Y19.5392 
G01 X-9.1079 Y19.5028 
G01 X-6.6401 Y19.5028 
G01 X-6.4104 Y19.5392 
G01 X-6.1892 Y19.6111 
G01 X-5.9820 Y19.7166 
G01 X-5.7938 Y19.8533 
G01 X-5.6293 Y20.0178 
G01 X-5.4926 Y20.2060 
G01 X-5.3871 Y20.4132 
G01 X-5.3152 Y20.6344 
G01 X-5.2788 Y20.8641 
G01 X-5.2788 Y21.0967 
G01 X-5.3152 Y21.3264 
G01 X-5.3871 Y21.5476 
G01 X-5.4926 Y21.7548 
G01 X-5.6293 Y21.9430 
G01 X-5.7938 Y22.1074 
G01 X-5.9820 Y22.2442 
G01 X-6.1892 Y22.3497 
G01 X-6.4104 Y22.4216 
G01 X-6.6401 Y22.4580 
G01 X-9.1079 Y22.4580 
G01 X-9.3376 Y22.4216 
G01 X-9.5588 Y22.3497 
G01 X-9.7660 Y22.2442 
G01 X-9.9542 Y22.1074 
G01 X-10.1186 Y21.9430 
G01 X-10.2554 Y21.7548 
G01 X-10.2724 Y21.7214 
G01 X-12.1170 Y21.7214 
G01 X-12.5742 Y22.1786 
G01 X-13.2207 Y22.1786 
G01 X-16.4227 Y25.3805 
G01 X-16.4378 Y25.3956 
G01 X-6.9215 Y25.3956 
G01 X-3.5604 Y22.0345 
G01 X-3.5604 Y15.0495 
G01 X-3.8735 Y14.7364 
G00 Z10.0000 
G00 X-9.8334 Y14.7364 
G01 Z-0.0250 F100   
G01 X-16.2516 Y14.7364 F150   
G01 X-16.2516 Y18.6175 
G01 X-16.2811 Y18.7656 
G01 X-16.3388 Y18.9050 
G01 X-16.4227 Y19.0306 
G01 X-16.5294 Y19.1373 
G01 X-18.9424 Y21.5503 
G01 X-19.0680 Y21.6342 
G01 X-19.2074 Y21.6919 
G01 X-19.3555 Y21.7214 
G01 X-22.2770 Y21.7214 
G01 X-22.7342 Y22.1786 
G01 X-23.7478 Y22.1786 
G01 X-24.2783 Y21.6481 
G01 X-24.3272 Y21.6970 
G01 X-24.4528 Y21.7809 
G01 X-24.5804 Y21.8337 
G01 X-23.5585 Y22.8556 
G01 X-18.6055 Y22.8556 
G01 X-13.8474 Y18.0975 
G01 X-13.8474 Y16.9660 
G01 X-14.3046 Y16.5088 
G01 X-14.3046 Y15.4952 
G01 X-13.5878 Y14.7784 
G01 X-12.5742 Y14.7784 
G01 X-12.1170 Y15.2356 
G01 X-10.2853 Y15.2356 
G01 X-10.2554 Y15.1768 
G01 X-10.1186 Y14.9886 
G01 X-9.9542 Y14.8241 
G01 X-9.8334 Y14.7364 
G00 Z10.0000 
G00 X-14.3046 Y20.7224 
G01 Z-0.0250 F100   
G01 X-17.6927 Y24.1105 F150   
G01 X-17.7078 Y24.1256 
G01 X-17.3355 Y24.1256 
G01 X-14.3046 Y21.0947 
G01 X-14.3046 Y20.7224 
G00 Z10.0000 
G00 X-26.9284 Y20.4597 
G01 Z-0.0250 F100   
G01 X-26.9284 Y19.1643 F150   
G01 X-26.9516 Y19.2099 
G01 X-27.0695 Y19.3722 
G01 X-27.2114 Y19.5141 
G01 X-27.3737 Y19.6320 
G01 X-27.5524 Y19.7230 
G01 X-27.7432 Y19.7850 
G01 X-27.9135 Y19.8120 
G01 X-27.7432 Y19.8390 
G01 X-27.5524 Y19.9010 
G01 X-27.3737 Y19.9920 
G01 X-27.2114 Y20.1099 
G01 X-27.0695 Y20.2518 
G01 X-26.9516 Y20.4141 
G01 X-26.9284 Y20.4597 
G00 Z10.0000 
G00 X-26.8791 Y21.6075 
G01 Z-0.0250 F100   
G01 X-26.9516 Y21.7499 F150   
G01 X-27.0579 Y21.8962 
G01 X-24.8285 Y24.1256 
G01 X-24.4562 Y24.1256 
G01 X-26.6505 Y21.9313 
G01 X-26.7573 Y21.8245 
G01 X-26.8412 Y21.6990 
G01 X-26.8791 Y21.6075 
G00 Z10.0000 
G00 X-26.9284 Y17.9197 
G01 Z-0.0250 F100   
G01 X-26.9284 Y17.8435 F150   
G01 X-27.5799 Y17.1920 
G01 X-27.7432 Y17.2450 
G01 X-27.9135 Y17.2720 
G01 X-27.7432 Y17.2990 
G01 X-27.5524 Y17.3610 
G01 X-27.3737 Y17.4520 
G01 X-27.2114 Y17.5699 
G01 X-27.0695 Y17.7118 
G01 X-26.9516 Y17.8741 
G01 X-26.9284 Y17.9197 
G00 Z10.0000 
G00 X-30.6462 Y17.0136 
G01 Z-0.0250 F100   
G01 X-30.6663 Y16.9990 F150   
G01 X-30.6723 Y17.0136 
G01 X-30.6462 Y17.0136 
G00 Z10.0000 
G00 X-30.1329 Y19.7907 
G01 Z-0.0250 F100   
G01 X-30.1329 Y19.8333 F150   
G01 X-29.9985 Y19.8120 
G01 X-30.1329 Y19.7907 
G00 Z10.0000 
G00 X-33.1538 Y17.9681 
G01 Z-0.0250 F100   
G01 X-35.6235 Y15.4984 F150   
G01 X-35.7556 Y15.4984 
G01 X-35.6427 Y15.6113 
G01 X-35.5295 Y15.7671 
G01 X-35.4420 Y15.9387 
G01 X-35.3825 Y16.1219 
G01 X-35.3524 Y16.3121 
G01 X-35.3524 Y16.5056 
G01 X-35.2305 Y16.5056 
G01 X-35.0824 Y16.5351 
G01 X-34.9430 Y16.5928 
G01 X-34.8174 Y16.6767 
G01 X-33.4407 Y18.0534 
G01 X-33.4066 Y18.1045 
G01 X-33.3287 Y18.0525 
G01 X-33.2814 Y18.0209 
G01 X-33.2070 Y17.9901 
G01 X-33.1538 Y17.9681 
G00 Z10.0000 
G00 X-37.7996 Y18.0384 
G01 Z-0.0250 F100   
G01 X-37.8924 Y18.0384 F150   
G01 X-37.8924 Y18.2319 
G01 X-37.9074 Y18.3263 
G01 X-37.7846 Y18.3263 
G01 X-37.7996 Y18.2319 
G01 X-37.7996 Y18.0384 
G00 Z10.0000 
G00 X-37.7996 Y16.5056 
G01 Z-0.0250 F100   
G01 X-37.7996 Y16.3121 F150   
G01 X-37.7695 Y16.1219 
G01 X-37.7100 Y15.9387 
G01 X-37.6225 Y15.7671 
G01 X-37.5093 Y15.6113 
G01 X-37.3964 Y15.4984 
G01 X-38.2956 Y15.4984 
G01 X-38.1827 Y15.6113 
G01 X-38.0695 Y15.7671 
G01 X-37.9820 Y15.9387 
G01 X-37.9225 Y16.1219 
G01 X-37.8924 Y16.3121 
G01 X-37.8924 Y16.5056 
G01 X-37.7996 Y16.5056 
G00 Z10.0000 
G00 X-40.3396 Y16.3121 
G01 Z-0.0250 F100   
G01 X-40.3095 Y16.1219 F150   
G01 X-40.2500 Y15.9387 
G01 X-40.1625 Y15.7671 
G01 X-40.0493 Y15.6113 
G01 X-39.9364 Y15.4984 
G01 X-40.0685 Y15.4984 
G01 X-40.5188 Y15.9487 
G01 X-40.4625 Y16.1219 
G01 X-40.4324 Y16.3121 
G01 X-40.4324 Y18.2319 
G01 X-40.4474 Y18.3263 
G01 X-40.3246 Y18.3263 
G01 X-40.3396 Y18.2319 
G01 X-40.3396 Y16.3121 
G00 Z10.0000 
G00 X-42.8796 Y16.3121 
G01 Z-0.0250 F100   
G01 X-42.8646 Y16.2177 F150   
G01 X-42.9874 Y16.2177 
G01 X-42.9724 Y16.3121 
G01 X-42.9724 Y18.2319 
G01 X-43.0025 Y18.4221 
G01 X-43.0588 Y18.5953 
G01 X-42.1791 Y19.4750 
G01 X-42.1263 Y19.3474 
G01 X-42.0995 Y19.3074 
G01 X-42.0834 Y19.2833 
G01 X-42.1257 Y19.2696 
G01 X-42.2973 Y19.1821 
G01 X-42.4531 Y19.0689 
G01 X-42.5893 Y18.9327 
G01 X-42.7025 Y18.7769 
G01 X-42.7900 Y18.6053 
G01 X-42.8495 Y18.4221 
G01 X-42.8796 Y18.2319 
G01 X-42.8796 Y16.3121 
G00 Z10.0000 
G00 X-45.4196 Y16.3121 
G01 Z-0.0250 F100   
G01 X-45.4046 Y16.2177 F150   
G01 X-45.5274 Y16.2177 
G01 X-45.5124 Y16.3121 
G01 X-45.5124 Y18.2319 
G01 X-45.5425 Y18.4221 
G01 X-45.6020 Y18.6053 
G01 X-45.6895 Y18.7769 
G01 X-45.8027 Y18.9327 
G01 X-45.9389 Y19.0689 
G01 X-45.9696 Y19.0912 
G01 X-45.9696 Y20.1180 
G01 X-45.7720 Y20.3156 
G01 X-45.1600 Y20.3156 
G01 X-44.7028 Y19.8584 
G01 X-43.9634 Y19.8584 
G01 X-44.4977 Y19.3241 
G01 X-44.6657 Y19.2696 
G01 X-44.8373 Y19.1821 
G01 X-44.9931 Y19.0689 
G01 X-45.1293 Y18.9327 
G01 X-45.2425 Y18.7769 
G01 X-45.3300 Y18.6053 
G01 X-45.3895 Y18.4221 
G01 X-45.4196 Y18.2319 
G01 X-45.4196 Y16.3121 
G00 Z10.0000 
G00 X-47.9596 Y16.3121 
G01 Z-0.0250 F100   
G01 X-47.9446 Y16.2177 F150   
G01 X-48.0674 Y16.2177 
G01 X-48.0524 Y16.3121 
G01 X-48.0524 Y18.2319 
G01 X-48.0674 Y18.3263 
G01 X-47.9446 Y18.3263 
G01 X-47.9596 Y18.2319 
G01 X-47.9596 Y16.3121 
G00 Z10.0000 
G00 X-50.4996 Y16.3121 
G01 Z-0.0250 F100   
G01 X-50.4695 Y16.1219 F150   
G01 X-50.4132 Y15.9487 
G01 X-51.1175 Y15.2444 
G01 X-51.4388 Y15.2444 
G01 X-51.3463 Y15.2744 
G01 X-51.1747 Y15.3619 
G01 X-51.0189 Y15.4751 
G01 X-50.8827 Y15.6113 
G01 X-50.7695 Y15.7671 
G01 X-50.6820 Y15.9387 
G01 X-50.6225 Y16.1219 
G01 X-50.5924 Y16.3121 
G01 X-50.5924 Y18.2319 
G01 X-50.6074 Y18.3263 
G01 X-50.4846 Y18.3263 
G01 X-50.4996 Y18.2319 
G01 X-50.4996 Y16.3121 
G00 Z10.0000 
G00 X-53.0396 Y16.3121 
G01 Z-0.0250 F100   
G01 X-53.0095 Y16.1219 F150   
G01 X-52.9500 Y15.9387 
G01 X-52.8625 Y15.7671 
G01 X-52.7493 Y15.6113 
G01 X-52.6131 Y15.4751 
G01 X-52.4573 Y15.3619 
G01 X-52.2857 Y15.2744 
G01 X-52.1932 Y15.2444 
G01 X-52.5145 Y15.2444 
G01 X-54.7767 Y17.5065 
G01 X-54.8834 Y17.6133 
G01 X-55.0090 Y17.6972 
G01 X-55.1484 Y17.7549 
G01 X-55.2965 Y17.7844 
G01 X-59.3163 Y17.7844 
G01 X-59.2124 Y17.8051 
G01 X-59.0730 Y17.8628 
G01 X-58.9474 Y17.9467 
G01 X-57.0357 Y19.8584 
G01 X-56.3892 Y19.8584 
G01 X-55.9320 Y20.3156 
G01 X-53.4035 Y20.3156 
G01 X-52.5824 Y19.4945 
G01 X-52.5824 Y19.0912 
G01 X-52.6131 Y19.0689 
G01 X-52.7493 Y18.9327 
G01 X-52.8625 Y18.7769 
G01 X-52.9500 Y18.6053 
G01 X-53.0095 Y18.4221 
G01 X-53.0396 Y18.2319 
G01 X-53.0396 Y16.3121 
G00 Z10.0000 
G00 X-53.0555 Y13.7411 
G01 Z-0.0250 F100   
G01 X-52.9075 Y13.7116 F150   
G01 X-50.7763 Y13.7116 
G01 X-50.7763 Y13.6121 
G01 X-50.7516 Y13.4879 
G01 X-50.7473 Y13.4664 
G01 X-57.2020 Y13.4664 
G01 X-57.6592 Y13.9236 
G01 X-58.3057 Y13.9236 
G01 X-58.9179 Y14.5357 
G01 X-58.7204 Y14.7332 
G01 X-58.7204 Y15.7468 
G01 X-59.2252 Y16.2516 
G01 X-55.6895 Y16.2516 
G01 X-53.3205 Y13.8827 
G01 X-53.1950 Y13.7988 
G01 X-53.0555 Y13.7411 
G00 Z10.0000 
G00 X-52.2922 Y11.9336 
G01 Z-0.0250 F100   
G01 X-50.8635 Y11.9336 F150   
G01 X-50.2233 Y11.2934 
G01 X-50.3225 Y11.1569 
G01 X-50.4100 Y10.9853 
G01 X-50.4695 Y10.8021 
G01 X-50.4996 Y10.6119 
G01 X-50.4996 Y8.6921  
G01 X-50.4695 Y8.5019  
G01 X-50.4100 Y8.3187  
G01 X-50.3613 Y8.2231  
G01 X-50.4139 Y8.2127  
G01 X-50.4887 Y8.1817  
G01 X-50.5416 Y8.1598  
G01 X-50.5416 Y9.2195  
G01 X-50.5711 Y9.3675  
G01 X-50.5924 Y9.4191  
G01 X-50.5924 Y10.6119 
G01 X-50.6225 Y10.8021 
G01 X-50.6820 Y10.9853 
G01 X-50.7695 Y11.1569 
G01 X-50.8827 Y11.3127 
G01 X-51.0189 Y11.4489 
G01 X-51.1747 Y11.5621 
G01 X-51.3463 Y11.6496 
G01 X-51.5295 Y11.7091 
G01 X-51.7197 Y11.7392 
G01 X-51.9123 Y11.7392 
G01 X-52.1025 Y11.7091 
G01 X-52.2129 Y11.6732 
G01 X-52.2219 Y11.7185 
G01 X-52.2393 Y11.8059 
G01 X-52.2922 Y11.9336 
G00 Z10.0000 
G00 X-48.0674 Y10.7063 
G01 Z-0.0250 F100   
G01 X-47.9446 Y10.7063 F150   
G01 X-47.9596 Y10.6119 
G01 X-47.9596 Y8.6921  
G01 X-47.9446 Y8.5977  
G01 X-48.0674 Y8.5977  
G01 X-48.0524 Y8.6921  
G01 X-48.0524 Y10.6119 
G01 X-48.0674 Y10.7063 
G00 Z10.0000 
G00 X-45.5204 Y10.6624 
G01 Z-0.0250 F100   
G01 X-45.5091 Y10.6620 F150   
G01 X-45.4942 Y10.6590 
G01 X-45.4338 Y10.6590 
G01 X-45.4123 Y10.6582 
G01 X-45.4196 Y10.6119 
G01 X-45.4196 Y8.6921  
G01 X-45.3895 Y8.5019  
G01 X-45.3300 Y8.3187  
G01 X-45.3340 Y8.3059  
G01 X-45.3898 Y8.2828  
G01 X-45.4465 Y8.2619  
G01 X-45.4594 Y8.2540  
G01 X-45.4616 Y9.2195  
