; G-Code generated by Simplify3D(R) Version 4.0.0
; Oct 2, 2018 at 11:38:57 PM
; Settings Summary
;   processName,Process1
;   applyToModels,Paredes paleta 2
;   profileName,Creality (modified)
;   profileVersion,2017-03-01 08:00:00
;   baseProfile,Default (modified)
;   printMaterial,PLA
;   printQuality,Medium
;   printExtruders,
;   extruderName,Primary Extruder
;   extruderToolheadNumber,0
;   extruderDiameter,0.4
;   extruderAutoWidth,1
;   extruderWidth,0.48
;   extrusionMultiplier,1
;   extruderUseRetract,1
;   extruderRetractionDistance,5
;   extruderExtraRestartDistance,0
;   extruderRetractionZLift,0
;   extruderRetractionSpeed,3600
;   extruderUseCoasting,0
;   extruderCoastingDistance,0.2
;   extruderUseWipe,0
;   extruderWipeDistance,5
;   primaryExtruder,0
;   layerHeight,0.3
;   topSolidLayers,3
;   bottomSolidLayers,3
;   perimeterOutlines,3
;   printPerimetersInsideOut,1
;   startPointOption,2
;   startPointOriginX,0
;   startPointOriginY,0
;   sequentialIslands,0
;   spiralVaseMode,0
;   firstLayerHeightPercentage,90
;   firstLayerWidthPercentage,100
;   firstLayerUnderspeed,0.5
;   useRaft,0
;   raftExtruder,0
;   raftTopLayers,3
;   raftBaseLayers,2
;   raftOffset,3
;   raftSeparationDistance,0.14
;   raftTopInfill,100
;   aboveRaftSpeedMultiplier,0.3
;   useSkirt,1
;   skirtExtruder,0
;   skirtLayers,1
;   skirtOutlines,2
;   skirtOffset,4
;   usePrimePillar,0
;   primePillarExtruder,999
;   primePillarWidth,12
;   primePillarLocation,7
;   primePillarSpeedMultiplier,1
;   useOozeShield,0
;   oozeShieldExtruder,999
;   oozeShieldOffset,2
;   oozeShieldOutlines,1
;   oozeShieldSidewallShape,1
;   oozeShieldSidewallAngle,30
;   oozeShieldSpeedMultiplier,1
;   infillExtruder,0
;   internalInfillPattern,Triangular
;   externalInfillPattern,Rectilinear
;   infillPercentage,35
;   outlineOverlapPercentage,15
;   infillExtrusionWidthPercentage,100
;   minInfillLength,5
;   infillLayerInterval,1
;   internalInfillAngles,0,60,-60
;   overlapInternalInfillAngles,1
;   externalInfillAngles,45,-45
;   generateSupport,1
;   supportExtruder,0
;   supportInfillPercentage,30
;   supportExtraInflation,0
;   supportBaseLayers,0
;   denseSupportExtruder,0
;   denseSupportLayers,0
;   denseSupportInfillPercentage,70
;   supportLayerInterval,1
;   supportHorizontalPartOffset,0.3
;   supportUpperSeparationLayers,1
;   supportLowerSeparationLayers,1
;   supportType,0
;   supportGridSpacing,4
;   maxOverhangAngle,45
;   supportAngles,0
;   temperatureName,Extrusor,Cama
;   temperatureNumber,0,1
;   temperatureSetpointCount,2,1
;   temperatureSetpointLayers,1,2,1
;   temperatureSetpointTemperatures,205,200,60
;   temperatureStabilizeAtStartup,1,1
;   temperatureHeatedBed,0,1
;   temperatureRelayBetweenLayers,0,0
;   temperatureRelayBetweenLoops,0,0
;   fanLayers,1,3,5,6
;   fanSpeeds,0,50,70,100
;   blipFanToFullPower,0
;   adjustSpeedForCooling,1
;   minSpeedLayerTime,15
;   minCoolingSpeedSlowdown,20
;   increaseFanForCooling,0
;   minFanLayerTime,45
;   maxCoolingFanSpeed,100
;   increaseFanForBridging,0
;   bridgingFanSpeed,100
;   use5D,1
;   relativeEdistances,0
;   allowEaxisZeroing,1
;   independentExtruderAxes,0
;   includeM10123,0
;   stickySupport,1
;   applyToolheadOffsets,0
;   gcodeXoffset,0
;   gcodeYoffset,0
;   gcodeZoffset,0
;   overrideMachineDefinition,1
;   machineTypeOverride,0
;   strokeXoverride,300
;   strokeYoverride,300
;   strokeZoverride,400
;   originOffsetXoverride,0
;   originOffsetYoverride,0
;   originOffsetZoverride,0
;   homeXdirOverride,-1
;   homeYdirOverride,-1
;   homeZdirOverride,-1
;   flipXoverride,1
;   flipYoverride,-1
;   flipZoverride,1
;   toolheadOffsets,0,0|0,0|0,0|0,0|0,0|0,0
;   overrideFirmwareConfiguration,0
;   firmwareTypeOverride,RepRap (Marlin/Repetier/Sprinter)
;   GPXconfigOverride,r2
;   baudRateOverride,115200
;   overridePrinterModels,0
;   printerModelsOverride
;   startingGcode,G28 ; home all axes
;   layerChangeGcode,
;   retractionGcode,
;   toolChangeGcode,
;   endingGcode,M104 S0 ; turn off extruder,M140 S0 ; turn off bed,M84 ; disable motors
;   exportFileFormat,gcode
;   celebration,0
;   celebrationSong,Random Song
;   postProcessing,
;   defaultSpeed,3600
;   outlineUnderspeed,0.5
;   solidInfillUnderspeed,0.65
;   supportUnderspeed,0.65
;   rapidXYspeed,9000
;   rapidZspeed,1002
;   minBridgingArea,50
;   bridgingExtraInflation,0
;   bridgingExtrusionMultiplier,1
;   bridgingSpeedMultiplier,1
;   useFixedBridgingAngle,0
;   fixedBridgingAngle,0
;   applyBridgingToPerimeters,0
;   filamentDiameters,1.75|1.75|1.75|1.75|1.75|1.75
;   filamentPricesPerKg,500|46|46|46|46|46
;   filamentDensities,1.24|1.25|1.25|1.25|1.25|1.25
;   useMinPrintHeight,0
;   minPrintHeight,0
;   useMaxPrintHeight,0
;   maxPrintHeight,0
;   useDiaphragm,0
;   diaphragmLayerInterval,20
;   robustSlicing,1
;   mergeAllIntoSolid,0
;   onlyRetractWhenCrossingOutline,1
;   retractBetweenLayers,1
;   useRetractionMinTravel,0
;   retractionMinTravel,3
;   retractWhileWiping,0
;   onlyWipeOutlines,1
;   avoidCrossingOutline,0
;   maxMovementDetourFactor,3
;   toolChangeRetractionDistance,12
;   toolChangeExtraRestartDistance,-0.5
;   toolChangeRetractionSpeed,600
;   externalThinWallType,0
;   internalThinWallType,2
;   thinWallAllowedOverlapPercentage,10
;   singleExtrusionMinLength,1
;   singleExtrusionMinPrintingWidthPercentage,50
;   singleExtrusionMaxPrintingWidthPercentage,200
;   singleExtrusionEndpointExtension,0.2
;   horizontalSizeCompensation,0
G90
M82
M106 S0
M140 S60
M190 S60
M104 S205 T0
M109 S205 T0
G28 ; home all axes
G92 E0
G1 E-5.0000 F3600
G1 Z0.270 F1002
; process Process1
; layer 1, Z = 0.270
T0
; tool H0.300 W0.480
; skirt
G1 X123.170 Y97.715 F9000
G1 E0.0000 F1080
G92 E0
G1 X125.715 Y95.170 E0.2155 F1800
G1 X125.980 Y95.060 E0.2327
G1 X174.020 Y95.060 E3.1088
G1 X174.285 Y95.170 E3.1259
G1 X176.830 Y97.715 E3.3414
G1 X176.940 Y97.980 E3.3586
G1 X176.940 Y138.258 E5.7700
G1 X177.760 Y139.078 E5.8394
G1 X177.870 Y139.343 E5.8566
G1 X177.870 Y145.943 E6.2517
G1 X177.760 Y146.208 E6.2689
G1 X176.940 Y147.028 E6.3383
G1 X176.940 Y158.020 E6.9964
G1 X176.830 Y158.285 E7.0135
G1 X174.285 Y160.830 E7.2291
G1 X174.020 Y160.940 E7.2462
G1 X169.866 Y160.940 E7.4949
G1 X169.457 Y161.189 E7.5236
G1 X169.444 Y161.197 E7.5245
G1 X169.275 Y161.290 E7.5360
G1 X169.261 Y161.298 E7.5370
G1 X168.940 Y161.457 E7.5585
G1 X168.940 Y162.020 E7.5922
G1 X168.830 Y162.285 E7.6093
G1 X166.285 Y164.830 E7.8249
G1 X166.020 Y164.940 E7.8420
G1 X158.220 Y164.940 E8.3090
G1 X158.220 Y183.463 E9.4179
G1 X158.474 Y183.672 E9.4377
G1 X158.487 Y183.683 E9.4386
G1 X158.633 Y183.815 E9.4504
G1 X158.645 Y183.826 E9.4514
G1 X159.182 Y184.355 E9.4965
G1 X159.192 Y184.364 E9.4973
G1 X159.300 Y184.479 E9.5067
G1 X159.308 Y184.488 E9.5075
G1 X159.806 Y185.055 E9.5527
G1 X159.817 Y185.067 E9.5537
G1 X159.940 Y185.221 E9.5654
G1 X159.950 Y185.234 E9.5664
G1 X160.576 Y186.092 E9.6300
G1 X160.586 Y186.105 E9.6310
G1 X160.694 Y186.269 E9.6428
G1 X160.703 Y186.283 E9.6437
G1 X161.111 Y186.963 E9.6913
G1 X161.121 Y186.980 E9.6924
G1 X161.231 Y187.189 E9.7066
G1 X161.240 Y187.206 E9.7077
G1 X161.822 Y188.469 E9.7909
G1 X161.830 Y188.487 E9.7921
G1 X161.917 Y188.706 E9.8062
G1 X161.924 Y188.724 E9.8074
G1 X162.177 Y189.477 E9.8549
G1 X162.181 Y189.492 E9.8559
G1 X162.235 Y189.681 E9.8677
G1 X162.240 Y189.697 E9.8686
G1 X162.486 Y190.731 E9.9323
G1 X162.489 Y190.746 E9.9332
G1 X162.526 Y190.940 E9.9450
G1 X162.529 Y190.956 E9.9460
G1 X162.639 Y191.722 E9.9923
G1 X162.641 Y191.738 E9.9933
G1 X162.661 Y191.934 E10.0051
G1 X162.662 Y191.950 E10.0060
G1 X162.719 Y193.011 E10.0697
G1 X162.719 Y193.027 E10.0706
G1 X162.721 Y193.224 E10.0824
G1 X162.720 Y193.240 E10.0834
G1 X162.693 Y193.994 E10.1285
G1 X162.692 Y194.007 E10.1293
G1 X162.680 Y194.164 E10.1387
G1 X162.679 Y194.177 E10.1395
G1 X162.597 Y194.927 E10.1847
G1 X162.595 Y194.943 E10.1857
G1 X162.565 Y195.137 E10.1974
G1 X162.562 Y195.153 E10.1984
G1 X162.348 Y196.214 E10.2632
G1 X162.343 Y196.233 E10.2644
G1 X162.284 Y196.462 E10.2785
G1 X162.279 Y196.480 E10.2797
G1 X161.951 Y197.512 E10.3444
G1 X161.946 Y197.527 E10.3454
G1 X161.878 Y197.712 E10.3572
G1 X161.872 Y197.727 E10.3582
G1 X161.579 Y198.422 E10.4033
G1 X161.574 Y198.434 E10.4041
G1 X161.508 Y198.577 E10.4135
G1 X161.502 Y198.588 E10.4143
G1 X161.170 Y199.243 E10.4583
G1 X161.164 Y199.255 E10.4591
G1 X161.087 Y199.393 E10.4685
G1 X161.081 Y199.404 E10.4693
G1 X160.940 Y199.637 E10.4856
G1 X160.940 Y202.020 E10.6282
G1 X160.830 Y202.285 E10.6454
G1 X158.285 Y204.830 E10.8609
G1 X158.020 Y204.940 E10.8781
G1 X154.771 Y204.940 E11.0726
G1 X153.972 Y205.242 E11.1237
G1 X153.954 Y205.248 E11.1249
G1 X153.729 Y205.319 E11.1390
G1 X153.710 Y205.325 E11.1402
G1 X152.643 Y205.600 E11.2061
G1 X152.624 Y205.604 E11.2073
G1 X152.393 Y205.651 E11.2214
G1 X152.373 Y205.654 E11.2226
G1 X151.283 Y205.813 E11.2886
G1 X151.264 Y205.815 E11.2897
G1 X151.029 Y205.836 E11.3039
G1 X151.009 Y205.838 E11.3050
G1 X149.928 Y205.877 E11.3698
G1 X149.911 Y205.877 E11.3708
G1 X149.715 Y205.875 E11.3826
G1 X149.698 Y205.875 E11.3835
G1 X148.945 Y205.834 E11.4287
G1 X148.932 Y205.833 E11.4295
G1 X148.775 Y205.819 E11.4389
G1 X148.763 Y205.817 E11.4397
G1 X148.014 Y205.722 E11.4849
G1 X147.998 Y205.720 E11.4858
G1 X147.804 Y205.686 E11.4976
G1 X147.788 Y205.683 E11.4986
G1 X146.712 Y205.446 E11.5645
G1 X146.690 Y205.441 E11.5659
G1 X146.425 Y205.365 E11.5824
G1 X146.404 Y205.358 E11.5838
G1 X145.058 Y204.877 E11.6693
G1 X145.036 Y204.869 E11.6707
G1 X144.783 Y204.760 E11.6872
G1 X144.763 Y204.750 E11.6885
G1 X143.762 Y204.243 E11.7557
G1 X143.745 Y204.234 E11.7569
G1 X143.541 Y204.116 E11.7710
G1 X143.524 Y204.106 E11.7722
G1 X142.618 Y203.515 E11.8369
G1 X142.604 Y203.506 E11.8379
G1 X142.444 Y203.391 E11.8497
G1 X142.431 Y203.381 E11.8507
G1 X141.823 Y202.902 E11.8970
G1 X141.811 Y202.892 E11.8980
G1 X141.662 Y202.763 E11.9098
G1 X141.650 Y202.752 E11.9107
G1 X140.878 Y202.022 E11.9743
G1 X140.867 Y202.011 E11.9753
G1 X140.730 Y201.869 E11.9871
G1 X140.719 Y201.857 E11.9881
G1 X140.207 Y201.276 E12.0344
G1 X140.197 Y201.264 E12.0354
G1 X140.074 Y201.111 E12.0471
G1 X140.064 Y201.098 E12.0481
G1 X139.436 Y200.241 E12.1117
G1 X139.426 Y200.228 E12.1127
G1 X139.317 Y200.064 E12.1245
G1 X139.309 Y200.050 E12.1255
G1 X138.919 Y199.404 E12.1706
G1 X138.913 Y199.393 E12.1714
G1 X138.836 Y199.255 E12.1808
G1 X138.830 Y199.244 E12.1816
G1 X138.498 Y198.588 E12.2256
G1 X138.492 Y198.577 E12.2264
G1 X138.426 Y198.434 E12.2358
G1 X138.421 Y198.422 E12.2366
G1 X138.136 Y197.745 E12.2805
G1 X138.131 Y197.733 E12.2813
G1 X138.075 Y197.586 E12.2907
G1 X138.071 Y197.573 E12.2915
G1 X137.836 Y196.877 E12.3355
G1 X137.832 Y196.865 E12.3363
G1 X137.787 Y196.714 E12.3457
G1 X137.784 Y196.702 E12.3465
G1 X137.599 Y195.990 E12.3905
G1 X137.596 Y195.978 E12.3912
G1 X137.562 Y195.824 E12.4007
G1 X137.560 Y195.811 E12.4015
G1 X137.427 Y195.089 E12.4454
G1 X137.425 Y195.076 E12.4462
G1 X137.402 Y194.920 E12.4556
G1 X137.401 Y194.907 E12.4564
G1 X137.321 Y194.177 E12.5004
G1 X137.320 Y194.164 E12.5012
G1 X137.308 Y194.007 E12.5106
G1 X137.307 Y193.994 E12.5114
G1 X137.280 Y193.240 E12.5565
G1 X137.279 Y193.224 E12.5575
G1 X137.281 Y193.027 E12.5693
G1 X137.281 Y193.011 E12.5703
G1 X137.338 Y191.950 E12.6339
G1 X137.339 Y191.934 E12.6348
G1 X137.359 Y191.738 E12.6466
G1 X137.361 Y191.722 E12.6476
G1 X137.471 Y190.956 E12.6939
G1 X137.474 Y190.940 E12.6949
G1 X137.511 Y190.746 E12.7067
G1 X137.514 Y190.731 E12.7077
G1 X137.760 Y189.697 E12.7712
G1 X137.764 Y189.682 E12.7722
G1 X137.818 Y189.493 E12.7839
G1 X137.823 Y189.478 E12.7849
G1 X138.059 Y188.775 E12.8293
G1 X138.063 Y188.763 E12.8301
G1 X138.118 Y188.617 E12.8394
G1 X138.123 Y188.605 E12.8402
G1 X138.418 Y187.898 E12.8861
G1 X138.424 Y187.883 E12.8870
G1 X138.509 Y187.702 E12.8990
G1 X138.517 Y187.688 E12.8999
G1 X139.023 Y186.730 E12.9648
G1 X139.033 Y186.713 E12.9660
G1 X139.154 Y186.511 E12.9801
G1 X139.165 Y186.494 E12.9813
G1 X139.782 Y185.582 E13.0472
G1 X139.793 Y185.566 E13.0484
G1 X139.936 Y185.378 E13.0625
G1 X139.948 Y185.362 E13.0637
G1 X140.648 Y184.537 E13.1285
G1 X140.658 Y184.525 E13.1295
G1 X140.792 Y184.380 E13.1412
G1 X140.804 Y184.369 E13.1422
G1 X141.355 Y183.826 E13.1885
G1 X141.367 Y183.815 E13.1895
G1 X141.513 Y183.683 E13.2013
G1 X141.526 Y183.672 E13.2023
G1 X141.780 Y183.463 E13.2220
G1 X141.780 Y164.940 E14.3310
G1 X133.980 Y164.940 E14.7979
G1 X133.715 Y164.830 E14.8151
G1 X131.170 Y162.285 E15.0306
G1 X131.060 Y162.020 E15.0478
G1 X131.060 Y161.446 E15.0821
G1 X130.419 Y161.117 E15.1253
G1 X130.400 Y161.106 E15.1266
G1 X130.168 Y160.968 E15.1427
G1 X130.150 Y160.956 E15.1440
G1 X129.227 Y160.327 E15.2109
G1 X129.210 Y160.314 E15.2122
G1 X128.997 Y160.149 E15.2283
G1 X128.980 Y160.135 E15.2297
G1 X127.931 Y159.210 E15.3134
G1 X127.914 Y159.195 E15.3147
G1 X127.724 Y159.005 E15.3308
G1 X127.708 Y158.989 E15.3322
G1 X126.981 Y158.168 E15.3978
G1 X126.969 Y158.153 E15.3990
G1 X126.825 Y157.973 E15.4128
G1 X126.813 Y157.957 E15.4139
G1 X126.188 Y157.080 E15.4784
G1 X126.177 Y157.064 E15.4796
G1 X126.099 Y156.940 E15.4884
G1 X125.980 Y156.940 E15.4955
G1 X125.715 Y156.830 E15.5126
G1 X123.170 Y154.285 E15.7282
G1 X123.060 Y154.020 E15.7453
G1 X123.060 Y147.028 E16.1639
G1 X122.240 Y146.208 E16.2334
G1 X122.130 Y145.943 E16.2505
G1 X122.130 Y139.343 E16.6457
G1 X122.240 Y139.078 E16.6628
G1 X123.060 Y138.258 E16.7323
G1 X123.060 Y97.980 E19.1436
G1 X123.170 Y97.715 E19.1608
G1 X123.577 Y97.987 F9000
G92 E0
G1 X125.987 Y95.577 E0.2041 F1800
G1 X126.075 Y95.540 E0.2098
G1 X173.925 Y95.540 E3.0745
G1 X174.013 Y95.577 E3.0802
G1 X176.423 Y97.987 E3.2843
G1 X176.460 Y98.075 E3.2900
G1 X176.460 Y138.457 E5.7076
G1 X177.353 Y139.350 E5.7832
G1 X177.390 Y139.438 E5.7889
G1 X177.390 Y145.847 E6.1726
G1 X177.353 Y145.936 E6.1783
G1 X176.460 Y146.829 E6.2540
G1 X176.460 Y157.925 E6.9182
G1 X176.423 Y158.013 E6.9240
G1 X174.013 Y160.423 E7.1281
G1 X173.925 Y160.460 E7.1338
G1 X169.731 Y160.460 E7.3849
G1 X169.212 Y160.777 E7.4213
G1 X169.207 Y160.780 E7.4216
G1 X169.048 Y160.868 E7.4325
G1 X169.043 Y160.870 E7.4328
G1 X168.460 Y161.159 E7.4718
G1 X168.460 Y161.925 E7.5176
G1 X168.423 Y162.013 E7.5233
G1 X166.013 Y164.423 E7.7274
G1 X165.925 Y164.460 E7.7331
G1 X158.075 Y164.460 E8.2030
G1 X157.987 Y164.423 E8.2088
G1 X157.740 Y164.176 E8.2297
G1 X157.740 Y183.690 E9.3980
G1 X158.166 Y184.040 E9.4309
G1 X158.170 Y184.043 E9.4313
G1 X158.308 Y184.168 E9.4424
G1 X158.312 Y184.172 E9.4427
G1 X158.843 Y184.694 E9.4873
G1 X158.846 Y184.697 E9.4876
G1 X158.948 Y184.805 E9.4965
G1 X158.951 Y184.808 E9.4967
G1 X159.442 Y185.368 E9.5413
G1 X159.446 Y185.372 E9.5416
G1 X159.562 Y185.517 E9.5528
G1 X159.565 Y185.521 E9.5531
G1 X160.185 Y186.370 E9.6160
G1 X160.189 Y186.375 E9.6164
G1 X160.291 Y186.530 E9.6275
G1 X160.294 Y186.534 E9.6278
G1 X160.697 Y187.205 E9.6746
G1 X160.700 Y187.210 E9.6750
G1 X160.804 Y187.408 E9.6884
G1 X160.807 Y187.413 E9.6888
G1 X161.384 Y188.664 E9.7712
G1 X161.386 Y188.670 E9.7716
G1 X161.469 Y188.877 E9.7849
G1 X161.471 Y188.883 E9.7853
G1 X161.720 Y189.624 E9.8321
G1 X161.721 Y189.630 E9.8325
G1 X161.773 Y189.808 E9.8436
G1 X161.774 Y189.813 E9.8439
G1 X162.018 Y190.837 E9.9069
G1 X162.019 Y190.842 E9.9072
G1 X162.054 Y191.024 E9.9183
G1 X162.054 Y191.030 E9.9187
G1 X162.164 Y191.785 E9.9643
G1 X162.164 Y191.791 E9.9647
G1 X162.182 Y191.976 E9.9758
G1 X162.183 Y191.981 E9.9761
G1 X162.239 Y193.031 E10.0391
