;FLAVOR:Marlin
;TIME:805
;Filament used: 0.605021m
;Layer height: 0.2
;Generated with Cura_SteamEngine 3.4.1
M190 S60
M104 S200
M109 S200
M82 ;absolute extrusion mode
G28 ;Home
G1 Z15.0 F6000 ;Move the platform down 15mm
;Prime the extruder
G92 E0
G1 F200 E3
G92 E0
G92 E0
G1 F2400 E-5
;LAYER_COUNT:63
;LAYER:0
M107
M204 S5000
M205 X30 Y30
G0 F3600 X140.47 Y135.458 Z0.2
M204 S500
M205 X20 Y20
;TYPE:SKIRT
G1 F2400 E0
G1 F1800 X141.002 Y134.98 E0.02379
G1 X141.584 Y134.564 E0.04758
G1 X142.209 Y134.216 E0.07137
G1 X142.869 Y133.939 E0.09518
G1 X143.555 Y133.738 E0.11896
G1 X144.26 Y133.615 E0.14276
G1 X145.008 Y133.571 E0.16768
G1 X155.989 Y133.571 E0.53291
G1 X156.703 Y133.611 E0.5567
G1 X157.408 Y133.73 E0.58048
G1 X158.096 Y133.928 E0.60429
G1 X158.757 Y134.201 E0.62807
G1 X159.384 Y134.545 E0.65186
G1 X159.968 Y134.958 E0.67565
G1 X160.502 Y135.433 E0.69942
G1 X160.981 Y135.965 E0.72323
G1 X161.396 Y136.547 E0.74701
G1 X161.745 Y137.172 E0.77081
G1 X162.021 Y137.832 E0.79461
G1 X162.222 Y138.518 E0.81838
G1 X162.345 Y139.223 E0.84219
G1 X162.389 Y139.971 E0.86711
G1 X162.389 Y143.998 E1.00105
G1 X162.387 Y144.141 E1.0058
G1 X162.224 Y151.404 E1.24743
G1 X162.395 Y156.354 E1.41217
G1 X162.399 Y156.592 E1.42009
G1 X162.39 Y160.046 E1.53497
G1 X162.348 Y160.76 E1.55875
G1 X162.227 Y161.465 E1.58255
G1 X162.028 Y162.152 E1.60634
G1 X161.753 Y162.812 E1.63012
G1 X161.407 Y163.438 E1.65391
G1 X160.992 Y164.021 E1.67771
G1 X160.516 Y164.554 E1.70148
G1 X159.983 Y165.031 E1.72527
G1 X159.4 Y165.445 E1.74905
G1 X158.774 Y165.792 E1.77285
G1 X158.113 Y166.066 E1.79665
G1 X157.426 Y166.266 E1.82045
G1 X156.722 Y166.387 E1.84421
G1 X155.991 Y166.429 E1.86856
G1 X145.01 Y166.43 E2.23379
G1 X144.295 Y166.39 E2.25761
G1 X143.59 Y166.271 E2.28139
G1 X142.903 Y166.073 E2.30517
G1 X142.241 Y165.801 E2.32897
G1 X141.615 Y165.456 E2.35275
G1 X141.031 Y165.043 E2.37654
G1 X140.496 Y164.568 E2.40033
G1 X140.018 Y164.036 E2.42412
G1 X139.602 Y163.454 E2.44792
G1 X139.254 Y162.829 E2.47171
G1 X138.977 Y162.17 E2.49548
G1 X138.776 Y161.483 E2.51929
G1 X138.653 Y160.779 E2.54306
G1 X138.609 Y160.03 E2.56802
G1 X138.608 Y139.971 E3.23518
G1 X138.648 Y139.257 E3.25897
G1 X138.767 Y138.552 E3.28275
G1 X138.965 Y137.864 E3.30656
G1 X139.237 Y137.203 E3.33033
G1 X139.582 Y136.577 E3.3541
G1 X139.995 Y135.992 E3.37792
G1 X140.47 Y135.458 E3.40169
M204 S5000
M205 X30 Y30
G0 F3600 X140.864 Y135.632
M204 S500
M205 X20 Y20
G1 F1800 X141.391 Y135.183 E3.42472
G1 X141.967 Y134.799 E3.44775
G1 X142.583 Y134.483 E3.47077
G1 X143.232 Y134.24 E3.49382
G1 X143.904 Y134.073 E3.51685
G1 X144.591 Y133.985 E3.53989
G1 X145.008 Y133.971 E3.55377
G1 X155.989 Y133.971 E3.919
G1 X156.68 Y134.011 E3.94202
G1 X157.363 Y134.13 E3.96508
G1 X158.026 Y134.328 E3.98809
G1 X158.663 Y134.6 E4.01113
G1 X159.264 Y134.944 E4.03416
G1 X159.822 Y135.355 E4.05721
G1 X160.328 Y135.827 E4.08022
G1 X160.777 Y136.355 E4.10328
G1 X161.162 Y136.93 E4.12629
G1 X161.477 Y137.547 E4.14933
G1 X161.72 Y138.195 E4.17235
G1 X161.887 Y138.868 E4.19541
G1 X161.975 Y139.554 E4.21842
G1 X161.989 Y139.971 E4.23229
G1 X161.989 Y143.998 E4.36623
G1 X161.987 Y144.132 E4.37069
G1 X161.824 Y151.409 E4.61279
G1 X161.995 Y156.368 E4.77782
G1 X161.999 Y156.591 E4.78524
G1 X161.99 Y160.045 E4.90012
G1 X161.948 Y160.736 E4.92314
G1 X161.827 Y161.418 E4.94618
G1 X161.628 Y162.081 E4.96921
G1 X161.354 Y162.717 E4.99224
G1 X161.009 Y163.317 E5.01526
G1 X160.596 Y163.874 E5.03832
G1 X160.123 Y164.379 E5.06134
G1 X159.594 Y164.826 E5.08437
G1 X159.017 Y165.209 E5.1074
G1 X158.4 Y165.524 E5.13045
G1 X157.751 Y165.765 E5.15347
G1 X157.078 Y165.93 E5.17652
G1 X156.391 Y166.016 E5.19955
G1 X155.991 Y166.029 E5.21286
G1 X145.01 Y166.03 E5.57809
G1 X144.318 Y165.99 E5.60114
G1 X143.636 Y165.871 E5.62417
G1 X142.972 Y165.674 E5.6472
G1 X142.335 Y165.401 E5.67025
G1 X141.734 Y165.058 E5.69327
G1 X141.177 Y164.647 E5.71629
G1 X140.67 Y164.174 E5.73936
G1 X140.222 Y163.647 E5.76236
G1 X139.837 Y163.071 E5.7854
G1 X139.521 Y162.455 E5.80843
G1 X139.278 Y161.806 E5.83148
G1 X139.111 Y161.134 E5.85451
G1 X139.024 Y160.447 E5.87754
G1 X139.009 Y160.03 E5.89142
G1 X139.008 Y139.971 E6.55859
G1 X139.048 Y139.28 E6.58161
G1 X139.167 Y138.598 E6.60463
G1 X139.364 Y137.934 E6.62767
G1 X139.637 Y137.297 E6.65072
G1 X139.981 Y136.696 E6.67375
G1 X140.391 Y136.139 E6.69676
G1 X140.864 Y135.632 E6.71982
M204 S5000
M205 X30 Y30
G0 F3600 X141.257 Y135.813
M204 S500
M205 X20 Y20
G1 F1800 X141.779 Y135.396 E6.74204
G1 X142.348 Y135.043 E6.76431
G1 X142.955 Y134.761 E6.78657
G1 X143.591 Y134.553 E6.80883
G1 X144.247 Y134.423 E6.83107
G1 X145.008 Y134.371 E6.85644
G1 X155.989 Y134.371 E7.22167
G1 X156.657 Y134.411 E7.24393
G1 X157.315 Y134.53 E7.26617
G1 X157.955 Y134.727 E7.28844
G1 X158.566 Y134.999 E7.31069
G1 X159.14 Y135.342 E7.33293
G1 X159.67 Y135.751 E7.35519
G1 X160.147 Y136.22 E7.37744
G1 X160.565 Y136.742 E7.39968
G1 X160.917 Y137.311 E7.42194
G1 X161.199 Y137.918 E7.4442
G1 X161.407 Y138.554 E7.46645
G1 X161.537 Y139.21 E7.4887
G1 X161.589 Y139.971 E7.51407
G1 X161.589 Y143.998 E7.64801
G1 X161.588 Y144.124 E7.6522
G1 X161.425 Y151.415 E7.89476
G1 X161.596 Y156.382 E8.06006
G1 X161.599 Y156.59 E8.06698
G1 X161.59 Y160.044 E8.18186
G1 X161.548 Y160.711 E8.20409
G1 X161.427 Y161.369 E8.22634
G1 X161.229 Y162.008 E8.24859
G1 X160.955 Y162.619 E8.27086
G1 X160.611 Y163.192 E8.29309
G1 X160.201 Y163.721 E8.31535
G1 X159.73 Y164.197 E8.33762
G1 X159.207 Y164.613 E8.35985
G1 X158.637 Y164.964 E8.38211
G1 X158.03 Y165.244 E8.40435
G1 X157.393 Y165.45 E8.42661
G1 X156.737 Y165.579 E8.44885
G1 X155.991 Y165.629 E8.47372
G1 X145.01 Y165.63 E8.83895
G1 X144.342 Y165.59 E8.8612
G1 X143.683 Y165.471 E8.88348
G1 X143.044 Y165.274 E8.90572
G1 X142.433 Y165.002 E8.92796
G1 X141.858 Y164.659 E8.95023
G1 X141.328 Y164.251 E8.97248
G1 X140.851 Y163.782 E8.99473
G1 X140.434 Y163.259 E9.01697
G1 X140.081 Y162.69 E9.03925
G1 X139.799 Y162.084 E9.06148
G1 X139.591 Y161.448 E9.08373
G1 X139.461 Y160.791 E9.10601
G1 X139.409 Y160.03 E9.13138
G1 X139.408 Y139.971 E9.79854
G1 X139.448 Y139.303 E9.8208
G1 X139.567 Y138.645 E9.84304
G1 X139.764 Y138.006 E9.86528
G1 X140.036 Y137.394 E9.88756
G1 X140.379 Y136.82 E9.9098
G1 X140.788 Y136.29 E9.93206
G1 X141.257 Y135.813 E9.95431
M204 S5000
M205 X30 Y30
G0 F3600 X141.183 Y136.448
M204 S500
M205 X20 Y20
G1 F1800 X141.648 Y136.002 E9.97574
G1 X142.165 Y135.617 E9.99718
G1 X142.726 Y135.299 E10.01863
G1 X143.322 Y135.052 E10.04009
G1 X143.943 Y134.881 E10.06151
G1 X144.581 Y134.789 E10.08295
G1 X145.008 Y134.771 E10.09717
G1 X155.989 Y134.771 E10.46239
G1 X156.632 Y134.811 E10.48382
G1 X157.266 Y134.93 E10.50528
G1 X157.88 Y135.127 E10.52672
G1 X158.465 Y135.398 E10.54817
G1 X159.012 Y135.74 E10.56962
G1 X159.512 Y136.146 E10.59105
G1 X159.958 Y136.611 E10.61248
G1 X160.343 Y137.128 E10.63392
G1 X160.662 Y137.689 E10.65538
G1 X160.908 Y138.285 E10.67683
G1 X161.079 Y138.906 E10.69825
G1 X161.171 Y139.544 E10.71969
G1 X161.189 Y139.971 E10.7339
G1 X161.189 Y143.998 E10.86784
G1 X161.188 Y144.115 E10.87173
G1 X161.024 Y151.42 E11.11476
G1 X161.196 Y156.396 E11.28036
G1 X161.199 Y156.589 E11.28678
G1 X161.19 Y160.043 E11.40166
G1 X161.148 Y160.686 E11.42309
G1 X161.027 Y161.319 E11.44453
G1 X160.829 Y161.933 E11.46599
G1 X160.556 Y162.517 E11.48743
G1 X160.213 Y163.063 E11.50887
G1 X159.806 Y163.562 E11.53029
G1 X159.339 Y164.007 E11.55175
G1 X158.821 Y164.391 E11.57319
G1 X158.26 Y164.707 E11.59461
G1 X157.663 Y164.952 E11.61607
G1 X157.041 Y165.122 E11.63752
G1 X156.403 Y165.213 E11.65895
G1 X155.99 Y165.229 E11.6727
G1 X145.009 Y165.23 E12.03793
G1 X144.366 Y165.19 E12.05936
G1 X143.732 Y165.071 E12.08081
G1 X143.119 Y164.874 E12.10223
G1 X142.534 Y164.603 E12.12367
G1 X141.987 Y164.262 E12.14511
G1 X141.486 Y163.855 E12.16658
G1 X141.04 Y163.39 E12.18801
G1 X140.655 Y162.873 E12.20945
G1 X140.337 Y162.312 E12.2309
G1 X140.09 Y161.717 E12.25232
G1 X139.919 Y161.095 E12.27378
G1 X139.827 Y160.457 E12.29522
G1 X139.809 Y160.03 E12.30943
G1 X139.808 Y139.971 E12.9766
G1 X139.848 Y139.328 E12.99803
G1 X139.967 Y138.694 E13.01948
G1 X140.164 Y138.08 E13.04093
G1 X140.435 Y137.495 E13.06237
G1 X140.777 Y136.949 E13.0838
G1 X141.183 Y136.448 E13.10525
M204 S5000
M205 X30 Y30
G1 F2400 E8.10525
G0 F3600 X144.334 Y140.576
G0 X145.613 Y140.576
G0 X149.942 Y147.135
G0 X150.032 Y147.177
M204 S500
M205 X20 Y20
;TYPE:WALL-INNER
G1 F2400 E13.10525
G1 F1800 X149.901 Y147.476 E13.11611
G1 X149.785 Y147.778 E13.12687
G1 X149.684 Y148.083 E13.13755
G1 X149.597 Y148.396 E13.14836
G1 X149.527 Y148.712 E13.15912
G1 X149.47 Y149.031 E13.1699
G1 X149.431 Y149.353 E13.18069
G1 X149.406 Y149.676 E13.19146
G1 X149.399 Y150 E13.20224
G1 X149.406 Y150.324 E13.21302
G1 X149.431 Y150.647 E13.2238
G1 X149.47 Y150.969 E13.23458
G1 X149.527 Y151.288 E13.24536
G1 X149.597 Y151.604 E13.25613
G1 X149.684 Y151.917 E13.26693
G1 X149.785 Y152.222 E13.27762
G1 X149.901 Y152.524 E13.28838
G1 X150.032 Y152.823 E13.29924
G1 X150.179 Y153.111 E13.30999
G1 X150.338 Y153.393 E13.32076
G1 X150.511 Y153.667 E13.33154
G1 X150.697 Y153.931 E13.34228
G1 X150.897 Y154.187 E13.35308
G1 X151.11 Y154.432 E13.36388
G1 X151.332 Y154.667 E13.37463
G1 X151.567 Y154.89 E13.38541
G1 X151.812 Y155.102 E13.39618
G1 X152.068 Y155.302 E13.40699
G1 X152.333 Y155.488 E13.41776
G1 X152.606 Y155.661 E13.42851
G1 X152.888 Y155.821 E13.43929
G1 X153.178 Y155.967 E13.45009
G1 X153.474 Y156.098 E13.46085
G1 X153.775 Y156.214 E13.47158
G1 X154.084 Y156.316 E13.48241
G1 X154.395 Y156.402 E13.49314
G1 X154.712 Y156.473 E13.50394
G1 X155.031 Y156.529 E13.51471
G1 X155.399 Y156.572 E13.52704
G1 X155.399 Y159.438 E13.62236
G1 X145.799 Y159.439 E13.94166
G1 X145.599 Y159.439 E13.94831
G1 X145.599 Y159.239 E13.95262
G1 X145.599 Y140.562 E14.57382
G1 X155.199 Y140.561 E14.89311
G1 X155.399 Y140.561 E14.89977
G1 X155.399 Y140.761 E14.90407
G1 X155.399 Y143.428 E14.99278
G1 X155.031 Y143.471 E15.0051
G1 X154.712 Y143.527 E15.01587
G1 X154.395 Y143.598 E15.02668
G1 X154.084 Y143.684 E15.03741
G1 X153.775 Y143.786 E15.04823
G1 X153.474 Y143.902 E15.05896
G1 X153.178 Y144.033 E15.06973
G1 X152.888 Y144.179 E15.08053
G1 X152.606 Y144.339 E15.09131
G1 X152.333 Y144.512 E15.10206
G1 X152.068 Y144.698 E15.11283
G1 X151.812 Y144.898 E15.12363
G1 X151.567 Y145.11 E15.13441
G1 X151.332 Y145.333 E15.14519
G1 X151.11 Y145.568 E15.15594
G1 X150.897 Y145.813 E15.16674
G1 X150.697 Y146.069 E15.17754
G1 X150.511 Y146.333 E15.18828
G1 X150.338 Y146.607 E15.19906
G1 X150.179 Y146.889 E15.20983
G1 X150.032 Y147.177 E15.22058
M204 S5000
M205 X30 Y30
G0 F3600 X149.942 Y147.135
G0 X150.867 Y145.788
G0 X151.787 Y144.868
G0 X152.87 Y144.144
G0 X153.843 Y143.741
G0 X155.335 Y143.335
G0 X155.391 Y143.83
M204 S500
M205 X20 Y20
;TYPE:WALL-OUTER
G1 F1800 X155.09 Y143.867 E15.23067
G1 X154.79 Y143.919 E15.24079
G1 X154.492 Y143.986 E15.25095
G1 X154.2 Y144.067 E15.26103
G1 X153.91 Y144.163 E15.27119
G1 X153.627 Y144.272 E15.28128
G1 X153.349 Y144.395 E15.29139
G1 X153.077 Y144.532 E15.30152
G1 X152.812 Y144.682 E15.31165
G1 X152.555 Y144.845 E15.32177
G1 X152.306 Y145.02 E15.33189
G1 X152.066 Y145.207 E15.34201
G1 X151.836 Y145.406 E15.35213
G1 X151.615 Y145.616 E15.36227
G1 X151.406 Y145.837 E15.37238
G1 X151.206 Y146.067 E15.38252
G1 X151.019 Y146.307 E15.39264
G1 X150.844 Y146.556 E15.40276
G1 X150.681 Y146.812 E15.41286
G1 X150.532 Y147.078 E15.423
G1 X150.394 Y147.349 E15.43311
G1 X150.271 Y147.628 E15.44325
G1 X150.162 Y147.912 E15.45337
G1 X150.067 Y148.2 E15.46346
G1 X149.985 Y148.493 E15.47358
G1 X149.919 Y148.79 E15.4837
G1 X149.866 Y149.09 E15.49383
G1 X149.829 Y149.392 E15.50395
G1 X149.806 Y149.696 E15.51409
G1 X149.799 Y150 E15.5242
G1 X149.806 Y150.304 E15.53432
G1 X149.829 Y150.608 E15.54446
G1 X149.866 Y150.91 E15.55458
G1 X149.919 Y151.21 E15.56471
G1 X149.985 Y151.507 E15.57483
G1 X150.067 Y151.8 E15.58495
G1 X150.162 Y152.088 E15.59504
G1 X150.271 Y152.372 E15.60515
G1 X150.394 Y152.651 E15.61529
G1 X150.532 Y152.922 E15.62541
G1 X150.681 Y153.188 E15.63555
G1 X150.844 Y153.444 E15.64564
G1 X151.019 Y153.693 E15.65577
G1 X151.206 Y153.933 E15.66589
G1 X151.406 Y154.163 E15.67602
G1 X151.615 Y154.384 E15.68614
G1 X151.836 Y154.594 E15.69628
G1 X152.066 Y154.793 E15.7064
G1 X152.306 Y154.98 E15.71652
G1 X152.555 Y155.155 E15.72664
G1 X152.812 Y155.318 E15.73676
G1 X153.077 Y155.468 E15.74689
G1 X153.349 Y155.605 E15.75702
G1 X153.627 Y155.728 E15.76713
G1 X153.91 Y155.837 E15.77721
G1 X154.2 Y155.933 E15.78738
G1 X154.492 Y156.014 E15.79745
G1 X154.79 Y156.081 E15.80761
G1 X155.09 Y156.133 E15.81774
G1 X155.391 Y156.17 E15.82783
G1 X155.695 Y156.193 E15.83797
G1 X155.799 Y156.195 E15.84143
G1 X155.799 Y159.838 E15.96259
G1 X145.399 Y159.839 E16.3085
G1 X145.199 Y159.839 E16.31515
G1 X145.199 Y159.639 E16.31946
G1 X145.199 Y140.162 E16.96726
G1 X155.599 Y140.161 E17.31317
G1 X155.799 Y140.161 E17.31982
G1 X155.799 Y140.361 E17.32413
G1 X155.799 Y143.805 E17.43868
G1 X155.391 Y143.83 E17.45227
M204 S5000
M205 X30 Y30
G0 F3600 X155.193 Y143.854
G0 X155.009 Y143.081
M204 S500
M205 X20 Y20
;TYPE:SKIN
G1 F1800 X154.636 Y143.145 E17.46486
G1 X154.3 Y143.22 E17.47631
G1 X153.971 Y143.311 E17.48766
G1 X153.644 Y143.419 E17.49912
G1 X153.325 Y143.541 E17.51048
G1 X153.012 Y143.68 E17.52187
G1 X152.704 Y143.835 E17.53334
G1 X152.405 Y144.004 E17.54476
G1 X152.116 Y144.188 E17.55615
G1 X151.836 Y144.384 E17.56752
G1 X151.564 Y144.596 E17.57899
G1 X151.305 Y144.821 E17.5904
G1 X151.055 Y145.058 E17.60186
G1 X150.821 Y145.306 E17.6132
G1 X150.596 Y145.565 E17.62461
G1 X150.383 Y145.837 E17.6361
G1 X150.187 Y146.116 E17.64744
G1 X150.003 Y146.406 E17.65887
G1 X149.836 Y146.704 E17.67023
G1 X149.679 Y147.01 E17.68167
G1 X149.54 Y147.328 E17.69321
G1 X149.418 Y147.647 E17.70457
G1 X149.311 Y147.97 E17.71589
G1 X149.219 Y148.302 E17.72735
G1 X149.145 Y148.636 E17.73872
G1 X149.084 Y148.973 E17.75012
G1 X149.043 Y149.314 E17.76154
G1 X149.016 Y149.657 E17.77298
G1 X149.009 Y150 E17.78439
G1 X149.016 Y150.343 E17.7958
G1 X149.043 Y150.686 E17.80725
G1 X149.084 Y151.027 E17.81867
G1 X149.145 Y151.364 E17.83006
G1 X149.219 Y151.698 E17.84144
G1 X149.311 Y152.03 E17.8529
G1 X149.418 Y152.353 E17.86421
G1 X149.54 Y152.672 E17.87557
G1 X149.679 Y152.99 E17.88712
G1 X149.836 Y153.296 E17.89856
G1 X150.003 Y153.594 E17.90992
G1 X150.187 Y153.884 E17.92134
G1 X150.383 Y154.163 E17.93268
G1 X150.596 Y154.435 E17.94417
G1 X150.821 Y154.694 E17.95558
G1 X151.055 Y154.942 E17.96692
G1 X151.305 Y155.179 E17.97838
G1 X151.564 Y155.404 E17.98979
G1 X151.836 Y155.616 E18.00126
G1 X152.116 Y155.812 E18.01263
G1 X152.405 Y155.996 E18.02403
G1 X152.704 Y156.165 E18.03545
G1 X153.012 Y156.32 E18.04692
G1 X153.325 Y156.459 E18.05831
G1 X153.644 Y156.581 E18.06967
G1 X153.971 Y156.689 E18.08112
G1 X154.3 Y156.78 E18.09247
G1 X154.636 Y156.855 E18.10393
G1 X155.009 Y156.919 E18.11651
G1 X155.009 Y159.048 E18.18732
G1 X145.989 Y159.049 E18.48733
G1 X145.989 Y140.952 E19.08924
G1 X155.009 Y140.951 E19.38924
G1 X155.009 Y143.081 E19.46009
M204 S5000
M205 X30 Y30
G0 F3600 X149.356 Y143.363
M204 S500
M205 X20 Y20
G1 F1800 X149.04 Y143.698 E19.47541
G1 X148.748 Y144.036 E19.49026
G1 X148.456 Y144.404 E19.50589
G1 X148.389 Y144.5 E19.50978
G1 X148.389 Y143.352 E19.54796
G1 X149.368 Y143.351 E19.58052
G1 X149.356 Y143.363 E19.58109
M204 S5000
M205 X30 Y30
G0 F3600 X149.639 Y143.645
M204 S500
M205 X20 Y20
G1 F1800 X149.337 Y143.966 E19.59575
G1 X149.056 Y144.291 E19.61004
